ncols         219
nrows         142
xllcorner     582771.758091
yllcorner     2323008.404224
cellsize      49.98587700
NODATA_value  -9999
10.8381 10.8900 10.8391 9.7931 10.2669 11.9428 13.0247 12.9119 12.2909 11.9650 11.6128 11.6428 11.6622 10.6672 11.6584 13.0197 14.1522 14.4394 14.1444 14.1791 14.1053 13.1059 12.9406 11.3700 9.6578 8.7150 9.9334 10.0312 9.7653 11.3272 12.5081 12.9478 12.2869 11.6291 10.4688 9.0562 8.0000 8.0000 8.0000 8.0000 8.0000 8.0000 8.0000 8.0000 8.0000 8.0000 8.0000 8.0000 8.0000 8.0000 8.0000 8.0000 8.2216 9.5306 11.4141 12.9725 12.7863 13.5628 14.6119 15.4419 16.1938 15.9838 14.9366 14.4575 14.0984 13.5013 13.3103 13.0688 13.1009 13.9625 15.3359 15.3303 14.9053 14.2984 13.6512 13.1138 13.7225 14.4078 14.0744 13.8353 12.5272 12.6528 10.7256 7.7559 5.3716 5.0000 5.6594 9.1275 10.5153 8.6562 6.0678 5.0047 5.0000 5.0000 5.0000 5.0000 5.0000 5.0000 5.0000 5.0000 5.0000 5.0000 5.0000 5.0000 5.0000 5.0000 5.0000 5.0000 5.0000 5.0000 5.2716 7.6016 10.0056 10.4131 11.1263 11.7772 12.2800 12.7803 13.2825 13.9425 14.9934 16.3013 17.0681 17.0694 17.9994 16.4688 11.5063 5.2575 5.0441 7.1275 6.4028 6.9072 9.7744 11.3494 12.3950 13.4203 15.1269 15.8628 15.7866 16.4678 16.9491 16.8966 15.5288 16.0478 16.7909 16.3762 16.2125 15.9556 15.6400 15.1494 15.4087 16.5694 16.2478 11.9866 9.9525 10.3319 10.6300 8.8934 6.0053 5.2069 5.0000 5.0000 5.0000 5.0000 5.0000 6.5319 10.1016 12.8803 14.4619 15.9278 15.3694 14.4984 13.6394 13.1278 13.3206 13.4203 12.9131 12.2909 12.4503 11.6209 10.6225 10.6353 10.5119 10.6700 11.1797 12.7587 14.5659 14.7528 13.8797 12.7972 11.2166 12.2009 13.0638 14.2534 14.3341 12.7825 11.0025 11.5316 11.0150 10.9444 10.9172 10.1944 10.0150 10.2031 11.0138 11.0741 11.7881 12.0087 12.1416 11.6788 11.0978 10.3766 11.2744 12.5538 13.6941 12.5456 12.5606 13.2500 12.1344
9.2522 9.6053 9.8525 8.3263 10.0437 12.5166 12.5513 11.9419 11.7184 11.4669 10.9828 10.7322 9.8425 8.6809 11.0897 12.1741 12.7956 12.7244 14.1844 14.2891 14.0906 12.4744 10.4587 9.2853 8.5853 9.1591 9.3097 10.4269 12.2216 12.1944 12.7300 13.0784 11.8491 10.9113 9.4091 8.4350 8.0000 8.0000 8.0000 8.0000 8.0000 8.0000 8.0000 8.0000 8.0000 8.0000 8.0000 8.0000 8.0000 8.0000 8.0000 8.1016 9.1713 11.2703 13.0131 13.2144 12.8516 13.5044 14.5538 15.5447 17.3256 16.4584 15.4331 14.9091 14.4291 14.0928 13.7859 13.5019 13.5950 14.8453 14.8991 14.8978 14.9613 14.3866 13.8862 13.6953 14.2859 14.6409 13.9066 13.3659 12.8962 13.1906 12.2550 8.0844 5.5228 5.1213 7.2572 8.8919 9.3406 6.9381 5.1112 5.0000 5.0000 5.0000 5.0000 5.0000 5.0000 5.0000 5.0000 5.0000 5.0000 5.0000 5.0000 5.0000 5.0000 5.0000 5.0000 5.0000 5.0000 5.2013 7.3434 9.4750 9.8347 10.4906 11.1253 11.6269 12.1278 12.6281 13.1284 13.6294 14.1313 14.7931 15.8447 16.4387 17.5387 16.9428 15.4059 12.7025 7.4453 5.5209 5.3863 5.4191 7.9553 9.7400 10.8841 12.2616 13.5781 13.6734 14.5159 16.5456 17.4806 17.9075 16.1841 16.3378 16.4553 15.9528 15.6713 14.8706 14.1962 13.3591 13.2063 14.7022 12.2094 9.6259 8.9403 10.6878 11.1806 8.0731 6.0487 5.0816 5.0000 5.0000 5.0000 5.0409 5.0866 8.1691 12.6131 16.1053 16.2641 15.9041 15.2450 13.7484 12.8897 12.2516 12.4444 12.6506 12.3444 11.7394 12.6991 12.0406 10.2163 9.5706 9.6631 9.9459 10.9050 12.8000 14.5003 14.7659 12.0434 10.3266 12.0131 13.9625 14.8903 15.1169 15.1316 13.0094 11.7666 13.3647 12.3656 11.1628 11.2428 10.7175 10.6881 10.6884 11.0269 11.3972 11.7584 11.6444 11.7081 11.3678 11.1209 10.4937 11.4025 12.4994 13.7159 14.0766 13.7606 13.6769 13.1484
9.3569 8.9469 8.3219 7.5944 8.7559 11.2081 10.8862 10.5906 10.9187 10.8666 10.5844 10.2887 9.5106 7.6828 9.0347 10.8700 11.1978 10.9969 13.3197 14.1462 14.0300 12.1344 10.1216 9.1681 9.1378 9.6672 9.6159 10.8866 12.4834 12.4622 11.9688 10.1084 10.4259 10.6066 8.3088 8.0900 8.0000 8.0000 8.0000 8.0000 8.0000 8.0000 8.0000 8.0000 8.0000 8.0000 8.0000 8.0028 8.0241 8.0641 8.1359 8.9231 10.9294 12.8763 13.7284 13.3434 12.9434 13.4456 14.4719 15.8938 17.2650 16.3791 14.9769 14.3541 14.5869 14.4656 14.2581 14.1003 13.8584 14.9659 14.1966 14.3000 14.4569 14.0053 14.0941 14.2431 15.3309 15.2031 13.8975 13.8038 13.8044 12.9400 12.6475 5.8547 5.0566 5.5697 6.9903 8.2978 7.8488 5.4903 5.0000 5.0000 5.0000 5.0000 5.0000 5.0000 5.0000 5.0000 5.0000 5.0000 5.0000 5.0000 5.0000 5.0000 5.0000 5.0000 5.0000 5.0000 5.1447 7.0581 8.8784 9.2609 9.8547 10.4734 10.9747 11.4753 11.9753 12.4762 12.9766 13.4769 13.9775 14.4778 14.9800 15.6416 15.9644 16.0075 16.0900 16.0197 13.5344 8.6225 6.5906 5.0316 5.8153 6.7378 7.3153 9.4009 10.9697 11.5534 12.4591 14.8725 15.7156 16.7159 15.8153 15.0000 14.2425 12.9219 13.0831 12.5712 11.2169 9.9744 9.8041 10.5813 10.6737 9.7428 8.2972 8.1084 8.0575 5.9763 5.1869 5.0466 5.0272 5.3959 6.2841 7.8259 8.7459 10.2025 13.4250 15.6772 16.4809 15.6816 15.6278 13.4878 12.1397 11.4016 11.5487 11.7875 11.7641 11.3650 12.9881 12.3881 10.6984 8.8619 8.7416 10.3031 11.4981 13.6034 14.7662 14.4816 12.0425 12.4803 14.2131 14.4944 14.2775 14.1356 14.1119 11.5041 11.3431 13.5156 12.9794 12.1237 11.5722 11.3641 11.3616 11.3578 11.3622 11.4875 11.4141 11.2969 11.2784 11.0725 11.0944 10.6241 11.5316 12.6284 13.7247 14.3503 12.6581 11.1313 10.9078
9.1088 9.0988 8.6566 8.2844 6.8184 8.7788 9.3000 9.3631 10.3359 10.3847 10.1500 9.8397 9.3744 7.9228 8.7825 10.1731 11.3419 11.7338 12.8419 13.6431 13.9656 13.0413 12.1897 10.0741 9.5884 10.0553 10.3103 10.3809 12.2913 13.0131 11.5275 9.3116 9.4691 8.5609 8.0000 8.0000 8.0000 8.0000 8.0000 8.0000 8.0000 8.0000 8.0000 8.0000 8.0528 8.2275 8.3287 8.4453 8.5625 8.6878 9.4169 11.6334 13.0531 14.0591 13.8825 13.4725 13.0628 13.3869 14.3947 15.7722 15.8044 15.4878 15.5269 14.4213 15.1784 15.0428 14.6459 14.1438 13.1969 12.6172 13.9587 14.7925 14.0006 13.7447 14.1169 15.2800 16.3563 16.0422 14.7913 13.9187 12.8763 12.1350 11.6875 7.7562 5.0000 5.2197 6.3956 7.5975 6.1825 5.0100 5.0000 5.0000 5.0000 5.0000 5.0000 5.0000 5.0000 5.0000 5.0000 5.0000 5.0000 5.0000 5.0000 5.0000 5.0000 5.0000 5.0000 5.0919 6.7278 8.2362 8.6766 9.2156 9.8216 10.3216 10.8222 11.3228 11.8231 12.3237 12.8244 13.3247 13.8253 14.3259 14.8247 15.3156 15.6750 15.9431 16.1347 16.2903 16.0828 14.1506 11.0556 8.0228 6.4866 5.0303 5.3006 7.1034 8.2453 8.9888 9.9234 11.9694 12.1975 12.2669 12.6316 12.5744 11.9525 9.9828 9.5606 10.1737 8.9969 8.1922 8.3259 7.4556 8.4866 8.8947 7.7281 6.8706 5.9138 5.2169 5.3928 5.6547 7.0091 8.4244 9.8794 11.6725 13.6306 13.8447 12.7884 13.8375 15.4738 15.3906 15.5209 14.5250 11.5441 10.5822 10.6313 10.9069 11.1019 11.2288 13.2712 12.8459 11.8747 10.3284 11.3644 13.6403 13.4106 15.4194 14.8059 13.4469 13.2316 14.1109 14.1847 13.5162 13.9362 14.9219 15.9434 13.7087 12.6116 13.4838 12.2203 11.9000 11.9894 11.8966 11.8172 11.6325 11.3053 11.2009 11.0778 10.9456 10.8734 10.7794 11.0206 10.7650 11.6603 12.7444 12.8791 11.4978 9.8653 9.0669 9.0547
8.3703 8.0428 8.2188 8.3153 7.0934 7.5966 8.3438 9.3428 9.7659 9.7238 9.6678 9.4513 9.1134 9.1034 10.0703 10.0572 10.2519 10.9888 12.6469 13.7384 13.8897 13.2453 12.2247 10.6422 10.6213 11.1716 11.4031 11.6128 13.8631 15.1491 12.6884 9.3616 8.2600 8.0000 8.0000 8.0000 8.0000 8.0000 8.0000 8.0000 8.0000 8.0000 8.0000 8.0000 8.1356 8.9022 9.0625 9.1812 9.3013 10.0522 11.6231 13.0194 14.2031 14.6209 14.1862 13.6256 13.1919 13.2916 14.2413 14.6803 14.4012 14.3888 14.8822 15.8850 17.1262 16.4287 15.4412 14.0538 12.5572 12.1431 14.4972 14.2097 13.8128 13.6119 14.1725 15.6903 17.4341 17.3453 15.8656 14.4278 13.0300 11.7284 10.6478 6.8416 5.0000 5.0163 5.8012 6.5872 5.1472 5.0000 5.0000 5.0000 5.0000 5.0000 5.0000 5.0000 5.0000 5.0000 5.0000 5.0000 5.0000 5.0000 5.0000 5.0000 5.0000 5.0000 5.0628 6.3534 7.5650 8.0791 8.5778 9.1687 9.6691 10.1700 10.6703 11.1706 11.6713 12.1716 12.6722 13.1716 13.6650 14.1500 14.6278 14.9753 15.0878 15.3025 15.7772 15.9691 15.9913 15.8966 15.9125 12.9081 9.4031 6.7244 5.2319 5.1434 5.7162 6.5647 7.5116 9.0009 9.0525 9.5831 10.2697 10.2950 8.0575 7.3478 8.1019 8.3484 6.7069 6.1247 6.1359 5.4331 5.7322 6.8953 6.6053 5.9338 5.3612 5.4522 6.2450 8.4806 10.3672 11.9350 13.3216 14.7141 15.2484 15.0447 14.0722 13.1034 14.2109 14.8916 14.9250 15.1981 12.3797 9.8100 9.6938 10.0206 10.3328 11.1969 13.8041 16.2944 14.7906 12.9647 13.4669 14.7303 13.8828 15.2072 14.8562 13.5656 12.9625 14.3337 14.2144 13.6825 15.2113 16.4497 17.8516 17.4859 14.2500 13.8488 13.1041 12.0434 12.2338 11.8247 11.4922 11.1322 10.7269 10.7678 10.9237 10.6488 10.4897 10.4928 10.9203 10.9041 11.7169 11.4044 10.1716 8.5288 7.9153 8.2856 8.1234
9.0984 8.2572 8.3263 8.3766 7.9956 7.4934 8.2847 9.0831 9.0831 9.0403 8.9984 8.9478 8.8209 9.8406 10.5609 9.5966 9.6797 10.6116 12.8547 13.3634 12.4237 11.8612 10.6250 10.9884 11.9741 12.9025 12.9513 13.0419 15.4766 16.1319 12.8431 10.1216 8.7612 8.0097 8.0000 8.0000 8.0000 8.0000 8.0000 8.0000 8.0000 8.0000 8.0000 8.0000 8.0303 9.2084 9.8047 9.9209 10.7819 11.8878 13.1022 13.9959 14.2794 14.0094 13.6059 13.9497 13.5791 13.0644 13.6181 13.2019 12.8325 13.1616 13.7444 15.7987 17.7697 17.0163 16.1584 15.2113 13.9128 12.1353 13.5094 13.9263 13.5550 13.2603 13.9678 15.8450 17.3766 17.3719 16.2709 14.8028 13.3497 11.9678 10.7153 7.9253 5.0950 5.0000 5.2916 5.4809 5.0000 5.0000 5.0000 5.0000 5.0000 5.0000 5.0000 5.0000 5.0000 5.0000 5.0000 5.0000 5.0000 5.0000 5.0000 5.0000 5.0000 5.0344 5.9153 6.8784 7.4553 7.9462 8.5159 9.0166 9.5169 10.0175 10.5178 11.0184 11.5188 12.0125 12.4994 12.9784 13.4563 13.9334 14.2800 14.3922 14.4803 14.5684 15.1319 15.5847 15.6534 15.6372 15.9784 15.6956 14.1406 11.1684 7.7247 5.4059 5.0000 5.0378 5.3653 6.0759 6.4938 6.9119 6.6844 6.2781 5.3244 5.6962 6.3081 6.7863 5.7666 5.1103 5.0000 5.0037 5.0078 5.1609 5.3012 5.9016 6.6403 7.7394 9.4284 11.7309 13.5381 14.4762 14.9462 15.0166 15.1331 15.7356 15.3722 14.2578 13.5109 14.1069 14.2231 14.9409 13.9494 9.9916 8.7531 9.0325 9.2066 9.2609 11.9103 13.7019 15.0619 13.7697 13.2700 12.8072 12.5591 12.8806 13.5025 13.0428 12.5978 14.1606 14.9584 14.3612 14.4216 16.8891 17.5031 17.1359 14.1191 12.2700 13.1834 12.5869 12.0469 11.2791 10.7741 10.4631 10.2259 10.3691 11.3956 10.7006 10.1600 10.1906 10.7872 10.9972 10.9072 10.6194 10.4134 9.8234 8.7728 9.0547 9.7563
10.1122 9.2503 8.4016 8.6766 7.9319 6.8625 8.1431 8.6759 8.6891 8.7022 8.7278 8.7547 9.3806 9.3294 9.5763 9.3978 10.5697 11.9831 13.1928 11.9703 10.8334 10.4456 10.3928 11.1850 11.8350 12.8647 13.6441 14.2391 15.4481 15.0312 11.6562 8.6675 8.0453 8.0000 8.0000 8.0000 8.0000 8.0000 8.0000 8.0000 8.0000 8.0000 8.0000 8.0000 8.0000 8.5509 10.3972 11.3912 12.7144 13.1763 13.8084 14.0625 13.6353 12.7322 12.6806 13.6284 13.6381 14.0266 14.8572 12.2037 11.7634 12.7741 13.5003 15.1653 16.8694 16.9606 17.4556 16.8153 15.0544 11.7456 11.6763 12.1659 12.3831 12.7769 13.9556 15.9175 16.9666 17.0791 16.0878 15.0591 13.7272 12.2716 10.9288 8.9916 5.3400 5.0000 5.0347 5.0163 5.0000 5.0000 5.0000 5.0000 5.0000 5.0000 5.0000 5.0000 5.0000 5.0000 5.0000 5.0000 5.0000 5.0000 5.0000 5.0000 5.0025 5.4169 6.1937 6.8134 7.3156 7.8634 8.3638 8.8644 9.3650 9.8650 10.3606 10.8475 11.3278 11.8059 12.2837 12.7622 13.2384 13.5844 13.6962 13.7844 13.8728 13.9609 14.1222 15.0947 15.3384 15.3791 15.7738 16.1497 16.3272 14.4431 11.4719 9.2037 6.8278 5.1756 5.0000 5.0000 5.0131 5.1756 5.6537 5.7572 5.2213 5.0000 5.0256 5.2175 5.0828 5.0000 5.0000 5.6881 5.7456 5.7288 7.4759 10.6138 12.0628 13.0909 13.2419 14.0581 14.0009 14.2309 14.8028 14.9872 15.1447 15.4434 16.4097 15.7116 14.2909 13.8687 13.6228 14.0797 14.5903 11.4469 7.8513 7.9016 6.9809 9.0803 12.0425 12.6522 14.0712 13.9809 13.2500 12.3831 11.4003 11.4497 12.2903 12.1672 12.1597 13.1403 14.0288 14.0281 14.0444 13.7212 14.0906 14.9259 13.6944 11.8147 11.2997 10.5394 11.1219 11.9525 11.9328 10.6388 10.3253 10.4031 10.5344 9.6772 10.1094 10.3112 11.2741 11.2175 10.3744 9.7741 9.4191 9.6678 9.4263 9.3763 10.4156
10.6412 10.3363 9.2188 8.4506 6.6772 7.3375 7.9678 8.7356 9.2619 9.3575 9.4003 9.6713 12.5863 11.7150 9.5169 9.1156 10.6556 12.8722 12.5891 11.2531 10.0759 9.5881 10.1706 10.8837 12.1334 13.2303 13.9350 14.4556 14.1881 13.3809 10.7641 8.4997 8.0000 8.0000 8.0000 8.0000 8.0000 8.0000 8.0000 8.0000 8.0000 8.0000 8.0000 8.0000 8.0000 8.0803 9.8550 13.4225 13.4066 13.6741 13.8919 13.2878 12.2300 10.8975 11.0309 12.6763 14.2594 14.6709 15.8188 15.0575 15.0109 16.2456 14.4859 15.3003 16.7744 16.4556 17.3259 17.4369 15.9731 11.5966 10.9606 11.9153 12.3291 12.6606 14.0312 15.8553 16.5803 16.7866 15.7919 14.7956 13.7950 12.6144 11.1991 9.6659 5.7675 5.0000 5.0000 5.0000 5.0000 5.0000 5.0000 5.0000 5.0000 5.0000 5.0000 5.0000 5.0000 5.0000 5.0000 5.0000 5.0000 5.0000 5.0000 5.0000 5.0172 5.5081 6.1531 6.6847 7.2106 7.7112 8.2116 8.7078 9.1959 9.6772 10.1550 10.6337 11.1112 11.5894 12.0675 12.5444 12.8891 13.0006 13.0887 13.1769 13.2650 13.3534 13.4416 13.9403 14.9637 15.1100 15.8787 16.1891 16.0300 15.4769 14.4256 13.2072 9.6403 6.6531 5.1894 5.0000 5.0000 5.0163 5.3319 5.3681 5.0391 5.0000 5.0662 5.5375 5.1388 5.0006 5.0000 6.2044 7.4922 9.6297 14.0225 14.5428 15.3053 15.3950 14.3591 14.0978 14.3750 14.3481 14.7013 14.9269 15.1353 15.2856 16.3294 16.9091 15.6731 14.5675 13.7612 13.1600 13.4003 12.8281 11.9769 12.6694 11.4391 10.7137 12.4994 13.0166 13.3616 14.0475 13.2141 12.3150 11.4838 11.5947 12.2953 13.0019 13.3497 12.8212 13.3928 14.5206 13.4350 12.1687 13.9187 14.7934 12.7563 11.1322 10.6025 8.9750 9.9300 11.8481 12.0769 10.3953 10.2347 10.0522 9.9747 10.6834 10.9900 11.2119 12.1100 11.4950 10.3391 9.0478 8.9806 9.4606 9.1469 8.3378 9.0375
9.9794 11.3872 10.7116 9.1175 7.4631 7.5378 7.5700 8.3153 9.2034 9.9091 10.1616 12.2003 15.7284 13.8081 10.5659 8.7450 10.2881 11.4181 11.0678 9.8256 8.9700 9.0053 10.2050 11.0875 12.6394 13.5291 14.3366 15.0484 14.0447 12.8719 10.7134 8.3687 8.0000 8.0000 8.0000 8.0000 8.0000 8.0000 8.0000 8.0000 8.0000 8.0000 8.0000 8.0000 8.0000 8.2850 10.3769 12.2075 13.1394 13.5156 12.8359 11.2775 9.6119 9.0956 10.3313 12.0981 14.0516 15.3678 16.5066 17.3869 17.5662 17.0525 14.9000 15.1000 16.0519 17.5097 18.4269 17.5044 16.5947 14.4344 12.9481 12.6775 11.8725 12.7384 14.1316 15.5428 16.3050 16.4925 15.4959 14.4997 13.5034 12.5066 11.4397 10.1219 6.4106 5.0000 5.0000 5.0000 5.0000 5.0000 5.0000 5.0000 5.0000 5.0000 5.0000 5.0000 5.0000 5.0000 5.0000 5.0000 5.0000 5.0000 5.0000 5.0000 5.0194 5.4859 6.0441 6.5581 7.0550 7.5447 8.0266 8.5050 8.9825 9.4609 9.9388 10.4169 10.8950 11.3731 11.8494 12.1934 12.3047 12.3928 12.4812 12.5694 12.6578 12.7456 12.8337 12.9263 14.0444 15.0947 15.9228 15.4506 14.5469 13.5644 13.1159 14.1094 11.4491 9.7191 7.7066 5.1950 5.0000 5.0000 5.1125 5.0653 5.0000 5.0953 6.8322 7.7641 6.8969 6.0344 5.6191 10.2612 12.3947 12.8309 14.5463 15.3791 15.4481 14.4747 13.4913 13.8091 14.7788 14.5650 14.5284 14.8403 15.0631 15.3325 15.5406 17.5444 17.1822 15.3016 13.7772 13.2606 13.2591 13.5859 14.8569 16.0266 15.0253 12.3419 12.6491 13.3337 13.6050 13.6753 13.2109 12.5553 12.0262 12.1266 12.7622 13.3316 13.5828 14.1362 14.2953 14.0247 13.9709 13.9838 14.2003 13.7844 10.8462 10.1325 10.2800 9.7238 9.4325 10.3813 12.4431 12.3394 11.5159 10.4631 10.6325 11.6194 11.9175 12.0959 12.6859 11.7109 10.5784 9.5725 8.9931 8.9675 8.4819 7.2863 6.5453
8.9122 11.4444 10.1478 8.4659 7.0519 7.0763 7.0784 7.7741 8.6769 9.5997 10.4594 13.0262 15.6609 12.8309 10.3372 8.7550 9.2922 10.1603 9.8766 10.1600 8.9947 9.6225 11.1891 12.0063 12.9756 13.7866 14.4441 14.4459 13.1144 11.4809 9.6812 8.0850 8.0000 8.0000 8.0000 8.0000 8.0000 8.0000 8.0000 8.0000 8.0000 8.0000 8.0000 8.0000 8.0000 8.5422 10.4175 11.3837 12.2834 11.0509 9.0441 8.6156 8.5306 9.7322 11.5106 12.8616 14.1775 15.5831 17.5934 19.3441 17.1531 15.1862 13.9406 14.6344 15.8825 18.0641 18.0991 16.9494 15.6884 15.2487 15.0981 12.4275 10.6272 11.7191 13.9425 15.0766 16.0434 16.1966 15.2003 14.2041 13.2075 12.2113 11.2147 10.2244 7.5659 5.0403 5.0000 5.0000 5.0000 5.0000 5.0000 5.0000 5.0000 5.0000 5.0000 5.0000 5.0000 5.0000 5.0000 5.0000 5.0000 5.0000 5.0000 5.0000 5.0122 5.3938 5.8928 6.3759 6.8541 7.3325 7.8100 8.2881 8.7666 9.2447 9.7222 10.2006 10.6784 11.1556 11.4981 11.6088 11.6972 11.7853 11.8734 11.9619 12.0500 12.1384 12.2266 12.3175 12.5997 14.1481 15.2578 14.4653 13.6816 13.0725 13.2069 14.5662 14.2494 13.5047 10.9291 6.7997 5.2900 6.4184 8.4206 7.3713 6.2697 7.0600 14.0431 12.1719 8.9288 7.8747 6.5528 10.6834 12.9491 13.5991 14.0172 14.8638 15.2772 14.5875 13.9356 13.8631 14.6441 14.5722 14.3034 14.4928 14.9650 15.3044 15.4497 16.9222 18.1559 16.7106 14.5244 14.1881 14.2781 13.8806 13.8159 12.0447 10.3359 10.3813 11.2669 12.9106 13.9272 13.5188 12.5256 12.2400 12.3066 12.1909 12.4594 12.9478 13.7147 15.1122 14.0116 11.9666 13.6506 13.8669 13.1313 12.5228 11.0553 9.7231 9.1956 9.0366 9.0000 9.9625 12.3353 13.3622 12.6669 11.7475 11.1578 12.1562 12.9931 12.8763 12.7144 12.6747 11.7294 10.4475 9.7063 8.6106 7.9103 7.2216 6.6875
8.5081 9.5941 10.3972 8.8612 6.5266 6.5397 6.5897 7.2372 8.1303 9.1916 9.8506 12.4050 13.1841 10.4772 9.2419 9.0594 8.9878 9.1538 9.4881 11.6109 11.2975 10.4044 11.5197 12.0991 12.6384 13.1725 13.6953 13.0878 11.9703 10.4203 8.6166 8.0000 8.0000 8.0000 8.0000 8.0000 8.0000 8.0000 8.0000 8.0000 8.0000 8.0000 8.0000 8.0000 8.0000 8.8769 10.0556 10.5772 11.2234 9.3553 8.6562 9.0766 9.7647 11.0291 11.8572 12.4656 13.5353 15.5894 21.2041 21.1422 16.9494 14.1266 11.9603 13.4456 16.2653 17.0216 17.5169 16.4528 15.2219 15.5238 16.0581 14.5525 11.3531 10.5044 12.7556 14.8422 15.7812 15.9003 14.9044 13.9081 12.9209 11.9822 11.3572 11.1000 9.9309 5.8250 5.0000 5.0000 5.0000 5.0000 5.0000 5.0000 5.0000 5.0000 5.0000 5.0000 5.0000 5.0000 5.0000 5.0000 5.0000 5.0000 5.0000 5.0000 5.0000 5.2081 5.6816 6.1597 6.6378 7.1159 7.5938 8.0722 8.5497 9.0281 9.5059 9.9838 10.4606 10.8025 10.9128 11.0016 11.0894 11.1775 11.2659 11.3541 11.4425 11.5350 11.6703 11.8634 12.1128 13.5112 14.5194 13.7603 13.1547 13.0188 14.3319 15.4222 14.8903 13.8841 12.6241 9.3628 7.6706 9.4244 12.4131 13.4297 11.4234 10.8341 12.8988 12.1181 10.5487 9.0747 7.5628 10.5991 12.9566 13.4116 13.6894 14.2225 14.9916 14.5697 14.4862 14.2003 14.5322 14.5059 14.2409 14.0825 14.6538 15.6953 14.9937 15.2956 16.9331 16.8116 14.4991 14.7009 14.7444 13.8659 13.7425 11.7656 9.4616 9.6044 10.1019 12.4075 13.9791 14.3263 12.7997 12.9663 13.5422 12.9300 12.1962 12.5725 13.6003 14.2209 13.8047 11.4616 12.0366 12.9869 12.5575 12.1400 11.4750 10.5922 10.5406 9.4466 9.7347 10.9369 12.1453 12.9353 12.9456 11.9375 11.3016 12.7016 14.4044 13.5481 12.7725 12.7631 11.9600 10.8944 10.5091 9.4078 8.4637 7.6575 7.1047
8.0016 9.4053 9.4222 9.1816 6.4991 6.5512 6.3263 6.3700 7.4116 8.5997 9.2678 11.4266 10.7172 9.7963 9.6328 9.4191 9.1394 8.8309 8.7153 10.3384 11.8609 11.4831 11.1953 10.7316 11.4253 12.2266 12.7006 11.5572 10.2984 9.0200 8.0853 8.0000 8.0000 8.0000 8.0000 8.0000 8.0000 8.0000 8.0000 8.0000 8.0000 8.0000 8.0000 8.0000 8.0000 9.0922 9.4850 9.8047 9.8381 8.5112 8.8350 9.2809 10.2434 12.2400 12.2197 11.8666 12.1234 14.4981 19.4547 20.5122 16.4366 13.4122 11.2997 13.0572 16.3650 14.6784 14.7025 15.5606 14.8853 15.5988 16.1900 15.9425 15.1200 13.9078 13.9134 15.2356 15.7278 15.6237 14.6488 13.7631 13.2206 13.0203 12.9031 12.7859 12.2272 9.0819 6.2694 5.0284 5.0000 5.0000 5.0000 5.0000 5.0000 5.0000 5.0000 5.0000 5.0000 5.0000 5.0000 5.0000 5.0000 5.0000 5.0000 5.0000 5.0000 5.0566 5.4653 5.9434 6.4209 6.8997 7.3775 7.8553 8.3334 8.8112 9.2900 9.7659 10.1072 10.2172 10.3056 10.3938 10.4822 10.5703 10.6584 10.7528 10.8931 11.0913 11.3078 11.5244 11.7416 12.9700 13.8438 13.2597 12.8541 14.0569 15.3497 15.8438 15.1666 12.5659 11.3066 11.2647 10.8766 11.7672 14.1747 14.9672 15.4691 15.2997 15.3138 13.5066 11.8313 10.1331 8.5772 10.7284 12.9831 13.2391 13.4956 13.6731 14.5166 14.4800 14.8800 14.5716 14.6191 14.6219 14.0984 14.0231 14.7631 15.7225 14.9197 14.2119 14.5437 15.6250 14.0150 14.4506 13.6594 13.3234 14.1856 14.1862 10.7103 10.2650 12.1147 14.5931 15.2356 14.6800 13.8616 13.0009 12.3628 12.6547 12.3784 12.0463 12.6334 12.8837 12.7087 12.1781 12.0503 12.3256 13.1594 13.1769 12.3147 11.6106 12.8494 12.5528 11.4969 11.1519 11.8444 12.8619 12.8931 12.3287 12.6641 13.8572 14.4353 13.0550 11.7319 11.3969 11.9191 11.6025 11.2087 10.3181 9.0188 7.8853 7.5484
7.4159 8.4213 8.5359 9.3125 7.1962 7.7516 8.4000 7.3378 6.6344 7.5538 9.1500 10.3544 10.2953 10.1378 9.9834 9.8444 9.7119 9.6059 9.4556 9.6275 10.5144 11.0416 11.4725 12.1794 12.0391 11.8875 12.2513 10.8112 9.3341 8.1184 8.0000 8.0000 8.0000 8.0000 8.0000 8.0000 8.0000 8.0000 8.0000 8.0000 8.0000 8.0000 8.0000 8.0000 8.0519 8.9362 8.9072 9.0469 8.5875 8.5828 9.0284 9.4781 10.4853 11.2919 11.1028 10.9431 11.0803 11.4278 15.6409 18.2288 16.6747 14.9797 12.4128 12.4050 12.4984 12.9259 13.3597 13.6934 13.7753 14.0459 15.4362 16.0556 16.4341 17.5450 16.8766 16.6491 16.0416 15.4041 14.9406 14.7322 14.5650 14.3825 14.1922 14.0022 13.7487 11.2934 8.2244 5.5622 5.0134 5.0000 5.0000 5.0000 5.0000 5.0000 5.0000 5.0000 5.0000 5.0000 5.0000 5.0000 5.0000 5.0000 5.0034 5.0466 5.0469 5.0022 5.2500 5.7269 6.2050 6.6825 7.1613 7.6388 8.1172 8.5950 9.0716 9.4116 9.5212 9.6097 9.6978 9.7863 9.8744 9.9712 10.1172 10.3191 10.5353 10.7525 10.9688 11.1850 11.4016 12.3631 13.0881 12.8216 13.6503 15.1356 15.6647 15.2259 13.7837 11.8650 12.3491 13.7959 14.4878 15.0659 15.4716 14.8553 15.3359 16.3356 16.1475 14.5800 12.8909 11.1919 9.5950 11.0428 13.0000 13.1122 13.3100 13.3369 13.8916 14.3716 15.0234 14.9259 14.9359 14.7531 14.3984 14.2800 13.9319 14.7388 15.3638 14.2684 13.1691 14.2531 13.4584 13.8706 13.8159 13.8303 14.0869 13.8013 11.9406 11.4200 11.8297 13.2422 13.9944 13.3184 13.8669 12.8622 11.3975 12.8869 12.9300 11.3116 11.6047 11.7884 12.4878 12.9781 12.8797 13.1516 12.9941 13.0481 12.7381 12.7625 13.8681 14.4597 12.7781 12.2519 12.6747 12.9559 12.9334 13.4406 13.1800 13.9534 14.0763 12.8056 11.2972 10.8916 11.4019 10.9578 9.7597 9.3819 7.5756 7.1103 8.4281
5.7516 6.2341 7.0384 8.0938 6.4906 7.1269 8.7450 9.2137 7.4000 7.5531 9.0463 9.9931 10.0856 10.0391 9.9797 9.9203 9.8609 9.8013 9.8484 10.3356 10.1844 10.8147 12.3341 13.5638 13.9100 12.8744 12.6666 11.0475 9.4581 8.1412 8.0000 8.0000 8.0000 8.0000 8.0000 8.0000 8.0000 8.0000 8.0000 8.0000 8.0000 8.0000 8.0000 8.0000 8.1278 8.4281 8.3291 8.2706 8.3325 8.7734 9.2184 9.6634 10.1759 10.2156 10.3138 10.4263 10.3375 10.9012 14.8675 16.9056 16.0419 14.7819 13.5112 12.1150 9.6594 10.6541 12.7628 12.2563 11.3756 12.7456 14.5869 16.2162 16.8228 17.3772 18.9006 19.5669 18.2337 15.3400 14.6703 14.5063 14.2672 14.0278 13.7975 13.8416 13.5528 11.6975 8.9147 6.6712 5.4212 5.0000 5.0000 5.0000 5.0000 5.0000 5.0000 5.0000 5.0000 5.0034 5.0466 5.1388 5.2803 5.4719 5.7087 5.7663 5.1734 5.0000 5.0803 5.5103 5.9887 6.4662 6.9444 7.4228 7.9009 8.3769 8.7163 8.8259 8.9141 9.0022 9.0906 9.1891 9.3422 9.5469 9.7638 9.9803 10.1966 10.4128 10.6291 10.8456 11.0625 11.6259 11.8897 12.2897 14.7547 15.6394 15.0544 13.9953 13.3759 15.1266 16.8444 18.0759 17.0284 15.5188 14.6059 14.0128 13.5603 14.0884 15.0169 14.6372 13.7544 12.2503 10.6253 11.5209 13.0000 13.0294 13.1237 13.1419 13.3316 14.0931 15.2244 15.2137 15.5706 15.2662 14.5037 14.2419 13.7972 14.4972 15.3447 13.9644 12.4125 13.5484 13.8622 13.8013 13.2631 13.0122 13.7837 14.7619 12.7809 11.7759 11.2603 12.0087 12.9828 13.2266 13.5528 12.9906 12.4628 12.9709 13.1906 10.8212 10.7766 10.9406 12.2825 13.1178 12.6938 12.2534 10.8766 10.7788 12.0981 13.3103 13.9016 14.2678 13.2909 12.7366 13.2141 13.1962 13.2672 12.9181 12.4400 13.1609 13.2153 12.7119 11.2309 9.8306 9.5434 9.0109 7.9788 8.7578 7.5291 6.1856 6.8250
4.8591 5.4416 5.3000 4.8516 4.4022 5.7694 8.2094 9.3719 8.1281 7.7331 8.8988 9.5697 9.6531 9.6897 9.6356 9.5763 9.5169 9.4575 9.6922 10.4197 10.2309 10.5509 12.0441 13.5853 14.5706 13.9100 12.8844 11.3034 9.4066 8.0319 8.0000 8.0000 8.0000 8.0000 8.0000 8.0000 8.0000 8.0000 8.0000 8.0000 8.0000 8.0000 8.0000 8.0000 8.0175 8.0166 8.0009 8.0363 8.3997 8.8400 9.2781 9.7047 9.9603 9.3672 9.2413 9.7300 9.9719 10.4444 13.8488 15.2288 15.3131 13.9825 13.0003 12.7612 10.3091 10.6216 13.3122 13.7487 12.7316 12.0044 13.7281 15.3803 16.6325 18.3794 20.8425 21.4681 18.6369 15.4428 13.6675 13.8041 13.6703 13.4716 13.6853 14.0100 12.9784 11.2322 9.2919 7.3856 5.4866 5.0000 5.0000 5.0000 5.0031 5.0459 5.1381 5.2800 5.4709 5.7075 5.9547 6.2016 6.4481 6.6950 6.6638 5.9566 5.1762 5.0000 5.0059 5.2941 5.7719 6.2500 6.7284 7.2059 7.6825 8.0206 8.1300 8.2181 8.3066 8.4091 8.5672 8.7750 8.9916 9.2078 9.4244 9.6406 9.8572 10.0741 10.2937 10.5244 10.8019 11.1166 10.9034 11.5503 14.6206 15.3766 14.7109 14.2347 15.6819 16.5006 15.5269 16.4859 15.5681 13.4888 13.4041 13.9172 13.7513 13.1909 13.8297 13.3356 12.8203 12.3638 11.5403 12.1975 13.0000 13.0172 13.0675 13.0084 13.0869 13.8588 15.3528 14.5953 14.8759 15.7166 15.0534 14.5688 14.0875 14.8400 15.6641 14.2212 13.2150 13.0928 14.0031 13.5066 12.5063 12.8725 14.0669 14.0134 11.9966 12.4516 12.7453 12.0691 12.2878 13.4522 14.2350 13.8966 13.3556 12.9663 12.8959 10.2325 10.4769 11.1081 11.2800 13.3394 13.2137 11.8687 10.1203 9.0678 10.9400 13.2444 14.6950 14.1359 13.2003 12.6131 13.1059 12.9134 13.5200 12.8237 12.1809 12.1112 12.9350 12.6200 11.1931 10.2487 10.1225 9.5675 8.6916 8.7394 8.5159 6.2331 6.3281
4.2844 5.1525 5.4047 3.8834 3.1531 5.3291 7.6656 8.8906 8.8134 8.0019 8.7344 9.1031 9.1869 9.2766 9.2903 9.2325 9.1728 9.1275 9.5778 10.5856 10.2288 10.4809 11.8684 13.3869 13.9716 12.8594 12.3391 12.6556 9.2691 8.0006 8.0000 8.0000 8.0000 8.0000 8.0000 8.0000 8.0000 8.0000 8.0000 8.0000 8.0000 8.0000 8.0000 8.0000 8.0000 8.0000 8.0000 8.0434 8.4175 8.8528 9.2691 9.6741 10.0794 10.0641 9.2478 9.7928 9.6656 10.0453 12.5847 13.5228 14.1644 13.2909 13.1516 13.5478 13.0331 12.8359 14.6806 16.0947 15.6728 13.1200 13.0828 13.4722 15.0487 17.8638 20.1147 19.9681 18.8644 16.2609 14.4722 13.0816 13.1797 13.5741 14.1237 13.6691 12.3741 10.6781 9.3722 7.3016 5.3309 5.0000 5.0000 5.0000 5.1119 5.8787 6.2003 6.4472 6.6941 6.9409 7.1878 7.4341 7.6747 7.5466 6.7906 5.9612 5.1819 5.0000 5.0000 5.1075 5.5559 6.0338 6.5116 6.9878 7.3250 7.4344 7.5222 7.6291 7.7925 8.0031 8.2194 8.4356 8.6522 8.8691 9.0931 9.3284 9.5750 9.8328 10.1284 10.5297 11.0109 11.3538 11.2575 11.2578 13.4525 14.6737 14.1938 15.2322 16.0156 16.2153 14.6706 13.2266 13.5278 13.7178 13.8687 14.5188 15.4228 13.6366 12.6650 12.1456 11.6266 11.1072 10.6556 10.7234 12.1500 12.9819 13.2506 13.2772 13.5256 13.7994 12.8700 12.9856 13.6519 15.4403 15.4884 14.2322 13.7003 14.7413 15.1412 14.3709 13.8841 13.2309 13.9081 14.0222 14.3759 14.9187 15.2025 14.0700 13.7103 13.7331 13.7866 13.3719 11.9503 12.8988 13.5709 13.5350 12.8091 12.4528 11.9603 10.5422 11.4050 12.2019 10.6400 11.8541 12.3203 11.3131 10.1278 8.7575 9.3656 11.4338 13.4944 13.2212 12.7963 13.0822 13.2453 13.0172 13.3003 13.2238 12.8494 12.4812 13.1488 12.7481 11.5562 10.9409 10.2262 10.0531 9.6291 8.6438 7.8372 6.5563 6.3703
3.7097 5.0963 5.5450 4.2559 3.8175 4.9444 7.0553 8.1888 9.0316 8.3569 8.4578 8.6359 8.7188 8.8119 8.8966 8.8884 8.8291 8.8700 9.5309 10.7931 10.2566 10.4738 11.6925 13.0019 13.2397 12.2463 12.1372 10.0344 8.0722 8.0000 8.0000 8.0000 8.0000 8.0000 8.0000 8.0000 8.0000 8.0000 8.0000 8.0000 8.0000 8.0000 8.0000 8.0000 8.0000 8.0000 8.0000 8.0516 8.4216 8.8287 9.2334 9.6391 10.0437 10.4391 10.2019 10.5319 10.0278 9.6969 11.0753 11.7356 12.8756 13.7212 14.3084 14.7934 14.8088 13.7413 13.8525 15.7575 14.7137 16.3897 14.2122 12.4738 14.1547 16.7738 19.0191 19.7950 19.7591 17.3263 16.7431 15.8622 14.9469 14.4503 14.1666 13.1428 11.8141 10.7309 9.6275 7.5316 6.1466 5.4300 5.1803 5.0559 5.0000 5.6838 7.1916 7.6806 7.9269 8.1734 8.4206 8.6491 8.4159 7.6247 6.8072 6.0691 5.7872 5.0894 5.0000 5.0138 5.3387 5.8175 6.2931 6.6300 6.7384 6.8494 7.0188 7.2306 7.4472 7.6653 7.8944 8.1347 8.3859 8.6484 8.9144 9.1806 9.4697 9.8619 10.3397 10.8284 11.3166 11.7419 11.8478 11.2334 12.4669 13.8444 14.4972 15.2016 15.9047 15.8903 14.2478 12.5178 13.3550 14.5525 14.1641 14.4997 14.7188 13.1216 11.9706 11.4459 10.9259 10.4288 10.2269 10.0053 10.2725 11.2919 11.9509 13.7572 14.1653 13.4300 12.3619 12.1481 12.6919 14.6334 15.0822 14.2953 14.6925 15.4550 14.9709 14.2528 14.2013 13.0947 12.4216 12.9625 13.8456 14.9653 14.6575 13.3763 14.3609 13.2587 12.7712 12.5650 9.6094 10.8625 11.7906 11.0634 10.0162 11.5059 11.8953 11.9319 11.8919 13.4069 11.5106 11.1663 11.1462 10.2003 9.2516 8.6897 8.9256 11.0312 11.3841 11.5209 11.6838 12.3541 13.2369 13.6828 13.4200 13.3516 13.4509 13.3556 12.4569 13.5531 12.3600 11.2013 9.8656 10.4316 10.1419 8.4263 6.6416 5.6919 7.8141
3.1825 5.2031 5.7722 5.4481 5.1916 4.6550 6.3787 7.4875 8.5941 8.7625 8.1241 8.1672 8.2522 8.3438 8.4369 8.5131 8.4850 8.5834 9.6587 10.9812 10.3384 10.4703 11.5069 12.3438 12.5141 12.2463 13.1553 9.4688 8.0000 8.0000 8.0000 8.0000 8.0000 8.0000 8.0000 8.0000 8.0000 8.0000 8.0000 8.0000 8.0000 8.0000 8.0000 8.0000 8.0000 8.0000 8.0000 8.0319 8.3656 8.7750 9.1850 9.5934 10.0022 10.4097 10.7431 11.0906 10.9219 9.7828 9.0066 10.1497 12.2653 14.0850 15.6294 16.1897 15.9184 12.8434 9.8612 9.4091 9.3000 11.5009 17.6675 14.9231 15.1125 17.4753 19.2337 19.7750 18.2106 16.5109 16.5719 17.0831 16.9731 14.9362 13.2569 12.7728 12.4509 11.3916 10.0441 8.5703 7.5844 6.7478 6.1663 5.8366 5.4331 5.0456 6.1887 8.3881 9.1506 9.4066 9.6159 9.2700 8.4284 7.9494 7.9887 8.4931 9.0681 8.4425 5.0181 5.0000 5.1400 5.5988 5.9350 6.0700 6.2450 6.4647 6.6978 6.9422 7.1981 7.4634 7.7300 7.9963 8.2631 8.5294 8.8138 9.1938 9.6684 10.1572 10.6250 10.9947 11.2575 11.4641 11.6750 11.0100 10.4666 13.4009 14.6191 15.1100 15.7937 15.5247 13.5566 11.8031 12.0887 13.4434 13.9653 14.4881 14.6409 13.0891 11.3747 10.7934 10.3094 9.8653 10.0622 10.7259 10.1628 9.9878 10.3125 12.7222 13.4797 13.2744 12.5934 12.2191 12.8584 14.0734 14.1269 14.0344 14.9006 14.3428 12.2362 12.1828 13.3484 12.1912 9.9544 9.1231 10.5162 11.3306 11.3559 10.9478 12.0969 11.5684 12.7369 12.1866 9.4578 10.7119 10.8488 9.8559 9.2984 11.4781 13.0766 12.3988 12.6322 12.7953 11.0994 10.3591 10.1869 9.5500 8.8091 9.3256 9.1466 10.2006 11.2319 11.0041 11.2850 12.9812 13.8356 14.4106 14.0413 14.0353 13.7397 12.8450 11.0763 12.3713 13.3541 13.5206 11.4300 10.5172 10.0863 8.3269 7.3303 6.3400 8.6344
2.9987 5.4306 6.6434 6.7653 5.5769 4.7591 5.6806 6.7906 7.9000 8.7697 7.7453 7.7000 7.7847 7.8775 7.9697 8.0628 8.1291 8.3059 9.9253 11.1566 10.4694 10.5522 11.1841 11.5625 12.1819 13.6888 14.1675 9.5322 8.0000 8.0000 8.0000 8.0000 8.0000 8.0000 8.0000 8.0000 8.0000 8.0000 8.0000 8.0000 8.0000 8.0000 8.0000 8.0000 8.0000 8.0000 8.0000 8.0103 8.2891 8.6969 9.1078 9.5172 9.9281 10.3375 10.5159 10.4709 10.3759 10.0641 8.5162 9.0922 11.7163 14.4116 15.6763 16.4694 16.1306 10.4213 8.1003 8.0000 8.0000 8.0000 12.5625 16.2472 16.1619 17.6572 18.6819 18.9750 17.3850 16.3941 16.6450 16.6722 16.3525 15.8834 14.6300 13.7006 13.8375 13.0206 11.0947 9.9397 9.0953 8.5000 8.0581 7.1284 6.1000 5.0044 5.0000 5.9206 9.2928 10.4066 10.1028 9.9206 10.3419 10.9169 11.4913 12.0662 12.6422 13.2109 9.7434 5.0000 5.0247 5.2828 5.5047 5.7519 6.0128 6.2794 6.5459 6.8122 7.0781 7.3444 7.6106 7.8772 8.1569 8.5278 8.9972 9.4812 9.8966 10.2019 10.4187 10.6234 10.8297 11.0344 11.2684 10.6606 9.2425 12.0041 15.0063 15.6403 15.5100 14.6687 12.9344 12.0150 12.0631 12.1859 13.0562 14.5947 14.9984 13.4022 10.8116 10.1931 9.7519 9.3109 10.0091 11.3250 9.9044 9.7500 11.0819 12.0303 12.3472 12.7441 12.4953 12.3153 13.3044 14.3438 14.5212 13.9913 13.0534 12.2463 10.8584 11.7128 12.6441 11.5400 9.5606 9.1713 10.1278 10.5422 10.3884 9.9222 9.8600 10.7875 12.1616 12.0291 11.9522 13.3872 13.5934 11.6150 11.0866 12.5212 13.2800 13.3984 13.7375 14.1459 12.6722 9.8888 9.1263 8.8687 9.3775 10.2194 9.7784 10.3247 10.2916 10.7891 11.9775 13.7434 13.4047 13.4191 13.3747 14.1250 14.1081 12.4431 10.9869 11.8713 13.7922 14.3394 11.5328 9.2900 9.2684 9.1097 7.3006 7.2638 8.2328
4.0047 3.4744 6.0637 6.3981 3.8909 4.5756 5.6066 6.7200 7.7922 8.5041 8.2894 7.5869 7.4862 7.5222 7.6153 7.7084 7.7944 8.0097 8.9356 10.1547 10.0109 10.9269 11.2434 11.2609 12.0841 13.7950 13.8231 9.6406 8.1075 8.0000 8.0000 8.0000 8.0000 8.0000 8.0000 8.0000 8.0000 8.0000 8.0000 8.0000 8.0000 8.0000 8.0000 8.0000 8.0000 8.0000 8.0000 8.0003 8.2178 8.6187 9.0297 9.4391 9.8500 10.1169 9.6912 9.8256 10.1319 11.2503 10.4788 10.5134 13.4959 15.3194 15.1888 14.7741 13.4428 8.7447 8.0000 8.0000 8.0000 8.0391 9.0134 14.5562 15.6750 16.6472 17.2787 17.8550 17.6619 17.7806 17.6213 16.1103 15.7350 17.5597 17.5103 15.2984 14.3322 13.7444 12.5200 10.8406 10.5897 10.4031 10.0744 8.8728 7.4547 5.1475 5.0000 5.0000 6.7878 8.3069 8.4616 9.0381 9.6934 10.4359 11.2741 12.2163 13.1631 13.6872 13.7459 8.0497 5.0000 5.0994 5.3606 5.6272 5.8934 6.1600 6.4269 6.6931 6.9597 7.2259 7.5012 7.8616 8.3266 8.7800 9.1297 9.3750 9.5803 9.7847 9.9975 10.2206 10.4288 10.6191 10.6244 9.4156 9.5053 11.7587 15.2788 16.3059 15.2016 14.0703 13.4594 12.4541 12.1781 12.4550 12.7631 13.0472 12.7288 12.8562 11.1397 9.7497 8.8822 8.5975 9.6019 10.3081 9.9066 10.4953 11.2659 11.9522 11.7706 11.2903 11.6841 12.5766 13.5494 13.9356 13.8022 13.2537 13.2581 13.2869 12.6759 12.1647 11.7297 11.2334 10.9441 11.4444 13.2631 11.4966 11.4656 10.7459 8.6278 9.9531 11.7269 12.7534 14.0566 14.7234 12.9644 11.7784 11.9900 12.8625 13.6481 13.7069 13.5622 13.7156 11.9431 9.3091 8.8519 9.2884 9.0288 8.5500 9.1838 10.2516 11.4481 12.4634 12.9253 12.7916 12.7928 12.9394 13.0856 12.9644 12.9144 11.8619 10.9481 11.7191 13.1981 12.2700 10.4391 8.8016 8.7400 8.8309 8.2781 7.6197 7.6469
5.3516 3.9884 3.6594 5.2900 4.2263 4.8141 5.9094 6.9053 7.5403 7.8944 8.2366 8.2069 7.6972 7.4119 7.3322 7.4241 7.5950 7.9078 8.2728 9.2413 11.1081 11.5550 11.6613 11.5487 12.1809 12.6591 12.3131 9.3684 8.0291 8.0000 8.0000 8.0000 8.0000 8.0000 8.0000 8.0000 8.0000 8.0000 8.0000 8.0000 8.0000 8.0000 8.0000 8.0000 8.0000 8.0000 8.0000 8.0000 8.1538 8.5428 8.9506 9.3609 9.7575 9.0956 9.0197 9.9381 10.5750 12.6241 12.3072 12.3744 13.9084 15.5962 14.2516 11.8016 10.1428 8.0000 8.0000 8.0100 8.0000 8.3659 9.5506 12.1119 13.4028 13.9956 14.8263 16.4303 17.6963 18.6494 16.9850 15.5181 16.7234 18.4791 17.8834 16.9328 15.6547 14.7166 12.7944 10.6619 10.9484 11.9344 12.0375 11.7769 10.7662 7.3050 5.0738 5.0000 5.1109 5.4553 6.4147 7.5697 8.7478 9.9350 11.0487 11.6700 11.7531 11.7297 11.7066 11.4906 6.4834 5.0244 5.2422 5.5081 5.7744 6.0409 6.3072 6.5741 6.8472 7.1978 7.6450 8.0400 8.3250 8.5359 8.7475 8.9769 9.2188 9.4503 9.6584 9.8375 10.0141 10.1919 10.2859 9.5622 10.6356 12.1534 14.8250 16.6231 15.8819 14.8394 12.9478 11.4453 11.3225 12.4891 13.7319 12.8847 11.1478 13.3206 12.4769 10.6912 9.5947 9.0700 10.6759 11.0234 10.0947 9.9122 10.2344 11.7366 12.2388 10.9644 11.7469 12.0787 11.9272 11.6912 11.5837 12.7472 14.8984 16.1641 14.5134 13.6684 12.7828 13.1169 12.0056 11.3081 12.0894 11.5288 11.4753 9.5553 8.6213 11.8122 12.3459 12.9269 13.1391 13.0562 11.4406 11.0725 11.5969 12.6034 13.3731 13.4153 13.2463 13.3594 11.0791 7.8153 9.8488 10.0950 8.6044 8.9209 10.5309 11.2250 12.1488 12.9694 12.9741 12.3181 12.1344 12.6159 13.2025 12.2537 10.8772 11.1825 10.5725 11.0834 11.8297 11.0034 10.4444 9.8787 8.7909 9.1025 9.0909 8.2897 7.9688
5.4862 5.0872 3.9972 3.8359 4.2491 5.0491 5.9766 6.5747 6.9244 7.2659 7.6072 7.9497 8.0803 7.8222 7.3928 7.2238 7.7541 8.5466 9.3441 9.8200 10.9409 11.7719 12.3378 12.0809 11.9259 11.9959 11.4959 9.6369 8.0000 8.0000 8.0000 8.0000 8.0000 8.0000 8.0000 8.0000 8.0000 8.0000 8.0000 8.0000 8.0000 8.0000 8.0000 8.0000 8.0000 8.0000 8.0000 8.0000 8.0991 8.4734 8.8697 9.2806 9.0009 8.1012 9.4381 11.3781 11.3350 12.3094 12.4350 13.1184 14.1281 14.9272 12.3444 9.1072 8.2628 8.0078 8.4572 9.3372 8.6109 9.1294 10.6166 12.0044 14.7734 14.9722 13.6119 15.9581 17.1909 17.0163 16.2903 15.7234 17.0122 18.2938 17.6841 16.9625 16.4466 15.2516 12.1597 10.6447 11.5400 12.7819 12.8281 12.7675 12.3687 9.7688 6.5119 5.0384 5.0000 5.4750 6.6581 7.8481 8.9709 9.6438 9.7609 9.7375 9.7144 9.6919 9.6687 9.6453 9.2122 5.4975 5.1247 5.3897 5.6559 5.9219 6.1922 6.5331 6.9309 7.2606 7.4956 7.7231 7.9666 8.2259 8.4781 8.6947 8.8806 9.0562 9.2328 9.4078 9.5844 9.7625 9.9166 9.7719 10.9872 12.1650 13.9216 16.0647 15.7469 15.0697 13.6606 10.9428 11.3975 13.1097 13.6244 12.0741 11.9587 13.4156 13.5747 12.8678 12.3281 12.2428 12.8719 11.7991 10.2556 9.3862 10.1219 11.9381 13.2434 12.2084 11.4306 11.1375 10.9800 10.9575 12.0241 11.8284 13.2016 13.1819 14.2466 14.3131 12.1737 11.2500 9.9103 8.2844 7.6381 9.5491 9.2809 9.0228 10.0469 12.5897 12.4278 12.1019 11.4981 11.4259 11.4794 10.5572 11.4984 12.3147 12.5688 12.8172 12.8556 13.4769 13.6031 10.7175 12.0703 10.5737 8.8659 9.8491 11.2672 11.9803 12.5459 14.5959 15.0231 12.7709 12.0894 12.1972 12.9272 11.7509 10.2297 10.5203 10.1000 10.8247 11.0059 10.5944 11.2409 12.3841 10.4134 10.1803 9.8747 8.5856 8.0703
5.4062 5.0972 4.7403 4.0287 4.1719 5.0366 5.6078 5.9534 6.2950 6.6372 6.9797 7.3216 7.6631 7.9237 7.8688 7.7991 8.4647 8.8522 9.1766 9.4494 9.5581 11.0900 11.7903 11.8103 11.0594 12.0737 13.0550 9.4878 8.0000 8.0000 8.0000 8.0000 8.0000 8.0000 8.0000 8.0000 8.0000 8.0000 8.0000 8.0000 8.0000 8.0000 8.0000 8.0000 8.0000 8.0000 8.0000 8.0000 8.0575 8.4069 8.7966 8.9734 7.5097 8.6272 10.7053 12.7772 13.2266 12.4950 12.8212 13.3909 13.7800 12.5772 9.8553 8.6797 8.0856 8.8319 10.2734 11.5769 11.0891 11.7950 13.0863 15.4894 25.0616 27.7294 17.8553 15.7353 16.0284 16.2337 16.4959 15.9528 16.4794 17.4494 17.8013 17.1094 16.5203 14.6472 12.1619 11.7222 12.9131 13.3625 12.4266 12.1631 11.1944 10.1534 7.7484 5.3900 5.0125 5.7562 6.8913 7.6119 7.7688 7.7453 7.7222 7.6997 7.6766 7.6531 7.6297 7.6062 7.5828 7.1322 5.1094 5.2706 5.5400 5.8516 6.1822 6.4675 6.7112 6.9703 7.2466 7.5072 7.7300 7.9203 8.0953 8.2719 8.4516 8.6266 8.8031 8.9781 9.1547 9.3341 9.5153 9.9641 11.1669 12.3106 13.5122 15.2297 14.9244 14.7681 14.7969 12.9841 12.4769 13.2444 13.4625 12.5016 13.4709 13.0316 13.8241 13.8881 15.1825 15.2459 12.8106 11.5719 10.5156 10.7384 10.9459 12.2203 12.4416 11.9578 10.6597 10.2072 10.4213 11.9303 12.4928 11.4459 9.7803 9.4691 12.0416 11.5006 10.0234 10.3112 9.8356 8.8900 6.7175 6.6366 7.0081 8.3066 10.9022 13.4981 13.6637 11.3387 10.5372 10.6269 11.4888 11.2841 12.1931 13.0650 13.0413 12.9356 12.7875 13.8031 15.1284 13.7322 12.3859 10.8825 9.5291 10.5353 11.8472 12.0556 13.4550 15.5822 15.7197 12.6553 12.5028 12.3606 12.5178 11.6841 10.8672 10.8631 11.0112 11.2581 10.9984 10.7788 11.6875 11.6225 11.2375 11.8266 10.3509 9.2753 8.7953
5.4097 5.0391 4.7075 4.3409 4.1678 4.6531 5.0134 5.3809 5.7519 6.1322 6.5169 6.9550 7.4925 7.8122 7.8681 8.1600 8.4894 8.6912 8.9225 9.1097 9.4028 10.3641 11.3369 11.7634 10.6675 10.7753 9.0212 8.0000 8.0000 8.0000 8.0000 8.0000 8.0000 8.0000 8.0000 8.0000 8.0000 8.0000 8.0000 8.0000 8.0000 8.0000 8.0000 8.0000 8.0000 8.0000 8.0000 8.0000 7.9659 7.7728 7.5616 6.9400 7.5431 9.9028 11.9950 14.0737 15.1187 14.4012 14.1456 13.6972 12.7769 10.7563 9.5853 8.8547 8.2456 10.2116 12.2050 13.7025 13.9350 14.6369 14.8100 17.7216 24.9747 23.3409 17.2819 15.1112 15.9369 16.3406 16.7213 17.0578 17.4084 17.9178 18.4209 17.5659 15.9894 13.7106 12.5247 13.2075 14.2616 13.2584 12.1500 11.4803 10.6106 10.1150 8.6091 5.5887 5.0475 5.5772 5.7828 5.7656 5.7475 5.7291 5.7106 5.6919 5.6731 5.6544 5.6359 5.6175 5.6028 5.5906 5.3316 5.1550 5.4434 5.7144 5.9913 6.2656 6.5297 6.7609 6.9600 7.1391 7.3141 7.4906 7.6666 7.8497 8.0381 8.2284 8.4241 8.6247 8.8284 9.0378 9.1663 8.7019 10.1394 11.9041 13.4325 14.5853 14.5978 14.5981 14.7153 14.8081 13.5022 13.0034 12.9553 13.5747 13.9716 13.2338 13.0913 13.1012 15.6269 14.8159 11.2216 9.9472 10.2712 10.8184 10.7859 10.8328 10.9769 10.5647 9.4825 9.7509 10.1869 12.7509 13.2384 13.0019 10.9700 10.5966 11.1469 10.5041 11.2097 14.9312 12.4762 10.7941 8.7866 4.3772 6.4575 7.3453 9.4525 14.1587 14.4672 11.4994 10.5694 11.0719 11.4712 11.9553 13.5222 14.6506 14.3225 13.8072 13.2722 13.3319 14.9741 13.1381 10.5741 11.2716 11.4316 13.1622 12.7688 11.9384 13.2050 14.5656 13.1644 11.9900 12.5941 12.5509 12.5806 12.1803 10.6812 10.5803 10.7791 11.3191 11.0094 10.9084 11.3031 10.9166 11.1972 11.2741 10.3547 9.8497 9.4969
5.4138 5.0434 4.6725 4.3172 4.1031 4.4625 4.8688 5.2775 5.7609 6.3284 7.0228 7.6800 7.7381 7.5234 7.6809 8.1775 8.8231 9.3687 9.6534 9.9475 10.3819 11.0925 11.8916 11.4972 9.7344 8.3319 8.0756 8.0000 8.0000 8.0000 8.0000 8.0000 8.0000 8.0000 8.0000 8.0000 8.0000 8.0000 8.0000 8.0000 8.0000 8.0000 8.0000 8.0000 8.0000 8.0000 8.0000 8.0000 7.8472 7.2647 6.6562 6.2175 7.0506 9.9187 12.8019 15.3488 16.5697 15.8716 14.7578 13.5197 12.2819 10.6481 9.3316 8.7384 8.0931 9.0641 12.4800 15.4266 16.0728 14.9712 12.9875 15.7116 19.1456 17.1009 13.8550 14.1297 15.4684 16.3206 16.7331 16.5978 16.9384 17.7203 18.4675 17.2563 14.8569 13.5259 12.8775 13.4669 14.2756 13.8544 12.5063 11.1431 10.4950 9.9897 9.1278 5.7259 5.0559 5.0881 5.1069 5.1256 5.1453 5.1700 5.1959 5.2213 5.2484 5.2797 5.3109 5.3422 5.3744 5.4062 5.3962 5.0809 5.2812 5.5506 5.7925 6.0009 6.1863 6.3731 6.5666 6.7641 6.9644 7.1694 7.3797 7.5891 7.7969 8.0050 8.2156 8.4250 8.6328 8.8406 8.6844 7.5916 7.5500 9.4522 12.1244 15.1088 15.6619 15.6263 15.1878 15.4975 14.0625 13.2837 13.4041 13.4034 13.2019 12.7734 11.4306 11.7166 13.1106 12.7222 11.4116 10.6888 10.9594 11.2194 11.5813 12.0753 11.6947 10.7706 10.0384 10.0134 10.0534 11.0747 12.9428 12.5413 11.0950 11.0397 10.8422 10.5688 12.8053 14.8519 12.4584 11.2513 9.8638 7.0062 6.6850 7.5125 8.9456 13.5716 14.0322 11.3731 10.2806 10.7834 10.8825 11.0662 11.8300 14.0087 13.7228 13.0128 12.7944 13.2638 14.3259 11.9972 10.1687 12.4812 14.9853 15.4022 12.8816 11.9981 12.0131 12.3234 11.6700 11.7222 11.8669 11.8541 11.7372 11.4953 9.9475 10.0859 10.7397 11.0200 10.7131 10.2419 11.2087 10.8638 9.9772 9.5400 8.7356 8.4144 8.1750
5.4178 5.0472 4.6769 4.3059 4.1075 4.5691 5.2028 5.8625 6.6128 7.4244 7.7975 7.5731 7.2737 7.2331 7.6131 8.1213 8.7500 9.4141 10.0672 10.6541 10.6287 10.4944 11.0669 10.6062 9.2428 8.5384 8.2375 8.0063 8.0000 8.0000 8.0000 8.0000 8.0000 8.0000 8.0000 8.0000 8.0000 8.0000 8.0000 8.0000 8.0000 8.0000 8.0000 8.0000 8.0000 8.0000 8.0000 8.0000 7.7328 7.1262 6.5456 6.3759 6.5887 8.9594 11.9281 14.8969 15.9931 15.2531 14.2456 13.0034 11.7650 10.4241 8.9581 8.4675 8.0369 8.0075 9.3325 14.6587 14.8194 13.2150 11.2416 13.1578 15.5716 13.7063 12.1694 13.2106 14.3206 16.0828 16.5572 15.6637 16.0413 16.9353 17.8484 16.0541 14.2956 13.8144 13.2934 13.5825 14.1184 13.8300 12.6306 11.4625 11.5094 10.7706 9.3256 6.8350 5.5075 5.6094 5.6531 5.6844 5.7156 5.7469 5.7791 5.8109 5.8422 5.8734 5.9047 5.9359 5.9678 6.0000 5.8534 5.2441 5.1009 5.3041 5.5116 5.7219 5.9297 6.1375 6.3475 6.5578 6.7656 6.9734 7.1831 7.3938 7.6016 7.8094 8.0188 8.2297 8.4375 8.6284 8.0050 6.8559 5.9469 8.1581 11.5934 14.9219 15.5463 15.3047 15.4050 14.9556 14.2903 13.4641 13.3100 12.4950 12.1800 11.9797 11.8725 11.3234 11.2475 11.5797 12.4619 13.4012 12.2284 12.4416 12.9406 13.4862 13.3363 11.9541 10.5225 10.0281 10.1431 10.2487 11.3888 11.1847 10.3653 10.3237 9.9825 11.0634 13.5169 14.4991 12.2003 9.9553 8.4622 6.2759 6.8863 8.0428 9.0403 12.8478 13.4475 11.2694 9.9922 10.4606 10.1359 10.4362 10.7662 11.4547 11.6159 11.7688 12.1384 12.5169 12.8588 12.8991 12.6128 14.9759 16.5562 13.1438 11.4331 11.8406 11.9325 11.3856 11.1153 11.7388 11.1334 10.8406 10.7044 10.6172 10.2700 10.2175 10.9247 11.1322 11.2047 10.6091 10.6116 10.1978 9.7325 8.9228 7.5887 7.2447 6.9016
5.4222 5.0516 4.6809 4.3884 4.7812 5.4519 6.1850 7.0803 7.7369 7.7028 7.3978 7.0916 6.8722 7.0887 7.5750 8.0737 8.6769 9.3363 10.0000 10.6647 10.7203 10.1681 10.3031 9.4281 8.3609 8.3822 8.2984 8.0300 8.0000 8.0000 8.0000 8.0000 8.0000 8.0000 8.0000 8.0000 8.0000 8.0000 8.0000 8.0000 8.0000 8.0000 8.0000 8.0000 8.0000 8.0000 8.0000 7.9916 7.5956 6.9866 6.5837 6.5609 6.5606 8.0078 10.9678 13.9359 15.0641 14.3622 13.6084 12.5103 11.2516 10.0100 8.6328 8.1278 8.0000 8.0000 9.0053 11.9259 12.2734 11.8553 11.4344 12.4431 12.0816 10.8609 11.2116 12.2913 13.3709 14.8031 16.4688 16.0494 17.3237 18.3694 17.7941 17.1531 16.1247 14.4128 13.2372 13.2828 13.5703 13.8566 12.2369 12.2241 13.0134 12.5372 10.4166 7.9691 6.0453 6.1125 6.2344 6.2781 6.3094 6.3406 6.3725 6.4047 6.4359 6.4672 6.4984 6.5297 6.5613 6.5891 6.2153 5.6363 5.0534 5.1097 5.3156 5.5256 5.7344 5.9422 6.1516 6.3612 6.5703 6.7781 6.9875 7.1972 7.4062 7.6141 7.8234 8.0325 8.2422 8.2581 7.2700 6.1259 5.8313 7.7147 11.1166 14.5291 15.5447 14.8744 14.2275 13.8653 13.5156 12.7437 10.8272 11.1663 11.2672 11.2006 12.2631 12.4438 12.1631 11.8353 12.5622 13.8575 12.4634 12.6675 13.2872 13.8225 13.3906 11.7147 10.3094 10.1116 10.2381 10.3594 10.3694 10.3556 9.7206 9.5688 9.8100 11.6334 13.9625 13.9791 12.1722 9.4288 6.9750 6.2597 7.4147 8.6109 9.6572 11.8747 12.7584 11.1016 9.7037 9.8503 9.4747 9.8050 10.1375 10.4919 10.8472 11.2569 11.6869 12.0434 12.3950 12.3628 11.7678 13.1756 13.7753 11.3387 10.1259 10.7778 11.6644 11.6619 11.7291 11.5459 10.7284 10.1788 10.1669 10.2334 11.2262 11.1103 11.0000 11.0288 11.2000 10.8041 11.0538 10.7875 10.7775 10.2541 8.8653 7.8587 7.0156
5.4262 5.0553 4.7791 5.1312 5.7828 6.6959 7.5403 7.7906 7.5291 7.2234 6.9172 6.6194 6.6112 7.0409 7.5359 8.0337 8.6019 9.2638 9.9228 10.5897 11.0219 10.2203 10.2791 10.1737 9.7797 9.2437 8.5656 8.0359 8.0000 8.0000 8.0000 8.0000 8.0000 8.0000 8.0000 8.0000 8.0000 8.0000 8.0000 8.0000 8.0000 8.0000 8.0000 8.0000 8.0000 8.0000 8.0000 7.9531 7.4563 6.8919 6.7528 6.7466 6.7413 7.2884 10.0094 12.9781 14.1116 13.4616 12.7513 11.9312 10.7744 9.5041 8.3166 8.0025 8.0000 8.0000 8.1097 9.0116 10.1819 11.9388 11.5444 10.5616 9.5994 9.4578 10.6609 11.9100 12.8566 13.4003 16.3325 16.9538 18.2834 17.9538 17.9119 17.9409 17.6031 15.1141 12.4153 11.7441 12.3019 13.3612 12.5294 13.4553 13.7069 12.7881 10.7275 8.7937 6.7550 6.5878 6.7375 6.8594 6.9031 6.9344 6.9659 6.9984 7.0297 7.0609 7.0922 7.1234 7.1547 7.1147 6.5709 6.0166 5.1722 5.0053 5.1219 5.3288 5.5391 5.7469 5.9563 6.1644 6.3750 6.5828 6.7922 7.0000 7.2109 7.4187 7.6281 7.8359 8.0466 7.6734 6.5347 5.6875 6.2600 7.4816 10.6347 14.0562 15.5969 14.9266 14.2550 13.5841 12.9197 12.4644 11.4987 11.9087 11.1447 10.5044 10.8856 11.6981 12.9056 12.8725 13.0684 13.2172 12.4641 12.6362 12.9659 12.0844 11.0084 11.7584 10.2769 9.9356 9.9666 10.1303 10.0153 9.4537 9.0694 8.9422 10.3031 12.1103 14.0944 13.4172 11.9847 9.4291 6.4316 6.7816 7.9831 9.1797 10.2625 11.2044 12.0591 10.7844 9.4153 9.0138 8.8441 9.1766 9.5387 10.1419 10.8678 11.0787 11.2762 11.7587 12.3153 11.8013 11.0600 11.4000 11.5809 10.3616 10.1097 11.0828 11.8512 12.2647 12.1694 11.4578 10.6453 9.9653 10.6541 10.1975 9.9509 10.8978 11.0000 11.0000 11.0534 10.9563 11.6500 12.2113 11.6697 11.1325 9.0550 7.3116 6.7781
5.4300 5.1634 5.5500 6.3313 7.2259 7.7816 7.6609 7.3547 7.0491 6.7422 6.4363 6.2250 6.5066 7.0031 7.4975 7.9953 8.5306 9.1875 9.8506 10.5178 11.2691 10.4981 10.1613 10.1109 9.9169 9.2672 8.5097 8.0197 8.0000 8.0000 8.0000 8.0000 8.0000 8.0000 8.0000 8.0000 8.0000 8.0000 8.0000 8.0000 8.0000 8.0000 8.0000 8.0000 8.0000 8.0000 8.0000 7.8825 7.3181 6.9525 6.9381 6.9325 6.9266 7.0047 9.0487 12.0172 13.1609 12.5278 11.8425 11.1384 10.2309 9.0378 8.0675 8.0000 8.0000 8.0000 8.0000 8.2894 9.4106 11.2431 10.8287 9.7059 8.9216 9.3456 11.8119 11.6831 11.3194 11.3069 14.1891 15.8550 17.8769 18.0456 18.0000 17.6169 17.6213 15.9356 14.2312 12.1897 12.0384 12.9688 12.8603 14.3441 13.6678 12.6122 10.9000 9.2769 7.6906 7.0625 7.2122 7.3625 7.4844 7.5281 7.5594 7.5922 7.6234 7.6547 7.6859 7.7172 7.7484 7.5403 6.9647 6.3609 5.3866 5.0000 5.0078 5.1341 5.3425 5.5516 5.7609 5.9688 6.1781 6.3875 6.5969 6.8047 7.0138 7.2234 7.4328 7.6406 7.7747 6.9488 5.8431 5.9012 6.7147 7.5872 10.1525 13.5744 15.5906 14.9772 14.3069 13.6359 13.0578 13.0700 13.5894 12.4641 10.3413 9.5334 10.5684 11.9362 13.2209 13.1428 12.8500 11.7750 11.0575 11.5109 11.5750 10.4569 11.4331 12.8728 11.6031 10.4181 10.4150 10.2909 10.2434 9.4537 8.4913 8.9900 10.7803 12.5869 13.9897 12.8553 11.5716 9.3856 7.3322 7.8909 8.5519 9.7484 10.8559 10.9166 11.3578 10.3172 9.0747 8.0453 8.2166 8.6597 9.5572 10.7481 10.7013 10.4225 11.0341 11.7456 12.3594 11.4069 10.8394 11.1184 10.3100 9.2222 9.2806 9.9956 10.3831 11.5431 12.6269 12.5169 11.9788 11.1200 10.0397 9.0366 8.4450 10.2191 10.9581 11.0000 10.9900 11.0781 11.5694 11.5366 11.4019 10.9853 9.4975 7.6031 7.3484
5.5444 6.0269 6.8928 7.6331 7.8366 7.4862 7.1797 6.8734 6.5672 6.2613 5.9644 6.0041 6.4672 6.9641 7.4600 7.9563 8.4703 9.1094 9.7734 10.4472 11.2444 11.1472 10.1012 10.0309 10.0366 10.2350 10.2300 8.7503 8.0900 8.0000 8.0000 8.0000 8.0000 8.0000 8.0000 8.0000 8.0000 8.0000 8.0000 8.0000 8.0000 8.0000 8.0000 8.0000 8.0000 8.0000 8.0000 7.7800 7.2394 7.1291 7.1234 7.1178 7.1125 7.1066 8.1450 11.0594 12.2150 11.5628 10.9356 10.2497 9.4875 8.5284 8.0000 8.0000 8.0000 8.0000 8.0000 8.0341 8.3403 9.3653 9.9012 8.8625 8.7516 10.1941 11.9137 11.4672 12.0297 12.8512 13.8403 15.2531 16.6572 17.9806 17.8684 18.0850 18.1931 17.3653 17.2266 14.9684 13.7581 14.6219 14.5600 15.0628 13.6153 12.3731 10.9641 9.5022 8.6753 7.5941 7.6869 7.8369 7.9869 8.1094 8.1531 8.1856 8.2172 8.2484 8.2797 8.3109 8.3272 7.9109 7.3297 6.7053 5.6856 5.0000 5.0000 5.0109 5.1462 5.3562 5.5656 5.7734 5.9812 6.1919 6.4016 6.6094 6.8172 7.0278 7.2375 7.4453 7.3006 6.2137 5.6316 6.3550 7.1694 7.9837 9.7141 13.0922 15.5222 15.0291 14.3588 13.6881 13.3534 13.4916 13.6466 13.4334 10.5200 11.0881 13.0331 13.4809 13.8078 13.4200 11.4078 10.6281 10.0756 9.9831 10.2097 11.2053 12.1216 11.8653 12.3584 12.6966 11.8387 11.5891 12.0981 10.5581 9.1763 9.0609 11.1509 13.0666 13.5681 12.3022 11.0284 10.1750 9.4494 10.7634 10.5794 10.5194 11.4491 10.8962 10.6553 9.6991 8.3703 7.2759 7.9453 9.0716 10.2828 11.2691 10.2747 9.9797 10.8209 11.6450 12.3784 11.7506 11.0600 10.9681 9.2950 7.5591 7.8513 9.0463 10.3228 11.2128 11.8747 12.8969 12.1337 10.5400 9.1422 8.8259 9.2669 10.1019 10.5553 10.8475 10.4450 10.8888 11.0703 10.5162 10.2522 10.1359 9.8634 9.1106 9.2328
6.5484 7.3072 7.6925 7.8637 7.7706 7.0222 6.6984 6.3928 6.0866 5.7806 5.5856 5.9328 6.4294 6.9253 7.4219 7.9181 8.4197 9.0331 9.6953 10.3769 11.1859 11.7322 10.3053 10.0013 10.1025 10.5744 10.9453 9.6734 9.9716 8.6003 8.0000 8.0000 8.0000 8.0000 8.0000 8.0000 8.0000 8.0000 8.0000 8.0000 8.0000 8.0000 8.0000 8.0000 8.0000 8.0000 7.9978 7.6503 7.3244 7.3147 7.3091 7.3031 7.2978 7.2925 7.5969 10.1000 11.2712 10.5988 10.0009 9.3350 8.6506 8.0625 8.0000 8.0000 8.0000 8.0000 8.0000 8.0000 8.0006 8.1175 8.6919 8.4725 9.7984 11.2994 12.1219 11.9894 12.7894 13.5394 13.3009 14.5531 16.0291 18.2544 19.3394 19.1181 18.1322 17.4975 18.0553 16.3641 16.0713 17.0369 16.2700 15.4856 13.5025 12.1194 10.9103 9.6953 9.5138 8.1531 8.1622 8.3119 8.4616 8.6112 8.7344 8.7794 8.8109 8.8422 8.8734 8.9047 8.8231 8.2878 7.6750 7.0500 6.0616 5.0000 5.0000 5.0000 5.0138 5.1594 5.3703 5.5781 5.7859 5.9953 6.2059 6.4141 6.6219 6.8313 7.0416 7.2350 6.6281 5.6228 5.9953 6.8100 7.6241 8.4384 9.5572 12.6103 15.3731 15.0813 14.4109 13.7400 13.8387 13.9322 13.9603 14.2075 11.8700 11.6812 13.7362 13.8950 13.2322 12.9800 10.9569 10.2319 10.1269 9.5469 10.1509 12.4784 11.6728 11.2731 11.5375 12.5528 12.2338 12.2647 13.0672 13.3538 10.8672 9.3231 10.4916 12.8184 13.0519 11.7059 11.2625 11.8069 11.6459 12.9828 13.8472 13.0422 12.5513 11.4222 10.0469 9.0925 7.4941 7.3897 8.5984 9.8112 11.0234 11.5188 11.1731 11.5047 12.0981 12.4909 12.5491 11.8244 10.6934 9.7509 8.6247 7.3447 7.2675 8.6891 10.8494 11.6978 11.0597 12.0750 11.4816 9.2169 7.7150 7.6131 8.3391 8.9166 9.3478 10.2772 9.9897 10.2997 10.0703 9.3112 10.0959 10.1488 9.0759 9.0938 8.9750
7.3678 7.5753 7.8669 8.2553 8.1819 6.7675 6.2181 5.9116 5.6056 5.3097 5.4100 5.8947 6.3906 6.8875 7.3837 7.8797 8.3766 8.9606 9.6200 10.3075 11.1266 11.9375 11.8088 11.9459 10.3638 10.9438 11.3069 10.9328 12.0128 11.1253 8.7325 8.1625 8.0000 8.0000 8.0000 8.0000 8.0000 8.0000 8.0000 8.0000 8.0000 8.0000 8.0000 8.0000 8.0000 8.0000 7.9709 7.5909 7.5056 7.5003 7.4950 7.4887 7.4834 7.4781 7.4909 9.1406 10.3278 9.6394 9.0378 8.4325 8.0406 8.0000 8.0000 8.0000 8.0000 8.0000 8.0000 8.0000 8.0000 8.0000 8.0166 8.7969 9.7444 10.2934 10.7875 11.2041 11.4856 11.9809 12.4591 13.8719 16.0966 18.3178 19.5541 18.9175 17.9259 17.6887 17.1634 16.6663 17.0766 17.2412 17.3253 15.6500 13.3197 11.8663 10.7400 9.8841 10.1869 8.7691 8.6366 8.7872 8.9369 9.0866 9.2362 9.3603 9.4047 9.4359 9.4672 9.4984 9.2419 8.6438 8.0188 7.3941 6.5144 5.0225 5.0000 5.0000 5.0000 5.0178 5.1731 5.3828 5.5906 5.8000 6.0087 6.2188 6.4266 6.6359 6.8444 6.8725 5.8997 5.6562 6.4503 7.2647 8.0791 8.8931 9.7353 12.1281 15.1603 15.1334 14.4631 13.9150 14.3491 14.3744 14.3991 14.4716 13.6372 12.1419 12.4878 12.6806 12.2887 12.0541 10.9284 9.8981 10.3425 9.5247 9.5209 10.1353 8.9391 9.1634 10.8434 9.8325 10.6494 11.5003 12.5009 14.0897 13.6731 10.5244 10.4466 11.3575 11.6625 11.6816 12.3494 12.7650 12.8069 13.6616 14.1022 14.2881 14.2303 12.5359 10.2975 8.8006 7.2953 8.3263 9.5550 10.7741 11.8188 12.2100 12.4228 12.7031 13.5350 14.2356 12.2937 11.2353 10.4450 9.6775 8.6509 7.5356 7.0766 7.6919 9.9484 11.0894 10.7469 10.7231 9.8531 8.5959 7.9538 7.6691 8.0484 8.3722 8.7066 9.6906 8.8013 8.4147 9.0550 8.9312 10.1050 10.7900 10.3162 9.2547 8.2688
7.7263 8.1684 8.6250 9.0853 9.0000 7.0519 5.7913 5.4306 5.1244 4.9584 5.3603 5.8562 6.3531 6.8484 7.3459 7.8406 8.3387 8.8859 9.5406 10.2484 11.0688 11.9072 12.5125 12.7366 11.2391 11.6119 12.4209 12.3044 11.8831 11.7219 10.6847 9.4803 8.3075 8.0000 8.0000 8.0000 8.0000 8.0000 8.0000 8.0000 8.0000 8.0000 8.0000 8.0000 8.0000 8.0000 7.9175 7.6988 7.6909 7.6856 7.6803 7.6747 7.6687 7.6634 7.6578 8.3488 9.3834 8.6878 8.1675 8.0044 8.0000 8.0000 8.0000 8.0000 8.0000 8.0000 8.0000 8.0000 8.0000 8.0000 8.0019 8.2375 8.7519 9.2881 9.8281 10.3525 10.3378 11.3844 12.7597 14.1522 15.9222 18.0741 19.1944 18.5216 17.7559 17.3959 17.0956 16.8716 16.2956 16.6509 17.3909 15.8675 13.2872 11.6172 10.4487 10.1091 10.5503 9.5562 9.1112 9.2609 9.4116 9.5616 9.7116 9.8612 9.9856 10.0297 10.0609 10.0581 9.6081 8.9875 8.3638 7.7391 6.9359 5.1413 5.0000 5.0000 5.0000 5.0000 5.0231 5.1869 5.3953 5.6047 5.8125 6.0228 6.2312 6.4406 6.6484 6.2937 5.4919 6.0906 6.9050 7.7194 8.5337 9.3481 10.1619 11.7309 14.8816 15.1853 14.5150 14.3491 14.7897 14.8150 14.8413 14.8672 14.4497 12.7172 12.1313 11.7672 11.6953 11.7384 11.8266 10.9919 10.2262 9.3269 8.9297 9.4872 9.5103 7.2591 8.9812 8.6319 9.7788 12.6163 13.1791 13.3128 13.3544 12.8722 11.9613 11.3925 11.2388 11.2659 11.7978 12.3481 13.3756 13.8703 14.2469 14.3119 13.6056 11.9375 10.4097 10.6438 8.4838 9.9772 10.9706 12.0988 12.0813 12.2334 12.3959 12.4603 13.3609 12.8484 11.6216 10.8978 10.6991 9.9838 8.7856 7.7341 7.0588 6.8438 7.4341 9.8062 9.5606 8.7434 8.3491 9.3166 9.4838 8.4325 8.3822 8.3506 8.8109 9.2647 7.9491 6.6863 8.3028 9.2759 9.3584 10.1081 10.2831 8.8269 7.4969
7.9331 8.9491 9.5334 10.0013 9.9278 7.8656 5.8019 4.9519 4.6588 4.8275 5.3225 5.8172 6.3153 6.8097 7.3078 7.8028 8.3000 8.8206 9.4566 10.1891 11.0400 12.0241 12.6822 12.1319 11.3297 12.4712 13.2494 11.8691 11.6694 11.8909 10.9675 9.5962 8.3466 8.0000 8.0000 8.0000 8.0000 8.0000 8.0000 8.0000 8.0000 8.0000 8.0000 8.0000 8.0000 8.0000 7.9300 7.8822 7.8766 7.8709 7.8653 7.8600 7.8544 7.8484 7.8431 7.9784 8.4534 8.0425 8.0000 8.0000 8.0000 8.0000 8.0000 8.0000 8.0000 8.0000 8.0000 8.0000 8.0000 8.0000 8.0000 8.0056 8.2522 8.7812 9.3203 9.6747 10.0516 12.1803 14.1016 15.5312 16.9081 18.1863 18.5747 18.0528 17.7400 17.4950 17.1534 16.6794 16.3997 16.9122 17.2544 16.3738 14.0578 12.1906 10.3544 10.2831 10.7169 10.3647 9.5866 9.7362 9.8859 10.0359 10.1859 10.3359 10.4862 10.6106 10.6547 10.5369 9.9569 9.3328 8.7078 8.0828 7.3584 5.3622 5.0000 5.0000 5.0000 5.0000 5.0000 5.0287 5.2000 5.4094 5.6172 5.8256 6.0359 6.2453 6.3844 5.6241 5.7312 6.5453 7.3597 8.1741 8.9884 9.8025 10.6169 11.6459 14.5228 15.2375 14.5672 14.9319 15.2319 15.2578 15.2825 15.1356 13.9100 12.8947 12.2847 11.8572 12.3719 12.8562 12.7753 12.3169 11.0203 9.5391 7.9653 10.6878 12.4800 9.1637 9.2531 9.7587 11.1509 12.1544 12.1975 11.5591 11.5003 12.9759 12.7288 11.1625 10.7819 10.6619 11.0859 11.5697 13.2256 13.9222 13.7859 13.0944 12.3562 11.0006 11.1456 12.4741 12.9712 13.0003 12.3550 12.6319 11.6109 11.6975 11.1528 11.0084 11.3284 12.1800 11.3428 10.0659 9.8422 10.0447 9.0525 7.7872 7.6244 7.0037 6.6416 8.1616 7.9247 7.2463 5.5169 8.1681 9.6800 9.2397 8.7597 8.4494 8.7328 8.2025 7.5394 6.7200 8.6644 10.2806 9.7009 10.2963 9.3112 8.6822 8.0844
6.3681 7.0316 8.3019 9.8594 10.7209 8.7463 6.5462 4.6872 4.3472 4.7863 5.2844 5.7794 6.2766 6.7719 7.2688 7.7650 8.2609 8.7669 9.3741 10.1422 11.4381 12.1172 13.0041 12.6759 11.8772 12.1691 13.1403 13.2750 12.7163 12.5581 12.0075 10.5572 8.9931 8.0125 8.0000 8.0000 8.0000 8.0000 8.0000 8.0000 8.0000 8.0000 8.0000 8.0000 8.0000 8.0000 8.0000 7.9984 7.9975 7.9966 7.9953 7.9941 7.9931 7.9916 7.9891 7.9866 8.0078 8.0000 8.0000 8.0000 8.0000 8.0000 8.0000 8.0000 8.0000 8.0000 8.0000 8.0000 8.0000 8.0000 8.0000 8.0000 8.0094 8.2828 8.8022 8.9712 10.0188 12.8488 14.7684 16.1519 16.9969 17.0125 18.3181 18.6166 18.2541 17.8375 17.7181 17.7531 17.8191 18.5034 18.8153 18.0562 15.2781 11.4753 10.2388 11.5847 11.7353 11.2200 10.0784 10.2253 10.3722 10.5188 10.6672 10.8156 10.9641 11.1122 11.2325 10.9259 10.3016 9.6766 9.0525 8.4281 7.7509 5.6841 5.0000 5.0000 5.0000 5.0000 5.0000 5.0000 5.0347 5.2141 5.4219 5.6297 5.8397 6.0500 5.9181 5.4484 6.1856 7.0003 7.8147 8.6287 9.4431 10.2575 11.0719 11.8953 14.1038 15.2897 14.6969 15.6231 15.6731 15.6981 15.4884 14.2184 12.9784 12.9906 11.9419 12.0075 12.9831 13.8794 13.5291 12.6850 12.2066 11.0225 7.8669 9.5266 12.5422 12.0013 12.6591 11.0653 10.7909 9.9219 9.5538 8.9338 9.0309 11.0228 11.8028 11.1791 10.6088 10.2781 10.6122 11.2513 12.5594 13.5306 12.5962 12.0606 11.6163 11.9766 12.7738 14.2397 14.8931 14.3391 12.6259 12.8962 12.9644 12.0856 11.1684 11.4453 12.4750 12.5822 11.0203 9.6831 8.5900 9.3394 9.4347 7.4759 6.4159 6.6406 6.6456 8.3141 9.2528 7.9313 7.3669 7.8441 8.3834 8.4416 8.1478 9.3775 9.8050 7.9913 7.2400 6.8725 8.2969 9.9253 10.0097 10.3531 9.9494 9.8203 9.8062
5.2309 5.8316 6.4319 7.0747 7.7581 6.8366 5.8356 4.6694 4.3759 4.7925 5.2697 5.7512 6.2394 6.7344 7.2303 7.7266 8.2231 8.7209 9.2956 10.7081 11.5034 12.4956 13.2850 13.0241 12.5413 12.5413 12.8928 13.0959 13.3741 13.1919 12.9469 11.6147 9.7700 8.0866 8.0000 8.0000 8.0000 8.0000 8.0000 8.0000 8.0000 8.0000 8.0000 8.0000 8.0000 8.0000 8.0000 8.0000 8.0000 8.0000 8.0000 8.0000 8.0000 8.0000 8.0000 8.0000 8.0000 8.0000 8.0000 8.0000 8.0000 8.0000 8.0000 8.0000 8.0000 8.0000 8.0000 8.0000 8.0000 8.0000 8.0000 8.0000 8.0000 8.0141 8.2259 8.3759 10.1506 13.4113 15.1472 15.4197 15.2803 15.2275 17.4847 19.3722 19.1519 19.1737 19.2816 19.3547 19.4281 20.2656 19.7422 18.2772 16.0003 13.5850 11.9003 11.6406 13.0463 13.0184 10.7450 10.3447 10.3506 10.3872 10.4475 10.4987 10.5359 10.5478 10.8647 11.2506 10.6444 10.0219 9.3969 8.7719 8.1309 6.1081 5.0000 5.0000 5.0000 5.0000 5.0000 5.0000 5.0000 5.0434 5.2266 5.4344 5.6438 5.8406 5.4172 5.8259 6.6406 7.4553 8.2691 9.0834 9.8978 10.7122 11.5266 12.3406 13.7656 15.3341 15.2122 16.0888 16.1147 15.8284 14.4747 12.9659 11.9859 12.0122 10.6947 11.4341 12.9303 13.4141 12.6512 11.7603 11.1656 10.7781 9.1163 9.7550 11.1666 11.1256 11.9950 11.0509 8.3219 7.4225 6.9600 6.4400 6.5106 8.8272 9.5034 11.2022 10.3497 9.8216 10.5075 10.8612 11.4750 12.3191 11.8009 12.3416 13.3847 16.2244 18.0322 15.7856 14.1900 13.0578 12.2856 13.3991 13.8550 13.1069 12.4503 14.1169 15.8731 14.5469 12.1647 9.6716 7.9469 8.4012 8.6256 5.6053 6.5678 6.9659 6.3653 8.6088 9.8425 7.6312 6.2544 7.2706 7.8600 7.9144 6.8516 8.4644 10.1962 9.1225 7.6900 7.3734 8.2047 9.0550 9.5575 9.9022 10.1897 10.5597 10.7563
4.0944 4.6944 5.2978 7.0950 7.8475 6.7134 5.8628 5.2731 5.1306 5.0941 5.4791 5.9325 6.3863 6.8403 7.2981 7.7619 8.2316 8.6987 9.7166 11.1038 11.5025 13.0272 13.5328 13.1912 12.9441 13.2881 13.0066 12.7725 13.4497 13.8144 13.7203 12.8147 10.8678 8.1191 8.0000 8.0000 8.0000 8.0000 8.0000 8.0000 8.0000 8.0000 8.0000 8.0000 8.0000 8.0000 8.0000 8.0000 8.0000 8.0000 8.0000 8.0000 8.0000 8.0000 8.0000 8.0000 8.0000 8.0000 8.0000 8.0000 8.0000 8.0000 8.0000 8.0000 8.0000 8.0000 8.0000 8.0000 8.0000 8.0000 8.0000 8.0000 8.0000 8.0000 8.0000 8.0069 8.3869 13.3569 13.6587 13.5028 13.4109 13.6313 16.1391 18.3153 19.9688 20.5597 20.7328 20.8853 20.9978 21.0184 19.8988 18.1922 16.8981 15.7775 14.3722 11.7472 12.3519 13.5266 10.1347 8.8169 8.9087 8.9641 8.9716 8.9559 8.9438 9.2366 10.0616 11.0150 11.1422 10.3547 9.7416 9.1172 8.5009 6.6278 5.0050 5.0000 5.0000 5.0000 5.0000 5.0000 5.0000 5.0000 5.0512 5.2391 5.4484 5.4947 5.4819 6.2809 7.0956 7.9094 8.7241 9.5381 10.3525 11.1669 11.9812 12.7953 13.7516 15.2994 15.9231 16.5312 16.1500 14.7334 13.1438 11.7863 10.4281 10.9791 10.5825 11.2991 11.6897 11.0453 10.5275 10.3300 10.3469 9.3672 8.0691 8.2872 8.3497 9.6434 9.9119 9.5819 6.8231 6.3538 6.5959 6.0119 5.4587 7.8709 9.7091 11.7209 9.7156 8.9712 9.7184 10.0859 11.5616 13.5569 13.7269 13.7388 16.0594 19.2859 19.9466 15.6803 12.7225 12.2856 12.3097 13.0844 13.4231 13.2078 13.3831 13.4416 14.1291 13.4822 12.4913 10.7612 8.7094 7.7613 5.9269 4.5456 7.8769 8.0791 6.6819 7.4991 7.6141 7.1687 7.8303 8.4800 7.6409 7.4503 6.6009 7.3875 9.3488 9.3103 8.5000 7.4584 7.8906 7.9850 8.7678 9.6100 9.7966 10.5222 10.9563
3.0225 3.5556 4.8869 8.2978 7.8675 7.1484 6.8253 5.9178 6.0022 6.0862 5.7734 6.1959 6.6497 7.1041 7.5481 7.9100 8.1625 8.7428 10.8284 10.9591 11.9716 13.4978 13.3000 12.2900 12.3531 12.6466 12.5678 12.3347 13.5700 14.1763 14.3512 14.5644 11.4119 8.1506 8.0000 8.0000 8.0000 8.0000 8.0000 8.0000 8.0000 8.0000 8.0000 8.0000 8.0000 8.0000 8.0000 8.0000 8.0000 8.0000 8.0000 8.0000 8.0000 8.0000 8.0000 8.0000 8.0000 8.0000 8.0000 8.0000 8.0000 8.0000 8.0000 8.0000 8.0000 8.0000 8.0000 8.0000 8.0000 8.0000 8.0000 8.0000 8.0000 8.0000 8.0000 8.0000 8.0000 11.5494 12.0644 11.0397 11.2841 12.1294 14.6184 17.0531 19.4600 21.4516 21.8309 21.3106 20.6162 21.0491 19.8841 18.8294 18.3359 16.9212 15.4609 12.5909 11.8266 11.8903 9.6056 9.0450 7.6644 7.3575 7.3419 7.3291 7.6087 8.4303 9.3062 10.1844 11.3638 10.9656 10.0534 9.4572 8.8375 7.1678 5.0919 5.0000 5.0000 5.0000 5.0000 5.0000 5.0000 5.0000 5.0000 5.0591 5.2531 5.2831 5.9216 6.7359 7.5500 8.3644 9.1788 9.9931 10.8072 11.6219 12.4356 13.2503 14.0647 15.2400 16.7781 16.4656 14.9922 13.3494 12.0391 11.0684 10.0562 10.5612 11.0169 11.5241 10.2784 9.7128 9.3644 11.0653 11.8584 9.6131 8.1097 8.3881 9.9881 11.7772 10.9375 7.9616 6.9988 7.3972 7.6956 7.6784 6.7041 8.1616 10.2353 10.7238 9.2616 9.5959 10.4847 11.3656 14.0859 16.2738 15.5266 14.8247 17.6703 18.9716 16.6656 15.3141 13.4091 11.9181 11.6763 12.3094 12.9284 13.8391 13.8056 12.1444 11.6534 12.0056 10.8934 9.6337 8.9903 8.4563 5.3175 4.8675 8.1775 6.8334 4.5534 3.6681 6.9219 8.4194 9.9606 9.0053 7.3281 6.7331 6.6019 5.8841 6.8391 6.7675 7.9494 7.8066 7.8675 7.5406 8.1156 8.9466 9.0178 9.8947 10.2937
2.4728 2.7797 6.2787 9.1859 7.6956 7.8281 7.4547 6.7137 6.8559 7.0147 6.9378 6.4553 6.8081 7.0591 7.2103 7.3331 7.6653 9.8403 12.2094 12.0553 12.8641 13.8438 13.2566 12.2266 12.9619 12.6566 12.6078 12.9203 13.3019 15.0103 15.5887 15.2806 13.0009 8.4303 8.0000 8.0000 8.0000 8.0000 8.0000 8.0000 8.0000 8.0000 8.0000 8.0000 8.0000 8.0000 8.0000 8.0000 8.0000 8.0000 8.0000 8.0000 8.0000 8.0000 8.0000 8.0000 8.0000 8.0000 8.0000 8.0000 8.0000 8.0000 8.0000 8.0000 8.0000 8.0000 8.0000 8.0000 8.0000 8.0000 8.0000 8.0000 8.0000 8.0000 8.0000 8.0000 8.0000 9.9381 10.6328 9.3956 8.6488 11.0584 13.2137 15.5769 17.9494 20.5928 20.7397 19.2625 19.0091 19.7322 19.7991 19.9806 18.2903 17.1269 16.6844 13.6719 11.1287 10.6366 11.2072 11.5244 8.2000 6.0659 5.7288 5.9816 6.7984 7.6750 8.5506 9.4266 10.4744 11.6547 10.7675 9.7559 9.1972 7.5256 5.2053 5.0000 5.0000 5.0000 5.0000 5.0000 5.0000 5.0000 5.0000 5.0003 5.0684 5.5584 6.3741 7.1894 8.0037 8.8191 9.6334 10.4478 11.2622 12.0759 12.8906 13.7053 14.5191 15.7312 16.8134 14.4569 12.1747 11.5569 11.9109 12.1944 10.2744 9.9169 10.4556 10.1950 9.3241 9.6631 9.1669 10.2131 11.1422 9.9094 9.2134 9.9381 10.2209 9.5037 7.1025 7.6506 7.8909 7.8744 8.0178 9.1750 7.8328 8.6291 10.2166 10.2772 9.3628 10.4447 11.7481 13.3875 15.4328 17.6878 17.2375 15.2719 14.8341 15.2247 15.7466 16.5106 14.1287 11.0953 10.8509 11.5619 12.5084 14.2113 14.3669 12.4237 11.3781 11.4491 9.8478 8.2444 8.2228 9.1591 7.3878 6.4831 7.8234 7.3119 5.3219 3.7981 8.3153 7.8897 7.2841 7.1537 6.0312 6.9206 7.4744 6.7206 6.7256 5.5969 6.3088 6.8828 6.6700 6.5419 7.3553 8.1528 8.3928 9.3491 9.9359
4.2775 3.3166 6.2712 9.9484 10.2000 9.2097 7.7644 7.0969 7.2466 7.3991 7.7322 7.1225 7.2087 7.3281 7.4447 7.5469 8.4781 11.0684 12.8903 12.9378 12.3869 13.2356 12.9344 12.0556 12.2941 13.1372 13.3628 13.2122 13.2172 14.5753 14.9500 15.0112 14.2322 10.4444 8.0000 8.0000 8.0000 8.0000 8.0000 8.0000 8.0000 8.0000 8.0000 8.0000 8.0000 8.0000 8.0000 8.0000 8.0000 8.0000 8.0000 8.0000 8.0000 8.0000 8.0000 8.0000 8.0000 8.0000 8.0000 8.0000 8.0000 8.0000 8.0000 8.0000 8.0000 8.0000 8.0000 8.0000 8.0000 8.0000 8.0000 8.0000 8.0000 8.0000 8.0000 8.0000 8.0000 8.8384 9.2006 8.2006 8.9072 10.3191 10.7316 12.6378 15.0162 18.1334 19.7834 19.5103 19.0359 18.4716 19.1650 19.6716 17.8422 17.2997 17.7419 15.2963 11.9716 11.5331 13.0278 12.6700 8.4322 5.8075 5.1509 5.3416 6.2019 7.0800 7.9578 8.7694 10.2694 11.8787 11.7250 10.4581 10.9128 8.8478 7.5466 7.0069 5.9241 5.7106 5.4084 5.2681 5.0247 5.0000 5.0000 5.0000 5.0547 5.7097 6.5275 7.3453 8.1641 8.9828 9.8006 10.6184 11.4375 12.2556 13.0741 13.8947 14.7016 15.4466 16.9122 14.2800 11.1009 11.2444 11.1175 11.9503 10.7591 9.7103 10.0834 9.9884 8.3303 9.5881 9.1969 9.1606 9.4137 9.2344 9.4462 9.2262 7.2769 5.7784 7.5566 9.5919 7.2834 6.2406 7.3156 9.6744 8.5578 9.5028 10.2750 10.3350 9.9272 11.3725 12.2903 13.8884 14.5300 14.9178 15.5372 14.0872 13.0538 14.8772 16.1928 16.8922 13.9434 10.8203 10.5253 11.0538 12.5094 14.7616 15.5225 11.4731 10.6328 11.2987 10.7275 9.6781 8.1200 9.0522 9.0331 7.9219 6.9919 7.0831 7.7403 5.5209 6.5231 6.7353 6.6022 6.7494 6.2991 6.7997 7.7728 7.6838 6.1922 4.1728 4.6597 5.9288 5.8381 6.1553 6.7534 7.5716 7.7591 8.4272 8.9547
6.6997 5.5450 6.2919 8.9900 10.7175 9.6434 7.8713 7.0837 7.2337 7.4428 8.3147 8.1706 8.1784 8.3297 8.4522 8.5584 9.8131 11.9144 13.1850 12.9537 12.1450 12.0594 12.0262 12.4091 12.8500 13.9425 14.2078 14.1450 14.1097 14.5397 14.7612 15.6644 14.9541 13.3309 8.3912 8.0000 8.0000 8.0000 8.0000 8.0000 8.0000 8.0000 8.0000 8.0000 8.0000 8.0000 8.0000 8.0000 8.0000 8.0000 8.0000 8.0000 8.0000 8.0000 8.0000 8.0000 8.0000 8.0000 8.0000 8.0000 8.0000 8.0000 8.0000 8.0000 8.0000 8.0000 8.0000 8.0000 8.0000 8.0000 8.0000 8.0000 8.0000 8.0000 8.0000 8.0000 8.0000 8.1412 8.1219 8.0194 8.5056 8.6875 8.8719 9.6428 12.1378 14.9806 17.7309 19.4597 18.9450 18.0628 18.3950 18.8541 18.2141 17.5681 17.9684 17.1972 15.7453 15.1119 14.7738 14.0681 9.0997 6.5606 5.1684 5.0553 5.7241 6.6016 7.3541 7.7200 11.2319 12.1156 11.7969 11.2413 11.0516 12.8034 11.0253 7.9581 7.2644 6.6816 6.2125 6.0422 5.5506 5.1328 5.0022 5.0000 5.0416 5.6769 6.4947 7.3128 8.1322 8.9500 9.7678 10.5875 11.4081 12.2303 13.0584 13.8475 14.5138 15.1450 16.2738 15.9644 12.0612 10.7209 10.8794 10.7456 10.2272 9.8991 10.4703 10.7381 8.9647 9.1503 9.0197 8.7516 8.4925 8.6256 9.2253 9.3334 8.2769 8.4766 10.2156 10.3569 6.1994 5.3228 7.6384 9.2084 9.0566 10.1694 10.6650 10.8575 10.7178 12.1534 12.3497 13.3019 13.7022 13.2812 13.0363 12.3112 12.3641 15.8481 15.4778 15.0903 14.0547 12.1566 11.1447 11.1250 12.3028 14.8019 15.2209 11.1856 10.8181 12.4506 11.6619 10.9453 9.5031 8.1281 8.6956 8.9825 7.5619 5.4363 7.0284 5.9300 5.6925 6.1219 7.4584 7.5531 7.0194 6.6547 7.2294 6.6700 6.0647 4.9309 4.9834 5.1619 6.1547 6.4975 6.3847 7.0375 7.2022 7.6334 7.5375
7.3538 7.4259 7.2216 9.5616 11.3831 10.0363 8.0413 7.0716 7.2225 7.5644 8.6044 9.2294 9.1250 9.2900 9.4478 9.5847 10.9753 12.3719 13.4581 12.9203 12.0025 11.5281 11.7791 13.2175 14.0550 14.6484 15.0641 15.1822 15.2494 15.2784 15.8687 17.3516 16.7366 14.1606 9.4169 8.0000 8.0000 8.0000 8.0000 8.0000 8.0000 8.0000 8.0000 8.0000 8.0000 8.0000 8.0000 8.0000 8.0000 8.0000 8.0000 8.0000 8.0000 8.0000 8.0000 8.0000 8.0000 8.0000 8.0000 8.0000 8.0000 8.0000 8.0000 8.0000 8.0000 8.0000 8.0000 8.0000 8.0000 8.0000 8.0000 8.0000 8.0000 8.0000 8.0000 8.0000 8.0000 8.0000 8.0019 8.0037 8.0056 8.0081 8.0100 8.1303 10.1050 12.6322 15.0562 17.3056 17.3875 17.0450 17.2603 17.7247 17.8234 16.1069 17.0991 17.2553 17.5034 17.2006 16.2469 15.7072 12.5981 8.2944 5.3847 5.0000 5.2756 5.9109 5.9797 7.6878 12.1225 12.0688 11.7259 11.3837 11.1938 12.7072 10.2591 8.7944 8.1528 7.5741 7.0428 6.8372 6.3578 5.8472 5.3475 5.0441 5.0306 5.6444 6.4622 7.2825 8.1009 8.9216 9.7431 10.5678 11.3997 12.2284 12.9809 13.6272 14.2597 14.8909 15.5487 16.6344 14.0503 10.6866 10.5081 10.5903 10.3400 10.2987 10.6059 11.5366 11.7000 9.8016 8.9141 8.0369 7.2263 7.9072 8.8144 9.1587 9.6384 8.0112 5.8463 5.9891 4.0991 5.6525 8.1609 9.1131 9.7238 10.5434 10.9828 11.3128 11.5381 12.6981 12.5997 12.6978 12.9066 12.4981 12.4075 12.0950 14.2100 16.3375 14.5316 13.8669 13.1625 12.4659 11.8459 11.3319 12.8403 14.7209 13.9369 10.8469 11.6681 12.7844 11.9106 11.1144 11.1303 9.3203 9.0734 9.7531 8.2728 5.1781 4.7519 4.4272 5.0981 6.6244 7.8831 6.7962 7.1741 7.3700 6.8366 4.8466 5.1069 5.6937 5.7447 5.4134 7.1684 6.9319 6.2284 6.4584 6.6094 6.3606 6.1469
8.1525 7.7072 8.1641 9.5294 11.6941 10.2087 8.2106 7.0647 7.2531 7.7263 8.7953 10.1006 10.0712 10.2359 10.4012 10.4194 11.2175 12.7853 13.6559 12.9291 11.8594 10.9609 11.4134 13.2662 14.0309 14.5359 15.0881 15.4191 15.4641 15.0434 14.6300 17.2262 18.5084 15.4984 10.8816 8.4506 8.0128 8.0000 8.0000 8.0000 8.0000 8.0000 8.0000 8.0000 8.0000 8.0000 8.0000 8.0000 8.0000 8.0000 8.0000 8.0000 8.0000 8.0000 8.0000 8.0000 8.0000 8.0000 8.0000 8.0000 8.0000 8.0000 8.0000 8.0000 8.0000 8.0000 8.0000 8.0000 8.0000 8.0000 8.0000 8.0000 8.0016 8.0487 8.1784 8.2844 8.2941 8.3047 8.3156 8.3253 8.3359 8.3466 8.3562 8.4416 9.9259 13.1625 15.2284 16.5353 16.8759 16.2778 16.4606 17.4306 17.1347 15.2759 15.8588 17.3153 18.9584 19.8119 18.7209 19.2481 15.6756 11.3544 6.9841 5.1669 5.0103 5.0253 5.1866 7.6716 11.7750 11.5175 11.1497 10.7812 10.7406 11.0875 10.3159 9.6237 9.0450 8.4666 7.8987 7.6297 7.1659 6.6544 6.1431 5.6312 5.1253 5.6156 6.4359 7.2575 8.0797 8.9059 9.7397 10.5772 11.3884 12.1044 12.7419 13.3731 14.0047 14.6369 15.2691 16.2412 15.4806 11.9641 10.2372 10.3022 10.3747 10.4963 10.5778 10.9972 11.6931 10.5400 10.2681 9.9497 8.6359 8.6159 8.6163 9.2681 10.2091 9.2413 7.0031 6.2806 4.2516 6.1962 8.1841 9.7484 10.3397 10.8503 11.2906 11.7156 12.2688 13.0656 12.9522 12.1488 12.1388 12.2219 12.3387 12.2491 14.2781 15.3019 13.4384 12.3325 11.7175 12.1341 12.7384 11.8800 12.6703 13.8250 12.3603 11.0009 11.4941 12.3112 12.1366 11.4944 10.9234 9.3091 8.6378 9.3753 8.9675 6.3359 4.3859 4.6269 5.7416 6.5416 6.1756 5.6125 6.5756 8.2994 6.5325 3.8409 4.2484 5.1678 5.8012 7.0563 8.1956 6.9591 6.2694 7.1316 8.1916 7.1581 6.4281
8.9509 8.5056 8.0603 8.9750 10.9722 9.6384 8.3806 7.0856 7.3644 7.8888 8.9872 10.6875 11.0172 11.1828 11.4234 10.5322 9.6041 12.1447 13.4159 12.9847 11.6572 11.7978 12.6866 14.2353 14.2097 13.9772 13.8897 13.3809 14.3247 14.6219 14.9856 16.3759 16.7547 14.8713 13.6678 11.9209 10.0425 8.0516 8.0000 8.0000 8.0000 8.0000 8.0000 8.0000 8.0000 8.0000 8.0000 8.0000 8.0000 8.0000 8.0000 8.0000 8.0000 8.0000 8.0000 8.0000 8.0000 8.0000 8.0000 8.0000 8.0000 8.0000 8.0000 8.0000 8.0000 8.0000 8.0000 8.0000 8.0000 8.0000 8.0138 8.0988 8.2672 8.4744 8.6834 8.7953 8.8066 8.8162 8.8263 8.8375 8.8475 8.8575 8.8784 9.2209 9.0413 12.1281 16.5300 20.4328 22.9697 22.2488 19.4125 19.9428 17.4147 14.6478 16.5069 18.2722 19.0834 19.5866 19.1903 19.5384 19.4212 16.9725 11.1356 6.8428 5.0250 7.3263 7.8916 6.4775 10.1856 10.2500 9.8816 9.5219 10.0562 10.9316 10.9263 10.5128 9.9372 9.3588 8.7803 8.4209 7.9731 7.4625 6.9506 5.9934 5.0328 5.5931 6.4163 7.2450 8.0803 8.9191 9.7491 10.5369 11.2222 11.8550 12.4869 13.1191 13.7503 14.3825 15.0147 15.6644 16.3894 13.6425 10.4247 10.0316 10.1097 10.3306 10.4234 10.4391 10.4947 11.4003 13.4725 11.7897 9.7847 8.9472 7.7297 8.7931 11.2013 10.4972 9.9947 8.7247 7.0359 7.6784 8.9859 10.2534 10.7181 11.1578 11.5981 12.0456 12.6862 13.3969 13.3047 11.8156 11.9572 12.3881 12.2975 12.0478 12.4078 12.8709 11.9853 10.8394 10.0381 9.2447 11.3462 12.4153 12.8806 12.1956 10.9109 11.7444 11.8478 12.0516 11.4656 10.7037 10.3341 9.7097 8.3847 8.5516 9.4747 8.0813 7.3459 6.4909 7.1266 7.0312 5.6634 4.6231 5.7697 8.5006 7.3556 6.5109 4.9519 5.1969 5.8756 7.0997 6.8381 5.9378 6.8666 7.5116 8.5938 8.5006 7.9531
9.7497 9.3044 8.8572 8.3706 8.7169 7.6613 7.6163 7.1391 7.5237 8.0513 9.1778 10.9881 11.9738 12.2837 12.4616 11.3509 11.8341 13.1337 12.8734 12.6353 12.3278 13.1084 14.5925 14.9331 14.6259 15.1772 14.9616 13.9997 14.6284 14.1053 14.3719 15.0316 15.4256 16.6569 18.4669 16.9037 12.0938 8.0391 8.0000 8.0000 8.0000 8.0000 8.0000 8.0000 8.0000 8.0000 8.0000 8.0000 8.0000 8.0000 8.0000 8.0000 8.0000 8.0000 8.0000 8.0000 8.0000 8.0000 8.0000 8.0000 8.0000 8.0000 8.0000 8.0000 8.0000 8.0000 8.0000 8.0013 8.0431 8.1681 8.3641 8.5725 8.7812 8.9900 9.1984 9.3075 9.3172 9.3281 9.3387 9.3484 9.3594 9.3700 9.5372 10.0409 9.4984 10.2097 14.3409 18.7453 23.1453 27.4153 29.3062 25.8928 19.9472 16.1669 17.4003 18.2006 18.1969 19.1634 19.0513 19.1659 19.1616 18.7847 17.6597 15.2759 9.1781 11.5453 10.3416 6.8509 8.3644 8.9775 8.6150 8.4256 9.3059 10.3291 10.9681 11.0569 10.7819 10.2509 9.6725 9.2225 8.7816 8.2650 7.1222 5.2112 5.0169 5.5847 6.4212 7.2587 8.0975 8.9116 9.6747 10.3366 10.9691 11.6012 12.2325 12.8644 13.4966 14.1284 14.7597 15.3916 16.2391 15.0653 11.7044 9.7762 9.8428 10.2491 9.8387 9.9781 10.7941 12.3606 12.6566 10.5694 8.0487 9.0128 8.1856 8.7825 10.8062 10.2413 10.6841 10.7203 9.5756 10.0359 10.5534 10.8691 11.4194 12.0578 12.4700 12.3456 12.1072 12.8953 12.6772 11.7406 11.9591 12.3737 12.4344 11.5619 10.3981 10.7650 10.2166 10.5941 11.4384 8.2587 7.6419 9.6994 11.2794 10.3334 10.1362 11.5800 12.2731 12.1847 11.2941 10.5691 9.8875 8.7413 7.8394 8.4075 8.6584 6.8956 6.8966 7.2419 8.3206 7.7628 6.5878 5.3841 6.0919 8.0138 8.3709 7.9972 5.2306 5.3647 5.8522 6.4538 6.7247 5.5075 7.0591 8.3328 8.3959 8.7863 8.7234
10.4484 9.8550 9.1922 8.5013 7.9356 6.9669 6.5481 7.0769 7.6013 8.2459 9.2400 10.8591 12.6566 13.6056 13.7403 13.4116 13.7322 13.7394 13.0625 12.6416 13.5678 14.8322 16.6938 16.3094 15.8641 15.7434 15.4888 14.8525 14.8428 13.7037 13.0150 13.6163 13.8638 16.8884 21.2047 18.3591 10.3044 8.0200 8.0000 8.0000 8.0000 8.0000 8.0000 8.0000 8.0000 8.0000 8.0000 8.0000 8.0000 8.0000 8.0000 8.0000 8.0000 8.0000 8.0000 8.0000 8.0000 8.0000 8.0000 8.0000 8.0000 8.0000 8.0000 8.0000 8.0000 8.0109 8.0909 8.2547 8.4619 8.6706 8.8791 9.0881 9.2963 9.5050 9.7137 9.8184 9.8297 9.8397 9.8497 9.8609 9.8709 9.8837 10.4153 10.8172 10.2238 9.7209 12.1531 16.5562 20.9578 25.3594 29.4469 28.6006 23.9137 18.8922 17.3128 16.9513 16.5644 18.4128 18.6162 18.2409 18.1081 18.7091 19.4856 19.1519 17.4506 14.5556 12.3806 8.4684 6.7025 7.6628 7.3469 7.4906 8.4909 9.6694 10.7437 11.2056 11.1147 10.9684 10.5581 10.0475 9.5741 8.2381 5.7909 5.0000 5.0194 5.5984 6.4394 7.2688 8.0659 8.8050 9.4513 10.0825 10.7144 11.3466 11.9784 12.6097 13.2419 13.8741 14.5059 15.1372 15.7716 16.0941 13.2034 10.1184 9.5766 9.7897 9.1772 9.7097 10.5722 11.3466 11.3081 8.7056 6.2519 7.7769 9.2109 9.9406 10.0925 10.6269 11.2347 11.8731 11.7312 11.5534 11.4563 11.8728 12.8713 12.7672 12.0806 11.4484 12.1059 13.5166 12.4453 11.3122 11.1131 10.4819 10.3541 10.1934 10.6728 11.5403 12.4422 13.1025 13.5972 10.4806 7.8053 9.1853 9.9650 9.2350 9.9794 10.5063 11.2353 12.0606 12.3875 12.1075 9.6034 7.5772 7.5647 8.1456 8.0634 7.3578 7.7325 7.6972 8.6150 8.4191 7.3772 6.4594 6.6909 7.6969 9.1287 8.8681 5.2006 3.8106 5.5850 7.3100 6.7263 5.0922 6.3475 8.7994 8.7922 8.8047 8.6156
10.4050 9.6912 8.9775 8.4419 8.2753 7.4531 7.0859 7.6031 9.2803 10.0256 10.0900 11.3416 12.8656 14.2937 14.5809 13.8325 14.2006 14.0566 12.3056 12.1422 13.4816 15.6175 17.3156 16.7559 15.6791 15.4231 15.4944 15.2272 15.0641 14.4247 12.3112 11.8125 12.4931 14.6650 18.4266 15.2084 9.7122 8.5319 8.0006 8.0000 8.0000 8.0000 8.0000 8.0000 8.0000 8.0000 8.0000 8.0000 8.0000 8.0000 8.0000 8.0000 8.0000 8.0000 8.0000 8.0000 8.0000 8.0000 8.0000 8.0000 8.0000 8.0000 8.0000 8.0084 8.1353 8.3509 8.5600 8.7684 8.9772 9.1853 9.3944 9.6031 9.8119 10.0203 10.2288 10.3309 10.3406 10.3516 10.3619 10.3719 10.3822 10.5041 11.4078 11.5503 10.9497 10.3491 10.5431 14.3672 18.7700 23.1719 27.4350 28.2428 25.3741 20.6247 18.3616 19.7019 17.2656 16.9112 17.9766 18.3906 18.5950 19.3603 20.3666 20.5872 19.0428 16.7975 14.2494 10.2456 6.3034 6.2906 6.1272 6.5547 7.7225 8.9563 10.3350 11.3450 11.2553 11.1641 11.0678 10.8287 9.5984 7.0041 5.0622 5.0000 5.0231 5.6188 6.4297 7.2162 7.9281 8.5644 9.1962 9.8284 10.4606 11.0919 11.7241 12.3559 12.9878 13.6191 14.2513 14.8831 15.5153 16.2141 14.6503 11.3366 9.3606 9.1928 8.7987 9.0662 9.7616 10.1469 11.1509 10.3394 8.2975 7.9834 10.3872 10.5250 10.3034 11.1647 11.8456 12.4881 12.9528 13.0413 12.8928 12.6488 12.3181 11.7506 10.7025 11.1384 12.5981 14.1991 13.6944 11.1456 10.3772 9.3747 10.1066 10.6825 10.5997 12.6606 15.6184 15.3306 13.9412 12.4522 10.5772 10.3284 9.3169 9.2216 10.4025 10.6241 10.7359 12.2950 13.5984 14.1522 10.6816 8.4572 7.9847 7.7500 8.2028 9.1778 8.7822 8.0797 8.0100 7.1209 7.5981 6.6825 5.6184 6.5394 8.4278 7.9237 5.5019 4.0372 7.3209 9.4525 7.8016 5.4766 6.7456 8.8369 8.8475 8.5903 8.3547
10.1641 9.4503 8.8209 8.6516 8.5772 7.9481 7.9459 9.2622 10.1969 11.1700 12.0575 13.0394 13.8366 13.8484 13.8994 13.6681 13.4119 12.0253 11.3634 12.5147 13.2703 14.9806 16.2706 16.4441 15.4116 14.6388 14.5603 14.6972 15.0650 15.2406 13.3509 13.2100 14.9731 15.3475 14.6816 12.1859 10.2678 8.5325 8.0016 8.0000 8.0000 8.0000 8.0000 8.0000 8.0000 8.0000 8.0000 8.0000 8.0000 8.0000 8.0000 8.0000 8.0000 8.0000 8.0000 8.0000 8.0000 8.0000 8.0000 8.0000 8.0000 8.0000 8.0406 8.2269 8.5528 8.8562 9.0750 9.2834 9.4925 9.7009 9.9094 10.1181 10.3269 10.5356 10.7444 10.8419 10.8528 10.8631 10.8731 10.8837 10.8944 11.3394 12.3666 12.2759 11.6753 11.0747 10.4884 12.2216 16.5812 20.9841 25.3634 26.3247 26.1744 21.9981 18.6653 20.9141 17.9247 16.2691 17.5578 17.5994 18.6187 19.6200 20.4981 21.3472 21.2331 17.2522 15.5731 13.1491 7.1737 5.2884 5.1072 5.7725 7.0322 8.2744 9.8281 11.3294 11.3556 11.2466 11.1328 11.0722 11.7075 11.7022 6.9897 5.0000 5.0222 5.5844 6.3612 7.0456 7.6788 8.3106 8.9419 9.5737 10.2063 10.8378 11.4691 12.1012 12.7338 13.3653 13.9966 14.6287 15.2612 15.8922 15.8244 12.7866 9.7159 8.7372 8.1697 7.8853 9.2875 9.8112 10.9691 11.7125 11.2506 10.2947 10.2003 10.3919 10.8425 11.2947 12.0222 12.8500 13.1362 12.9113 12.4797 12.1928 12.1838 10.8400 10.0247 11.4325 13.0969 14.8041 15.0387 12.3316 11.3856 12.3144 12.6181 11.9603 10.4709 13.3303 15.7531 14.2925 13.5772 13.0534 12.0084 10.5259 8.6978 9.8797 11.4247 10.7919 10.5153 12.7559 13.2987 13.2359 11.0631 7.7112 7.9019 8.8050 10.7325 11.3025 9.9312 8.3141 8.3125 8.1134 7.7925 7.9547 6.4875 6.0091 7.4234 6.3044 4.1409 5.4450 10.8159 10.8209 9.1284 7.7684 7.4069 8.9094 8.7231 8.3287 8.0906
9.9225 9.2384 8.9641 8.9016 8.8391 8.5222 9.7137 11.4291 11.9697 12.5325 12.9359 13.6209 13.7759 13.4322 13.4016 13.8372 12.7541 11.2934 11.7550 13.4353 14.9547 15.2056 14.8922 15.3000 15.2391 14.0831 13.1397 13.5684 14.4522 15.5234 14.4309 14.7044 16.2222 15.7403 13.6737 13.2463 11.0575 8.3919 8.0003 8.0000 8.0000 8.0000 8.0000 8.0000 8.0000 8.0000 8.0000 8.0000 8.0000 8.0000 8.0000 8.0000 8.0000 8.0000 8.0000 8.0000 8.0000 8.0000 8.0000 8.0000 8.0056 8.1078 8.3394 8.6034 8.9828 9.3081 9.5894 9.7991 10.0072 10.2163 10.4247 10.6334 10.8416 11.0506 11.2594 11.3541 11.3641 11.3744 11.3853 11.3953 11.4794 12.3250 13.2822 13.0016 12.4009 11.8003 11.1997 11.0084 14.3938 18.7947 23.1984 24.7578 24.5072 23.3441 19.4088 20.5009 18.8916 16.8144 17.6841 17.6634 18.6584 19.3019 19.4934 20.1600 19.4122 16.9750 17.5500 17.2406 14.5206 10.5206 5.1062 5.3581 6.5550 7.5081 9.0413 10.4866 11.2319 11.2500 11.1328 11.0741 11.8447 12.7806 11.4953 6.9328 5.0584 5.4991 6.1606 6.7925 7.4237 8.0556 8.6878 9.3200 9.9513 10.5834 11.2153 11.8472 12.4784 13.1109 13.7425 14.3747 15.0059 15.6384 16.2019 14.2341 10.3769 8.8519 8.6025 9.2619 11.7019 12.6100 11.6669 12.1869 12.6081 11.6403 10.0787 10.4794 11.0350 11.5841 12.1300 11.1572 10.9062 11.3941 11.1056 11.0647 10.9503 10.3988 10.7228 12.2738 14.1125 14.9797 15.0581 13.2903 13.5997 14.8250 13.8194 13.1866 13.0156 15.4203 15.1888 13.7097 14.5600 14.3938 12.4103 11.2200 10.7400 10.0384 10.5469 9.5697 9.5156 11.3453 11.7106 11.1156 8.9853 6.2084 7.0813 9.1866 11.5606 11.6337 9.8694 8.1569 7.7428 8.0269 8.0331 8.3506 8.7581 8.5053 7.7397 6.5531 5.7706 8.3516 13.0566 13.3791 11.8919 10.3703 8.9738 8.8900 8.4681 8.0734 7.8359
9.6872 9.2856 9.2141 9.1534 9.2606 9.8088 12.2191 13.2906 13.6550 14.0428 14.2853 14.1422 13.3525 13.1850 13.5522 14.1747 12.1525 11.0403 12.2884 13.9550 15.4278 14.8713 14.1803 14.5822 15.5375 14.4644 12.9803 12.7913 15.2528 16.4513 15.5734 15.0569 15.7312 15.9872 15.1156 14.5991 12.3169 8.5759 8.0006 8.0000 8.0000 8.0000 8.0000 8.0000 8.0000 8.0000 8.0000 8.0000 8.0000 8.0000 8.0000 8.0000 8.0000 8.0000 8.0000 8.0000 8.0000 8.0000 8.0000 8.0309 8.2050 8.4528 8.7025 9.0466 9.3900 9.7281 10.0709 10.3144 10.5228 10.7312 10.9400 11.1488 11.3572 11.5656 11.7744 11.8653 11.8759 11.8866 11.8966 11.9072 12.2712 13.3234 14.1544 13.7269 13.1266 12.5259 11.9253 11.3206 12.3631 16.6063 21.0103 23.2525 21.9312 23.3672 20.4806 20.0522 20.4131 17.9797 18.2691 18.7950 20.3213 19.6422 18.5094 18.2878 16.8778 17.8659 19.3428 19.3653 17.9544 15.0031 8.8141 5.0862 5.7266 6.5509 7.9425 9.3091 10.3459 11.0734 11.1350 11.0697 11.8188 12.6744 13.4581 12.8263 8.9697 8.5769 8.8359 9.1703 9.5312 9.8912 10.2456 10.6256 11.0394 11.4534 11.8684 12.3188 12.8153 13.3112 13.8078 14.3322 14.9091 15.4875 16.0662 15.5366 12.2372 11.6478 11.9509 11.8981 13.0556 14.0872 12.2612 12.6956 12.0591 9.7528 9.9394 10.8969 11.7144 12.3975 12.8300 10.3344 9.4231 10.6025 11.4703 11.8681 11.8756 11.6747 11.4941 13.7428 15.2594 13.7753 12.6753 12.1619 13.4150 14.6094 14.2972 14.6456 14.9578 15.4356 15.0466 15.0175 15.3837 15.0144 12.3528 10.5569 10.4253 9.4491 9.3972 9.2131 9.3578 10.2900 10.2925 9.8872 9.2172 7.8478 6.5534 7.6756 9.7069 10.3106 9.5731 8.4709 7.8475 8.1384 8.2716 8.5600 8.9534 8.6234 8.0588 7.7366 8.8941 12.2884 15.5691 14.9025 12.9528 10.9425 9.1119 8.8666 8.8728 8.8938 8.8297
9.6269 9.5522 9.7309 10.0497 10.3259 11.5525 13.8200 14.3844 14.7516 15.0241 14.6056 14.2497 13.6216 14.7216 15.3425 14.8009 13.3169 12.4869 13.4284 14.9997 14.5653 13.6191 13.1278 13.9409 15.8953 14.9859 13.7063 13.7987 16.0959 15.3112 14.4609 15.2384 15.9506 15.7766 15.1713 14.0837 12.2284 9.8353 8.0000 8.0000 8.0000 8.0000 8.0000 8.0000 8.0000 8.0000 8.0000 8.0000 8.0000 8.0000 8.0000 8.0000 8.0000 8.0000 8.0000 8.0000 8.0000 8.0031 8.0916 8.3166 8.5659 8.8153 9.0653 9.5169 9.7853 10.1453 10.4987 10.8181 11.0381 11.2466 11.4553 11.6634 11.8725 12.0813 12.2891 12.3775 12.3875 12.3978 12.4087 12.4619 13.2416 14.3209 14.9828 14.4528 13.8522 13.2516 12.6512 12.0506 11.6091 14.4187 18.8209 21.6400 20.2325 20.6172 21.3384 20.3628 20.5200 18.9994 18.1384 19.1894 21.0338 20.4713 17.5481 16.8209 16.4009 18.5434 20.5009 19.5453 17.3806 16.0128 15.0847 7.7922 5.0509 5.5344 6.6353 8.1278 9.2353 10.1309 10.9016 11.0656 11.7381 12.5322 13.2950 14.0897 14.4972 11.5831 9.8231 10.1197 10.4844 10.8491 11.2137 11.5803 11.9453 12.3100 12.6744 13.0400 13.4062 13.7709 14.1353 14.5000 14.8663 15.2319 15.5962 16.1912 15.1425 13.2444 12.2019 11.6788 12.4934 12.7591 12.8522 14.3131 12.2369 10.2366 9.9400 10.5256 11.6750 12.8331 13.6372 11.9859 10.2100 11.5863 12.9031 12.6800 12.2019 12.0191 12.5050 14.1856 13.8031 12.1706 11.0334 11.5616 13.7822 14.8294 14.5516 14.9753 14.7913 14.5272 14.4900 15.2113 16.3922 15.0481 12.1538 9.6453 9.1806 8.9725 8.5878 8.5559 9.6153 9.6456 8.9897 8.8606 10.1778 9.4731 7.5919 6.5772 8.0969 9.3763 9.6400 10.5363 10.6897 9.3828 8.7238 8.8491 9.6947 9.5772 8.7159 7.6950 8.4669 10.4359 12.2684 13.2913 11.7153 9.6972 8.3800 8.7772 8.5797 8.5037 8.5906
9.9603 10.0725 10.1069 10.1156 10.3303 12.0572 13.6666 13.8875 13.9669 14.0028 13.7113 13.8203 13.3272 14.8025 15.2937 14.1000 13.4972 13.1081 14.1500 14.4300 13.4075 12.3528 12.2428 12.8756 14.7259 14.8034 13.7600 14.7587 16.7403 14.6753 13.6634 14.5269 14.7244 13.9625 13.2678 13.4628 11.7531 9.8203 8.3538 8.0000 8.0000 8.0000 8.0000 8.0000 8.0000 8.0000 8.0000 8.0000 8.0000 8.0000 8.0000 8.0000 8.0000 8.0000 8.0000 8.0000 8.0234 8.1831 8.4300 8.6794 8.9291 9.1784 9.4278 10.0059 10.2009 10.5656 10.9172 11.2691 11.5519 11.7616 11.9706 12.1791 12.3875 12.5962 12.8038 12.8884 12.8994 12.9097 12.9194 13.2103 14.2391 15.3191 15.7666 15.1784 14.5778 13.9772 13.3766 12.7762 12.1756 12.6112 16.6328 19.9319 18.8066 17.6316 20.1747 21.4700 20.8556 19.6781 19.1656 18.7275 18.5291 17.7528 16.4312 16.4541 17.0381 18.9931 20.1234 20.1625 21.5806 21.9188 20.1203 12.6966 5.9075 5.0472 5.3891 6.9409 8.1244 9.0197 9.9600 10.6972 11.2894 12.2331 13.4025 14.6956 14.6672 13.9519 11.5406 9.3372 9.5337 9.8984 10.2644 10.6303 10.9947 11.3594 11.7241 12.0909 12.4556 12.8203 13.1850 13.5503 13.9166 14.2788 14.7419 15.6247 16.6816 15.7803 13.6912 11.8000 11.0059 10.9091 12.0241 15.1428 13.4619 11.2794 10.9194 10.6819 11.0622 12.1562 13.2909 13.1325 11.3266 11.5206 12.9031 13.0522 12.2450 12.6550 12.5363 12.2587 12.2638 11.3591 11.5497 13.0413 14.3906 15.3172 14.1044 14.4772 14.3206 13.9038 13.7844 14.4244 15.3216 13.0878 9.4531 8.1609 8.1391 8.1000 7.8956 8.6241 9.6019 9.2625 8.8013 8.7106 9.9975 10.0309 9.3406 7.7059 7.4319 8.5775 9.7244 9.5497 9.5850 10.0050 9.5466 9.1684 9.9766 9.9475 8.6947 8.1706 8.6369 9.2841 8.9187 10.2016 10.4306 8.3806 8.0422 8.6609 8.5691 8.2978 8.1594
11.9809 11.6850 11.3475 10.9187 10.6897 11.8713 13.2119 13.5456 12.9062 12.8438 13.1362 12.9850 13.2075 13.9331 14.5906 13.9372 13.8056 13.0753 12.6462 12.5116 11.9537 11.1853 11.5725 12.3919 13.2322 13.7378 14.5178 15.1388 15.1800 14.3284 14.1444 14.9122 14.1475 12.9869 12.8959 13.2428 13.3591 13.8678 16.1125 10.4503 8.0000 8.0034 8.0056 8.0000 8.0000 8.0000 8.0000 8.0000 8.0000 8.0000 8.0000 8.0000 8.0000 8.0000 8.0016 8.0763 8.2937 8.5431 8.7925 9.0419 9.2919 9.5413 9.8131 10.4950 10.6300 10.9828 11.3356 11.6881 12.0328 12.2769 12.4853 12.6944 12.9028 13.1116 13.3178 13.4009 13.4106 13.4209 13.4547 14.1575 15.2375 16.3166 16.5044 15.9041 15.3034 14.7028 14.1022 13.5016 12.9016 12.3309 14.4541 18.1216 17.3831 15.6928 17.4659 20.9534 20.3691 19.8044 19.2697 17.7188 15.8281 15.7084 15.3016 15.9206 16.6338 17.5134 17.9534 20.6919 22.8347 22.7181 20.4459 16.5953 12.0706 5.1991 5.0041 5.8478 7.5550 8.8747 9.5878 10.1197 11.8553 13.2194 14.5831 15.0178 14.2641 13.6713 13.0653 11.3588 8.9297 8.9481 9.3150 9.6797 10.0444 10.4087 10.7747 11.1406 11.5053 11.8697 12.2344 12.6012 12.9663 13.3219 14.1031 15.0262 15.8275 15.0069 14.2622 13.3456 12.6466 13.0769 13.5391 13.4994 14.0509 12.3959 11.9756 11.7109 11.4513 11.6341 12.4691 13.2013 12.4481 11.2891 11.9069 12.1947 12.6159 13.3556 12.1938 11.6222 11.8469 11.1922 12.6100 13.6131 13.0244 13.6213 13.2775 14.1153 13.9878 13.3856 13.1713 13.5588 13.6141 10.9563 9.3466 8.8897 8.6419 7.6478 8.2778 8.8938 9.2509 8.8341 8.6528 8.9153 9.9312 9.9053 9.6906 8.8519 8.0572 8.9969 9.1678 8.4441 8.4362 9.8381 10.3237 9.5194 8.8725 8.8778 8.7503 8.6491 9.0428 8.4703 6.3450 6.7478 8.5337 7.3881 7.8066 8.4872 8.5625 8.2919 8.1297
13.0941 12.9712 12.7381 12.4875 11.9344 11.8691 12.7684 13.7941 13.1741 11.9941 12.6472 12.6119 13.5781 14.6534 15.2281 15.1500 14.9559 14.1666 14.4659 15.7656 15.5803 12.0178 11.8912 12.9003 13.8981 13.6972 14.2319 15.2650 15.3869 14.7709 14.7963 15.4572 14.4256 12.9272 13.1541 13.1850 14.1828 16.5238 17.5672 13.4656 8.4550 8.9419 8.9056 8.3175 8.0347 8.0000 8.0000 8.0000 8.0000 8.0000 8.0000 8.0000 8.0000 8.0172 8.1628 8.4066 8.6566 8.9059 9.1556 9.4050 9.6544 9.9041 10.2734 10.9344 11.0500 11.4016 11.7544 12.1062 12.4591 12.7812 13.0006 13.2091 13.4181 13.6269 13.8328 13.9116 13.9228 13.9331 14.1581 15.1556 16.2350 17.2834 17.2303 16.6297 16.0294 15.4284 14.8281 14.2275 13.6266 13.0266 13.0009 16.2188 15.9581 14.6653 17.2094 18.5556 18.9091 18.6963 18.1491 16.9447 15.6734 16.7056 16.9294 16.7822 17.1125 15.5487 16.3828 18.8137 19.2722 19.0509 19.1253 18.5244 14.7837 7.0256 5.1091 5.0988 6.4906 8.6172 9.4341 10.3066 13.0400 14.4038 15.3575 14.5653 13.8753 13.2828 12.6919 12.1003 10.9619 8.5959 8.3647 8.7291 9.0938 9.4591 9.8253 10.1900 10.5547 10.9194 11.2853 11.6509 11.9675 12.5863 13.5097 14.4331 15.1822 14.6697 14.3169 13.9678 13.7303 14.7612 14.5303 13.2797 13.2238 13.2350 12.7338 12.1366 11.4781 11.2172 11.7087 12.6669 13.0169 11.7091 12.0756 12.4200 12.8750 12.7181 11.4003 11.1197 11.9609 12.1934 12.0969 11.6025 11.2963 12.0928 12.3394 12.5297 13.4103 12.1378 13.5778 14.7328 13.4784 11.1503 10.5131 10.4663 9.0856 8.5763 8.5344 8.9878 8.9022 8.7781 8.8056 9.1516 9.8134 9.7659 9.8406 10.1597 10.1294 9.9031 9.6316 9.3044 8.7209 8.0816 9.5503 10.4228 9.6981 9.2222 9.1666 8.3400 8.3500 7.2919 6.3069 5.4659 6.5647 6.9469 7.5716 8.2634 8.5538 8.2884 8.1250
13.1613 13.3172 13.3003 13.0631 12.8813 12.6991 12.7569 13.3244 12.4872 11.8737 12.1534 12.7484 13.8188 14.8478 15.8722 16.2131 15.5022 14.5009 15.8737 17.6437 17.5903 13.9703 13.4019 13.5797 13.8800 13.5678 12.1378 12.1753 13.3009 13.9484 14.3625 14.3494 13.5841 13.6709 14.4256 13.7875 14.1250 14.4991 14.8622 13.3503 10.0694 11.0297 10.6687 9.7109 8.8572 8.3544 8.2300 8.3028 8.3084 8.3141 8.2475 8.1372 8.1116 8.3050 8.5203 8.7697 9.0191 9.2684 9.5184 9.7678 10.0175 10.2669 10.8103 11.3466 11.4672 11.8203 12.1728 12.5253 12.8781 13.2309 13.5147 13.7244 13.9331 14.1416 14.3472 14.4244 14.4341 14.4541 15.0744 16.1531 17.2331 18.2069 17.9562 17.3553 16.7547 16.1544 15.5534 14.9531 14.3525 13.7516 13.1438 14.3162 14.6191 15.1259 16.4528 16.7666 16.7156 16.7719 16.8134 16.3125 16.8816 18.9600 18.5997 17.0475 17.4500 15.8816 16.8625 19.2650 19.2213 18.5697 17.8662 19.1478 16.3662 12.7891 6.0472 5.0056 5.1638 7.4881 9.4394 10.4825 14.1569 15.4906 15.0550 14.1244 13.4878 12.8966 12.3044 11.7116 11.1200 10.3344 8.2816 7.7787 8.1431 8.5097 8.8750 9.2397 9.6041 9.9691 10.3359 10.6575 11.0897 11.9928 12.9163 13.8397 14.5831 14.1794 13.9597 13.5194 13.4444 14.9263 13.5050 11.9359 11.6806 12.2650 12.6775 11.8631 11.7250 12.3850 12.5716 12.1388 12.6241 12.1650 12.4728 12.6503 12.9259 11.4900 9.8813 10.8062 11.4722 12.1906 12.6969 12.0116 11.6778 12.4747 11.9650 11.3975 12.3519 12.4163 14.4838 15.4456 12.5519 10.8081 10.1050 9.5950 8.9519 8.2841 7.9428 9.0366 8.9209 8.8466 9.0487 9.4191 9.8269 9.6675 9.7394 9.4947 9.5206 9.7253 9.8194 9.7966 8.2509 6.8137 7.8191 10.5247 11.4278 10.8813 10.2619 8.9172 7.8303 7.8869 7.5100 6.4509 7.8922 8.4925 7.7753 8.0281 8.5025 8.2816 8.1187
13.1831 13.3881 13.4738 13.7344 14.0447 14.0819 13.8947 12.8038 12.4397 13.6084 13.2997 12.9681 13.3287 14.2509 15.8106 16.1122 15.5203 13.6941 12.4978 13.0153 14.2356 14.6947 14.4378 14.3175 13.9134 12.6866 11.5125 11.0947 12.6091 14.3834 14.0969 13.5191 13.7053 15.5634 15.5569 14.1731 14.6750 15.2016 14.1422 12.0503 12.1462 12.8772 11.8784 10.3178 10.0437 10.1572 9.9453 9.9403 9.9044 9.5653 9.0934 8.9903 8.9312 9.1484 8.8912 9.1325 9.3822 9.6316 9.8809 10.1306 10.3800 10.6300 11.4231 11.7028 11.8859 12.2391 12.5906 12.9425 13.2953 13.6488 13.9944 14.2397 14.4484 14.6569 14.8616 14.9350 14.9459 15.1159 16.0716 17.1516 18.2306 19.0872 18.6812 18.0812 17.4803 16.8797 16.2794 15.6784 15.0781 14.4775 13.8766 13.4428 13.3672 14.6028 15.0159 15.4384 15.9166 16.0616 15.7288 15.6928 18.0984 19.9572 19.9584 17.4956 17.9137 20.4878 22.1450 20.4356 19.4797 18.6903 18.7172 19.0034 16.6409 15.2756 9.2547 5.1062 5.0000 5.8931 8.2344 10.5262 15.1459 15.6237 14.5122 13.7047 13.1009 12.5081 11.9163 11.3250 10.7338 10.1409 9.5125 7.9403 7.2025 7.5600 7.9244 8.2891 8.6538 9.0200 9.3628 9.6397 10.4766 11.4000 12.3231 13.3431 14.4431 14.3366 13.5241 12.8269 12.9106 13.8609 13.5938 12.2131 11.5372 11.5169 12.5056 13.1106 14.2106 14.4106 14.1419 13.6450 13.3363 12.8959 12.6597 13.3819 12.9775 9.9903 9.2519 10.4359 11.3091 12.2759 13.3897 13.7422 12.4987 12.0422 11.3072 11.2984 12.5381 13.8059 15.0066 16.3153 12.9434 10.7666 9.7837 9.3409 9.9688 9.0103 7.8997 9.5459 9.3416 8.9844 9.2913 9.4428 9.4578 9.1213 8.6481 8.2494 8.1825 8.4053 8.6878 9.8225 8.6309 7.0816 8.2522 11.3028 12.2288 10.7537 9.9741 9.3116 8.2459 8.5997 9.1259 10.3859 10.2609 10.3072 9.5531 8.7116 8.4669 8.2816 8.1219
13.6175 13.2575 13.2559 13.9738 14.2338 13.9462 13.2675 12.6459 13.3575 14.9747 14.1425 13.3169 13.6381 13.8891 15.3941 16.6106 15.4309 12.1072 10.8544 12.5334 14.1228 14.3384 14.6934 14.4859 13.6094 12.0747 11.7553 12.2103 14.5763 14.1834 13.5275 13.2563 15.0369 16.7481 16.4631 14.9631 15.1866 16.5963 15.1678 13.3622 12.3684 12.8766 12.1372 10.9266 11.2575 11.9300 11.7350 11.4381 10.8313 10.1825 10.0069 9.9434 9.9494 10.3631 9.7513 9.4950 9.7450 9.9944 10.2441 10.4934 10.7428 11.0259 12.0394 12.0469 12.3047 12.6575 13.0103 13.3625 13.7141 14.0669 14.4206 14.7437 14.9634 15.1725 15.3759 15.4472 15.4603 15.9944 17.0697 18.1491 19.2278 19.9228 19.4072 18.8062 18.2062 17.6053 17.0047 16.4047 15.8038 15.2031 14.4856 13.1378 12.1475 14.7309 15.5709 15.6313 15.6925 15.7853 15.9469 15.9497 17.4669 19.1384 20.3406 20.1244 21.4719 24.5037 25.1853 21.8541 19.8644 19.9950 19.6850 19.1334 19.0406 18.4541 15.6659 6.0897 5.0000 5.0081 5.1328 10.1575 15.6509 14.9909 14.0487 13.3056 12.7125 12.1213 11.5300 10.9375 10.3450 9.7534 9.1622 8.5700 7.4734 6.6500 6.9741 7.3384 7.7044 8.0622 8.2600 8.9603 9.8834 10.9028 12.1875 13.5856 14.1822 13.3059 12.4356 12.4113 12.5247 12.8669 14.0275 13.4934 12.9928 12.1912 13.9150 14.9341 15.1706 15.1353 15.3363 14.9472 14.2644 13.6850 12.4856 12.1706 11.7219 10.1488 9.7459 10.3622 12.0306 12.4572 12.2288 12.4397 12.2341 11.3766 11.2003 11.2747 12.3562 13.5378 14.2547 14.8228 13.3700 12.5959 11.8638 10.9913 10.2444 9.0141 8.0797 9.1106 10.5250 9.0219 9.0144 9.0228 9.1741 8.6559 7.4450 7.0175 6.8506 7.0675 7.8541 9.5875 9.3094 7.1691 7.5163 9.4141 11.7122 10.5037 9.7019 9.4528 8.6353 9.0256 9.4866 10.4334 10.5925 11.7262 10.6147 9.3100 8.3828 8.3653 8.2188
13.2216 12.8997 12.8453 12.4172 11.5981 11.2559 11.3775 11.2131 11.5731 12.2509 12.0494 12.6269 14.0328 15.1237 15.6997 16.5906 15.1822 11.1791 12.0844 14.0628 14.8509 13.5150 14.7419 13.9963 12.3287 11.5581 12.5813 15.6088 15.7256 13.5822 13.0278 14.1694 15.7172 17.0141 17.4859 16.3044 16.5769 18.2550 16.9891 14.3244 12.5678 11.5256 10.9947 11.4566 12.2522 13.0184 12.7375 12.0525 11.3659 10.9694 10.9628 10.8959 10.9916 11.4184 11.3950 10.1619 10.1075 10.3572 10.6066 10.8566 11.1059 11.4972 12.6031 12.4163 12.7234 13.0750 13.4272 13.7800 14.1328 14.4853 14.8381 15.1928 15.4775 15.6872 15.8906 15.9584 16.0825 16.9881 18.0672 19.1466 20.2259 20.7131 20.1328 19.5325 18.9316 18.3312 17.7306 17.1297 16.5050 15.4791 13.9003 13.6366 13.4425 14.5809 16.1588 16.2281 16.2884 16.3491 16.4434 16.5006 17.0828 18.3806 19.3391 20.0763 21.9662 22.5531 22.4447 21.6278 20.8328 20.4234 19.7669 18.9084 18.6950 19.3366 17.7034 7.6141 5.0947 5.0000 5.0156 8.3491 15.2712 13.3237 13.5950 12.9175 12.3263 11.7341 11.1412 10.5497 9.9584 9.3666 8.7741 8.1822 7.5909 6.8081 6.1206 6.3881 6.7531 6.9481 7.4469 8.4522 9.6838 11.0359 12.3391 13.3541 13.3003 12.5431 12.2150 12.3469 12.5037 12.3928 13.4712 13.6156 13.1047 12.9084 13.3391 14.7262 16.5647 16.9991 15.1722 12.7781 12.4691 13.5909 12.7288 11.9484 11.1112 10.7253 10.4937 11.3184 12.1322 12.3581 12.1694 11.1559 11.6097 11.7100 11.4797 11.2678 12.1641 13.2262 13.8387 13.1191 12.3912 12.9569 11.7953 11.4072 9.4753 8.5150 8.5850 8.7575 8.8359 8.6291 9.0206 9.2081 9.6247 9.5909 7.0581 5.8000 5.5356 5.9075 7.4369 9.2316 8.3700 6.8647 6.7253 5.0813 8.3125 10.3056 9.4450 9.3450 9.0262 9.4750 9.9222 10.0059 9.9891 11.4622 10.3334 8.8966 9.0094 8.7406 8.4844
12.8797 12.0831 10.9328 9.0194 9.1241 10.6059 11.1122 11.1041 11.3212 11.3588 11.8822 13.5897 15.2375 15.9609 15.8809 15.6038 14.4156 11.7853 13.3269 15.2444 14.9897 13.1838 12.8391 12.3044 11.8284 12.3822 14.1569 17.7450 16.8525 13.2809 13.3075 14.6784 15.9778 17.2784 18.2416 18.0897 17.8284 16.7709 15.6925 14.6800 14.5819 11.5722 10.3059 10.7669 12.7375 13.6109 13.2178 12.5856 12.0003 11.9150 11.9200 11.8434 12.0603 12.5053 12.8219 11.7897 10.6309 10.7200 10.9694 11.2191 11.4688 12.0466 13.1081 12.7841 13.1422 13.4950 13.8469 14.1984 14.5516 14.9031 15.2550 15.6100 15.9569 16.2025 16.4050 16.4706 16.9188 17.9856 19.0656 20.1444 21.2234 21.4594 20.8584 20.2578 19.6575 19.0566 18.4562 17.6488 16.3372 14.9641 15.0816 14.0884 15.3106 15.0763 16.5834 16.8234 16.8847 16.9716 17.1003 17.3697 16.9272 16.3841 16.8766 18.2819 21.3403 20.5328 19.4862 21.0181 21.0034 20.9719 19.9013 18.4266 18.1906 18.6603 18.0672 12.6509 6.1413 5.0000 5.0000 5.2488 10.7194 10.6412 13.0422 12.5306 11.9378 11.3456 10.7547 10.1631 9.5706 8.9784 8.3872 7.7956 7.2031 6.6106 5.9706 5.5291 5.6756 6.0212 7.1659 8.4750 9.7784 11.0825 12.3125 12.5516 12.3800 12.4169 12.6744 12.8056 12.8600 12.9725 13.4731 12.2322 11.6609 11.8588 12.7131 14.2547 15.6541 15.8506 14.0734 11.9325 11.7331 12.2231 12.5063 12.0594 12.9991 12.9878 11.8656 13.0975 12.4159 12.2409 12.9334 12.4934 12.3366 12.4919 10.2544 9.8284 11.5159 12.7050 13.4741 11.8912 11.9031 11.9694 9.9091 10.6441 10.0366 9.8356 9.0378 8.3775 7.3331 7.8825 9.5962 9.5831 10.2253 10.5294 8.2484 5.3875 4.2650 5.3131 7.2156 8.6475 7.4222 7.5784 8.7866 4.6697 4.5891 7.4916 9.0800 9.0191 9.4772 9.8291 9.3741 9.6128 9.5203 9.5147 9.8666 10.2816 9.9091 9.5294 9.2922
12.7125 10.6103 9.0413 8.8759 10.1687 11.7600 11.7200 11.8553 12.1228 12.0763 13.1234 14.4312 15.6519 15.6794 15.6144 14.0841 12.2509 11.3628 13.4788 16.2281 15.2781 12.7472 11.6375 10.8791 10.1350 12.3844 14.1284 17.1606 16.4556 13.2609 13.9756 15.2487 16.4794 17.7225 18.7059 18.3291 17.6022 16.9831 15.2584 14.6578 14.4894 11.4909 11.2859 12.2403 14.2931 14.5544 13.7144 13.1291 12.8678 12.8725 12.8756 12.8078 13.1353 13.5913 13.9606 13.6388 12.0791 11.1534 11.3325 11.5819 11.8322 12.6709 13.5562 13.1669 13.5594 13.9119 14.2647 14.6172 14.9703 15.3228 15.6750 16.0269 16.3825 16.7062 16.9200 17.0559 17.9044 18.9837 20.0631 21.1419 22.2000 22.1844 21.5844 20.9834 20.3828 19.7156 18.6125 17.1975 16.1056 16.7463 16.2488 16.8222 16.2094 16.3769 16.9575 17.4200 17.5184 17.6369 17.7775 17.6459 16.9584 15.2913 15.0981 15.4091 18.2578 19.7422 18.5934 19.2591 18.5275 21.5653 22.0084 19.1447 17.8006 17.1462 16.1287 14.1591 9.2669 5.1191 5.0000 5.0616 8.0300 9.8831 11.9312 12.0234 11.4338 10.8438 10.2534 9.6641 9.0728 8.4844 7.8922 7.3047 6.7122 6.1400 5.5872 5.1047 5.0025 5.7450 7.2063 8.5219 9.8253 11.1234 11.7781 11.7022 11.8287 12.2381 12.6525 12.8134 12.8216 12.8144 13.0025 12.2775 11.3416 12.1337 12.3084 12.8041 13.7397 13.9409 11.7784 12.8244 13.4781 13.7003 13.9184 13.4213 14.1991 14.2947 12.9834 13.4591 12.9087 12.6222 13.1241 13.2172 12.4528 10.9106 10.1247 10.7225 10.8944 11.0856 10.9838 10.5112 11.8194 11.9569 8.8606 9.5897 9.4288 8.7203 8.7481 7.0284 6.4625 7.5697 9.8500 10.1319 10.8044 10.3844 8.0303 5.3594 4.3341 5.4250 7.1181 7.6122 7.4012 9.2994 13.3509 10.5953 7.0406 7.7166 9.0575 8.7444 9.6838 9.0869 8.4881 9.0344 9.1019 9.8162 11.2591 11.8813 10.7041 9.9222 9.7203
10.6572 8.9844 7.7684 9.0394 10.0538 11.6531 11.9778 12.2619 12.6147 12.3622 12.9469 14.3419 15.2312 14.9516 14.8144 13.2175 11.7194 11.3497 14.9434 17.8325 16.2237 11.1334 10.9144 10.3631 10.3181 13.0087 14.3728 16.1984 16.7113 14.2384 14.9762 16.4172 17.6488 18.5578 18.4216 17.2844 16.5328 16.0056 16.2203 16.8050 15.1538 12.5337 12.6178 13.9747 16.0284 16.1269 15.0037 14.1791 13.9156 13.8425 13.8325 13.7972 14.2109 14.6763 15.0456 15.2200 13.9550 12.3850 11.7181 11.9450 12.2400 13.3309 13.9466 13.5594 13.9797 14.3313 14.6831 15.0359 15.3875 15.7397 16.0925 16.4453 16.7987 17.1541 17.4325 17.8500 18.9022 19.9813 21.0606 22.1400 23.1316 22.9103 22.3094 21.6994 20.8159 19.4862 18.0803 17.2428 18.4122 18.2812 18.9228 19.9553 19.7578 18.7416 18.2019 17.9594 17.9806 18.0884 17.8697 17.5841 17.2959 15.5841 15.3291 16.2728 17.2606 19.2375 19.0834 18.2366 15.6247 18.4613 21.7337 19.2903 16.5713 15.6834 14.5887 13.7203 12.2181 7.8722 5.2969 5.0413 5.6159 7.1950 11.5484 11.6187 10.8116 10.2188 9.6306 9.0391 8.4500 7.8706 7.3159 6.7844 6.2766 5.7775 5.2797 5.0047 5.0000 5.2272 6.7491 8.4187 9.8647 10.9169 11.0763 11.2519 11.4419 11.8216 12.1091 12.3781 12.5641 12.5544 12.6019 12.9075 13.1181 13.8300 13.8066 12.2850 13.5959 13.0381 11.7141 12.9081 14.0697 14.8350 15.0441 15.1003 14.2537 13.0928 11.8675 11.7256 11.4981 11.4825 11.4672 11.4644 11.4578 11.7741 11.9119 11.7628 10.4728 9.0359 8.5897 9.3103 10.5975 11.6309 11.0769 10.9947 9.7712 8.6031 8.9712 8.1653 6.2459 6.8034 8.0691 10.0562 10.7800 8.6409 6.6059 6.2825 6.1416 6.8009 7.8337 7.3581 7.8456 11.0578 12.1313 11.0837 9.0319 7.9862 7.9356 8.2325 9.6475 8.6272 8.3313 9.2356 9.7250 10.2744 11.8625 12.3050 10.8125 9.8600 9.6812
8.8831 7.8019 7.8009 9.0700 10.0297 11.9056 12.3438 12.6450 12.8828 12.8828 13.5656 14.6994 15.6700 15.4747 13.7928 12.6972 11.7388 12.4216 16.9656 19.4009 18.2806 12.3216 11.2053 11.9747 12.9909 14.2681 14.0706 15.6391 17.3928 15.5625 15.9781 17.2644 18.2038 18.6900 17.7000 16.4706 15.7469 14.4544 14.7547 16.0116 15.7800 14.9084 14.3022 13.9675 15.1341 16.8300 16.6447 16.4403 15.5572 14.9728 14.4288 15.2847 15.6778 15.7984 16.1353 16.4922 15.8269 14.2406 12.7197 12.3109 12.7241 13.9903 14.2797 13.9609 14.3969 14.7494 15.1019 15.4547 15.8075 16.1594 16.5109 16.8641 17.2172 17.7659 18.9572 19.0941 19.9016 20.9797 22.0584 23.1375 24.0184 23.6362 22.9231 21.7634 20.3631 18.9616 18.5678 20.1431 20.4903 20.6125 19.7547 19.0206 19.2228 18.4803 18.6947 18.8194 18.7491 18.4453 18.1344 18.1522 17.4194 15.6622 15.8275 16.9547 17.1838 18.3219 20.1941 20.4697 17.2266 17.2547 18.8719 18.0531 15.6766 15.3259 15.7722 15.4344 13.9256 11.8509 6.8547 5.0000 5.0066 6.9044 11.8903 11.9919 10.1875 9.6022 9.0453 8.5084 7.9966 7.4972 6.9984 6.5003 6.0016 5.5028 5.0691 5.0000 5.0000 5.0103 5.9947 7.8028 9.5956 10.3884 10.5178 10.6372 10.9703 11.3203 11.5938 11.8631 12.1325 12.3138 12.3281 12.4047 12.8169 13.4187 13.7525 13.0600 14.6084 13.5913 12.7250 13.3075 13.6066 13.4872 13.0422 13.2497 12.5606 11.9125 10.7409 9.8912 10.6650 10.7875 10.8131 11.1831 11.5363 11.5803 11.9900 11.5634 10.5538 9.1575 8.7906 8.7297 9.1303 9.9309 10.9969 10.9762 10.3922 9.8444 9.9834 10.3891 10.6503 9.3472 8.6713 10.4822 10.8769 8.2350 8.4053 8.0803 8.0144 8.3994 8.4891 7.6925 7.5441 9.8084 8.8903 7.8994 6.8178 6.5456 6.1756 6.9931 8.5387 9.5550 9.9997 9.7622 9.9722 10.0725 10.3969 10.6838 10.0997 9.8006 9.6906
8.7369 7.7050 8.1838 8.5181 9.6466 12.2081 12.7141 13.0178 13.3781 13.4847 14.5034 15.8116 16.8947 15.9891 13.3094 12.5566 14.0219 15.5128 16.9088 18.3819 18.0391 16.1456 14.8538 15.0078 15.5763 16.7213 15.8278 16.4366 17.2372 16.7734 16.0450 16.3175 16.7359 16.9922 15.9419 16.1222 14.6928 13.4178 12.6969 13.8047 15.1466 14.8687 14.0122 12.9062 13.9250 16.9803 17.7656 16.7847 15.7362 13.2991 13.4031 16.5731 18.9491 17.3494 16.8687 17.2953 17.3478 15.5147 13.9275 12.9797 13.2834 14.6244 14.5844 14.3778 14.8156 15.1678 15.5203 15.8719 16.1834 16.4178 16.6269 17.6728 18.5088 18.1884 19.9538 21.1750 22.0091 22.7556 23.3881 24.1838 24.8366 23.9909 22.6462 21.2456 19.8538 19.8234 21.7653 21.5166 20.3878 19.0084 18.2581 19.2288 19.1481 18.3084 19.3078 19.9066 18.8037 18.7359 18.5566 18.6116 17.5459 15.5669 16.2341 16.9513 16.9688 18.8700 20.2319 20.3591 18.9509 18.2522 18.3388 17.6316 15.7534 15.4734 16.3600 16.8294 14.9825 13.3366 8.7953 5.0744 5.0000 5.8084 9.2934 10.3847 9.4097 9.5300 8.8531 8.2500 7.7219 7.2228 6.7238 6.2250 5.7263 5.2322 5.0016 5.0000 5.0000 5.0000 5.4128 7.2600 8.6447 9.3813 9.9503 10.0566 9.7906 9.9706 10.4656 10.9744 11.3931 11.8038 12.1006 13.1044 13.7319 13.0441 12.3900 12.3072 13.7406 13.8641 12.3562 11.9966 12.2731 12.1472 11.9038 11.5756 11.7572 11.1706 9.5837 8.5484 9.6822 10.9222 11.6194 12.8278 12.8575 11.4050 11.7391 11.6631 10.6066 9.7863 9.4656 8.8559 9.6644 9.8200 9.5547 9.7238 11.3359 11.2419 10.7103 10.4059 11.5181 11.7506 10.4137 10.2984 10.0309 9.1841 10.1781 9.7669 9.9384 9.3528 8.8519 8.3912 8.2519 9.2281 8.4128 6.7125 5.7431 4.2769 4.5800 5.7916 7.0959 8.6091 10.4478 10.3300 9.8984 10.6578 11.1488 10.8934 10.2766 9.7109 9.6078
8.8731 7.8859 8.1141 8.2609 8.2981 11.0247 12.8591 14.2459 15.1003 13.8766 14.7947 15.8394 16.7816 15.8972 13.6831 14.5222 15.9522 15.7053 15.2475 16.0506 17.1637 17.0688 17.1147 17.6922 16.1484 15.7950 14.5622 15.8566 15.9616 15.4719 15.0816 14.5603 15.1187 14.5553 13.6350 13.8050 13.2003 12.5291 11.2216 11.9522 14.3969 15.3866 14.4187 13.4334 14.2553 15.9956 16.9122 17.0966 15.4778 14.0281 12.4622 14.4947 18.0216 18.1850 17.7906 17.9997 18.8631 16.9334 14.1675 13.0250 13.9347 14.9734 14.8737 14.7875 15.1431 15.3384 15.4584 15.5006 15.5837 16.8103 19.4947 20.5134 19.8272 19.1588 18.6794 20.0497 20.2353 21.9037 23.8662 25.2738 23.8453 20.5453 18.7584 18.7925 18.9228 20.8284 21.1588 20.2663 19.0138 18.4600 20.0441 20.5453 18.8416 18.3956 20.2563 19.8428 18.6169 18.7072 19.3972 18.5509 18.0212 16.5450 17.4178 18.0487 18.4456 20.8381 20.1359 18.7959 18.7556 19.5009 18.4722 17.8578 17.0484 16.5191 16.1969 16.9188 16.1747 12.5797 7.0159 5.0544 5.0000 5.0000 5.0706 6.0856 7.4875 9.6269 10.0975 9.2478 8.3700 7.5381 6.7797 6.0959 5.4872 5.0462 5.0000 5.0000 5.0000 5.0000 5.1919 6.5581 7.3688 8.0906 8.8109 9.4972 9.8141 10.4078 11.2572 11.9650 12.3769 12.7178 12.9853 13.9422 13.9028 13.1100 12.4178 12.0334 13.0084 12.6362 10.5800 10.2725 10.5778 10.6916 10.9622 10.8809 10.7203 10.5331 9.4941 8.6812 9.1972 10.3828 11.5984 12.3366 12.7047 10.9678 11.1403 11.7494 10.8125 10.1206 9.0837 8.7028 10.6666 10.1156 8.7184 7.0506 7.8966 9.4644 9.8844 9.0669 10.8800 10.9916 9.8297 8.8363 8.8422 9.7603 9.9628 10.1894 10.3106 9.2712 8.1291 8.3566 9.1569 8.6613 7.8575 7.3978 6.2966 4.6869 4.0959 5.2747 6.8269 9.1125 10.2116 10.1009 10.2087 11.5712 12.8663 13.0347 11.2413 9.8456 9.8484
8.8138 7.8934 8.5366 9.1750 9.3053 10.1494 11.5019 13.0681 14.7294 13.3844 14.2984 15.4312 16.5609 15.9806 14.8663 16.0362 16.0766 15.7966 13.7084 12.8397 14.7656 16.4134 15.4153 15.5625 15.2703 14.6962 14.2550 14.6581 14.6494 14.0916 13.6366 13.7338 14.7075 14.3234 12.3041 11.5553 12.3716 11.5334 10.2309 11.2413 13.9762 15.9691 14.6022 13.2338 14.2563 14.8153 15.9012 17.5644 16.7337 15.8112 13.8428 14.5731 15.6456 16.5850 16.3797 17.3200 18.7406 18.0547 15.5425 14.9328 14.3919 14.0278 14.4513 14.8650 14.6884 14.4034 14.4297 15.8256 18.9263 22.0844 22.4900 21.6472 21.0312 20.4759 19.2178 19.0703 19.0516 19.2966 21.9072 23.8706 21.9872 19.4953 17.5547 18.1856 17.6347 18.2894 18.1103 18.3459 18.4553 20.7156 21.6769 20.1916 17.8297 17.9969 19.5413 18.7391 18.5825 19.5637 19.4737 18.5263 20.1316 18.7741 19.1550 20.5569 20.6275 21.2488 19.9572 19.2938 20.1472 21.1444 20.0116 18.6916 17.2050 17.0834 17.9269 18.6147 17.3703 13.4941 10.2169 6.4203 5.0000 5.0000 5.0000 5.1100 6.2300 8.0647 10.0222 10.7906 10.0206 9.1434 8.3206 7.9256 8.6581 5.5744 5.0000 5.0000 5.0000 5.0000 5.0741 6.1216 7.0234 7.9372 8.8591 9.8156 10.7863 11.6044 12.3184 13.0172 13.8334 14.4438 14.0894 12.7516 11.7859 12.6187 12.8088 11.8219 11.5450 10.7463 8.7544 8.4491 8.8212 9.1447 9.5463 10.0584 10.0119 9.9416 9.6378 9.2872 9.3425 10.2178 11.5250 11.3112 12.3544 11.3791 11.5884 11.9719 10.8787 9.8763 7.8819 9.3391 11.5191 10.2047 8.3347 6.3931 3.9384 6.0988 7.5447 7.8263 10.2659 9.6856 8.6544 8.3166 9.0347 9.5756 9.9062 9.6206 9.8900 8.2863 7.7516 7.4306 9.1794 7.9300 7.6741 7.3719 6.3612 5.2359 4.5216 5.3684 7.1575 8.9916 9.6581 9.7878 10.9775 11.3444 11.8003 12.0238 10.7334 9.5150 9.3594
8.8872 7.8187 8.9347 9.4544 9.9016 11.6512 13.1344 14.1284 14.4400 13.5028 13.5828 14.5281 15.2288 14.5969 14.8875 15.9556 16.6647 16.9100 13.3550 12.7966 15.1169 16.3753 13.9937 13.2609 14.6834 14.2359 14.2238 14.3088 15.1663 14.4475 13.6822 13.8763 14.9772 14.6781 12.5125 12.4334 11.9972 11.0897 10.0387 10.6369 12.3931 13.6744 13.0216 12.6347 13.3938 13.1509 15.1997 16.7531 17.2081 16.9159 16.3494 15.8763 15.8956 15.9216 15.5794 15.5684 15.6938 17.0034 16.6972 16.2303 15.6500 13.8719 13.6066 14.5547 14.9572 14.0416 14.2259 19.5606 24.3791 24.4222 23.5416 22.7894 22.2422 21.6953 20.7859 19.2256 18.8622 18.7944 21.2931 23.3172 22.0906 17.6637 17.3194 18.4866 17.1172 17.2325 17.7169 18.8547 18.9303 20.5169 20.8709 18.9050 16.3728 16.5534 17.0344 17.3603 19.1594 19.8881 19.4434 20.7584 22.4641 21.6725 21.7031 22.2512 20.9966 18.8622 18.0438 18.9278 19.6891 19.6269 19.2978 18.3403 17.0319 17.0372 17.9403 19.2106 19.2450 16.6469 13.5925 9.6234 5.4856 5.0000 5.0000 5.0000 5.2450 6.8181 8.6938 10.5672 11.5247 11.2016 11.0950 10.5266 8.6531 5.6647 5.0000 5.0000 5.0000 5.0000 5.0000 7.1559 8.9234 9.8859 10.8469 11.8159 12.8078 13.6266 14.2669 14.4981 14.2372 13.6606 13.0359 12.4031 11.2000 11.8512 12.2934 11.3472 10.5466 9.8209 8.2769 7.3000 7.3769 8.0859 8.9672 10.0169 10.2291 9.8919 8.8975 9.0941 9.0706 9.8844 10.7484 10.8544 11.7712 11.4606 12.3725 12.6047 11.2388 9.8478 7.1950 9.6812 12.0419 10.4872 8.3959 7.2853 7.6800 8.8206 8.0756 7.9775 9.3300 8.4913 7.8597 8.2628 8.6494 9.2134 9.8916 10.0059 9.8916 8.6538 8.7491 10.8172 10.3263 7.7281 7.7319 7.4628 6.5272 6.3581 6.5259 5.7056 6.3031 6.6359 7.8541 8.7353 9.9544 9.9378 9.9597 9.6109 8.7697 8.3494 8.7141
9.0244 7.5947 9.2125 9.2103 9.3144 12.1209 14.9566 16.8106 16.2966 14.5072 13.5447 12.9000 12.8409 13.1544 13.2125 14.0584 15.1581 15.2537 12.7406 12.7137 15.4941 16.2369 14.2762 12.8728 12.3044 11.7356 12.7609 13.8178 15.2353 14.8441 14.3691 14.3481 14.3050 13.5784 12.9644 13.6669 13.0931 11.5550 11.0753 12.1153 12.1722 12.1066 12.4853 12.7503 12.5634 12.1584 14.6803 15.4650 15.2284 13.8641 14.2034 16.8109 17.0575 16.1297 17.1466 16.3116 14.7037 15.7884 16.2341 15.0228 16.0366 14.9894 14.3675 14.7691 14.1828 14.3909 15.1116 20.7725 24.4237 25.1056 24.6072 23.9925 23.4531 22.9062 22.2456 22.0091 22.5569 21.0844 21.7731 24.6081 20.9081 15.2806 16.1506 19.2541 20.6553 19.3969 19.4369 18.7244 17.9491 20.1313 19.3719 17.6700 16.4300 16.4984 15.3391 14.3244 18.4963 18.4075 18.5353 21.2553 23.0406 23.0806 21.9206 20.8016 21.0184 19.0541 18.5641 18.6928 17.3569 17.4416 18.9312 19.8544 19.7306 18.7909 17.7869 18.1875 19.0659 18.8716 16.6622 13.3744 8.0606 5.0441 5.0000 5.0000 5.0184 5.8416 7.5731 9.7587 11.9253 11.4647 10.8453 8.9503 7.1950 6.0197 5.3297 5.0269 5.0000 5.0000 5.0000 6.1950 10.9050 11.8781 12.8456 13.8222 14.3322 14.2272 13.7594 13.2825 12.9012 12.5425 12.0425 12.9100 12.1731 11.0894 11.3291 11.1366 10.2506 9.9809 9.1684 8.6759 7.9316 8.1491 8.9828 10.0212 11.0303 10.9775 9.8884 9.4200 8.9941 9.4059 9.2972 9.5688 9.5897 7.3419 10.3616 12.1659 11.9919 10.6022 8.4378 8.8266 11.1378 11.2278 10.5056 10.6897 10.0816 10.3556 9.0656 7.8797 8.4475 7.4756 7.3903 7.7206 8.2872 8.8528 9.4106 10.3134 9.6309 8.6625 8.0225 8.9788 10.9175 8.8650 8.6891 9.3022 8.4631 9.1753 8.7119 7.5691 6.4628 6.9719 7.5147 8.0247 8.2947 8.4203 8.5466 8.6728 8.6138 8.3022 8.1828
8.9637 7.6712 9.6613 8.4856 8.3806 10.7900 13.8988 16.3359 15.7884 14.4103 12.2397 10.3297 11.1709 11.9425 12.1994 12.0562 12.1875 11.9278 11.4119 11.9781 14.5063 16.6553 15.1397 13.5053 13.0947 13.3425 13.7450 13.5625 13.4153 13.4853 13.0894 13.1056 13.3794 13.0169 13.5828 14.0109 13.4394 12.3975 12.6169 13.6359 13.5666 13.1309 13.0662 13.8538 12.9966 12.6675 13.3438 13.0397 12.4759 12.9675 14.7919 17.4988 16.3862 16.0122 17.7000 18.4581 16.9178 15.2181 14.1778 13.3472 15.1794 14.9106 15.4025 16.0884 15.3269 17.0147 19.0716 20.5812 21.1497 22.5775 24.9897 24.1616 22.8119 21.9275 21.6678 22.8966 23.4963 23.4312 22.9125 22.1269 18.5669 14.4644 15.5900 18.6388 20.4141 18.7944 17.9400 17.6972 17.4528 18.2034 18.2828 18.1566 18.7900 17.7341 15.6156 15.4187 17.0697 16.7609 17.1519 19.7987 21.4466 22.2703 20.6447 17.7059 18.5753 19.0003 18.0097 17.7875 17.4159 17.7997 19.4203 20.8641 20.9984 20.2875 18.9828 18.8772 18.2541 18.7550 18.6531 16.5103 13.0162 7.0116 5.0000 5.0000 5.0000 5.2953 7.0388 10.6831 11.0897 10.8441 10.8531 9.8100 8.7169 7.5959 6.8016 6.0072 5.3341 5.0281 5.0000 5.0094 10.8787 13.8056 14.2106 14.1184 14.2434 14.2303 13.9628 13.7013 13.4281 13.0312 12.4128 12.4462 11.9475 10.0675 11.7431 11.3559 9.7041 9.5109 10.3756 10.1547 8.5612 8.4334 9.0816 10.0188 10.7525 10.6069 10.8397 10.4997 9.7991 9.6347 9.3100 9.2256 9.1200 6.7084 8.9294 11.1984 11.3959 10.8744 9.2031 9.2625 9.6309 10.3672 10.3675 9.7331 8.1853 8.2153 8.8497 7.8016 7.0616 6.5378 6.8722 7.4441 8.0284 8.6216 9.2278 9.6050 8.6509 8.7203 7.7431 7.7428 9.7238 9.6434 9.8903 10.4716 10.4628 11.1731 10.3806 8.0950 6.6466 6.3281 6.5441 7.9044 8.0872 8.1803 8.2728 8.3806 8.8109 9.5984 9.6297
9.4141 7.9284 10.0138 9.6687 8.8994 10.3616 13.1066 14.4744 13.1512 12.3322 12.1475 11.8372 11.2556 11.6737 11.9934 10.5119 9.5531 9.6928 11.9950 12.5322 13.8866 14.9775 14.7113 13.6572 14.8962 13.4553 12.5484 12.0997 11.2494 11.3069 10.8072 11.6775 12.6241 13.7491 14.4700 14.5497 13.8284 13.3697 14.0159 14.1944 13.7712 12.6881 13.2047 14.7503 13.2666 12.5775 12.4603 11.2362 10.4147 12.1800 12.8956 13.0831 14.0575 15.2606 17.2013 17.7875 16.2044 14.1803 13.4966 13.4650 13.6522 13.8244 15.5562 16.7412 17.1406 18.9447 20.1434 18.8556 18.9297 19.7469 22.3928 25.3288 22.3369 19.4097 21.9175 22.2072 22.8644 24.2297 24.0000 21.8428 18.0034 14.1900 15.8234 18.5447 19.4584 17.4894 16.4828 17.4156 18.3650 18.5222 18.4119 18.6675 19.7650 17.6531 16.4619 16.9128 16.1303 16.4684 17.4266 17.8909 17.9950 19.6919 19.1903 16.2994 16.1100 17.0119 17.1459 17.7678 18.8341 18.0503 17.5069 17.7838 19.8128 20.7031 20.0694 19.4203 18.7469 18.8034 18.8213 18.0888 16.3166 11.2194 5.9825 5.0147 5.0000 5.1966 6.3769 9.1644 9.3866 10.1444 12.5622 11.5484 10.1903 9.1900 8.3959 7.6016 6.8072 6.0134 5.3381 5.0291 8.3247 13.8606 15.2647 16.2288 17.3631 17.2109 16.6275 16.3831 15.5597 13.8722 14.4678 13.4797 10.1569 9.6075 12.2675 11.8675 9.7219 9.7463 10.3459 9.9881 9.2031 8.8684 9.4506 9.8847 10.2900 10.7303 10.6072 10.3872 10.1334 9.7972 9.4734 9.2619 9.2444 7.6359 8.4722 10.2809 11.0887 10.4747 9.1691 8.9663 8.7175 7.9172 5.5475 4.1413 4.6694 5.5281 7.3406 7.8897 8.3962 9.1112 9.1584 9.3853 9.6453 10.0009 10.3837 10.0728 9.0994 9.1041 8.7050 8.8175 9.4669 9.5734 9.2528 10.4666 10.0428 9.5422 9.1981 7.9041 5.0075 4.9262 6.0772 8.1359 8.0775 8.1706 8.2881 8.6872 9.3566 9.9922 10.0813
9.8888 8.3797 9.3422 10.1112 11.3691 10.7712 12.2922 12.0025 11.5962 11.9062 12.0553 12.1400 12.4631 12.3603 12.0737 9.9081 8.5106 8.7819 11.5372 12.5781 13.9231 13.7841 13.1725 12.6684 14.0106 13.5650 11.2925 10.6719 11.1531 12.7784 14.0734 14.1656 13.7853 14.2481 14.6119 13.8544 13.9550 14.0856 14.3844 13.6234 13.1538 12.9144 13.0616 13.6337 12.4462 12.3269 12.5844 12.7572 12.4619 12.4225 10.9478 10.9444 12.6250 14.3909 16.3947 16.4119 15.1975 13.0700 12.3403 12.6747 13.0409 13.3006 13.8188 13.7722 16.1319 19.5800 19.4628 16.6103 17.0478 18.3497 18.6909 19.9700 18.7825 18.0725 22.1003 22.0781 22.2106 23.2672 22.9869 20.6628 17.2716 13.4062 15.2975 18.2850 19.0709 16.4634 15.8134 17.6441 19.1794 19.5659 19.4500 18.4069 18.5925 17.0025 16.1591 15.4228 15.7684 17.5491 17.8434 18.1719 18.8616 21.1009 20.0784 17.2847 17.6444 17.9069 17.7434 18.2309 18.6006 18.3738 18.7663 18.2556 20.4662 22.3144 22.5050 21.5256 19.7356 18.6484 18.2222 17.9397 16.5597 13.6334 9.2825 7.0144 5.0972 5.4028 5.8747 6.7137 7.6638 10.7481 14.3028 13.1778 11.6069 10.7844 9.9900 9.1959 8.4016 7.6072 6.6025 5.4772 5.5406 9.4081 14.4616 17.4831 18.4900 19.1178 19.2581 18.0387 15.3597 15.2247 16.0916 13.5694 10.8503 11.7622 13.2341 12.7312 11.0712 10.7416 10.5028 11.1528 10.5341 9.6472 9.9647 10.3984 10.4884 10.5672 10.2963 9.8253 9.2425 9.0688 9.2481 9.3716 9.4206 8.6984 8.7487 9.8047 10.8519 10.3687 9.4475 8.8819 7.6350 6.0697 4.6472 3.9441 4.4138 6.5159 7.5378 8.5603 10.9716 12.7587 12.2397 11.7900 11.3584 10.9587 10.6541 10.2216 8.6166 9.0712 9.4062 9.5416 9.9028 9.2656 8.8500 10.4634 10.1872 9.8228 10.3750 9.1394 6.4634 4.9428 6.5425 8.2900 8.0688 8.1959 8.6072 9.2294 10.0966 10.6825 10.8844
10.2466 8.7369 8.5147 9.7653 12.2788 11.5650 10.9200 10.9541 11.3109 11.6344 11.9072 11.9703 12.3772 12.8372 13.1538 11.9163 9.5731 9.3337 11.5006 12.6059 14.3522 15.9888 14.7063 13.1444 12.0422 13.1722 12.0578 11.8941 12.6816 15.2887 17.3828 16.3331 14.9650 14.9741 14.9366 13.3853 14.2759 14.5184 14.0247 14.9412 14.2916 13.7159 12.9522 11.9244 12.2309 12.1891 12.3088 12.5794 13.2069 12.3581 11.4956 11.7541 13.1316 14.3247 15.7500 15.3222 14.3481 13.3653 12.0322 11.7025 12.4244 12.7169 13.1038 13.4991 14.6587 17.5809 17.8341 15.2897 14.5837 15.2759 15.7963 16.2147 15.2053 16.5544 18.6909 19.7697 20.7872 21.3078 20.9106 19.3475 15.2666 12.6237 13.3200 17.6366 18.0284 17.6322 16.7081 17.3816 19.4522 21.3069 21.4219 18.6684 17.9344 18.2256 17.3356 15.6678 15.8353 16.5434 16.9681 18.8719 21.7272 22.3309 20.1425 18.5869 19.3531 18.4866 18.6006 19.8678 19.5191 19.1994 21.1063 21.4341 22.5078 22.6159 21.4088 20.9966 18.2862 17.5997 18.7694 18.2038 17.3859 17.9219 14.9606 10.8653 6.0381 5.0472 5.3337 5.7156 6.3384 12.4250 16.0381 14.4950 13.1734 12.3791 11.5850 10.7906 9.7778 8.0859 6.5872 5.6225 5.0625 6.2162 10.8122 14.2494 16.9669 18.3344 18.0078 16.1925 15.1066 14.8094 14.4762 13.3522 11.1700 11.1006 12.1059 13.3456 12.8356 10.3644 9.5222 11.4366 11.3650 10.4094 10.4656 11.0956 10.3972 10.0691 9.2725 8.6150 8.3734 9.0209 9.7209 9.6341 9.3313 9.6131 9.9291 10.5787 10.9531 11.0544 9.0719 7.2812 6.9806 6.4956 7.2834 6.3650 6.1725 7.5972 8.4550 8.5503 9.6359 10.1825 9.6625 9.5209 9.3031 8.9937 8.9762 8.8666 7.9144 9.0884 10.7147 9.8556 9.1472 8.1825 8.8859 9.9328 9.0538 8.9075 9.6706 9.9928 8.4850 7.7522 8.1812 8.4203 8.1078 8.5456 9.1391 10.2431 10.9341 11.1150 11.0625
10.0831 8.5534 7.7844 8.7609 11.8819 12.1153 11.1209 10.8556 11.0406 11.3609 11.6825 11.8247 12.2075 12.6091 12.8841 12.0103 10.2244 9.6053 11.9341 13.7584 14.8462 17.5003 18.3056 16.9463 13.5578 13.0078 13.5538 13.1759 13.5944 16.1744 18.0734 16.7497 15.2228 15.5009 15.8109 13.5959 14.2638 14.2463 13.0653 15.2025 16.1059 15.5119 13.6303 12.2119 12.6753 12.7894 12.4581 12.1912 11.9128 12.3378 12.5959 13.1866 13.8591 14.8041 15.5413 15.4172 14.7366 14.6675 13.6947 12.6666 13.0500 13.7409 14.4937 15.2437 15.9653 17.0997 16.6509 14.6866 13.1059 13.7003 13.6784 13.7153 14.0116 15.8356 17.6987 18.8003 18.7663 18.7153 18.8350 18.5287 13.1459 10.3856 12.7963 16.4850 17.1909 17.4156 16.7547 16.9925 19.1497 21.4794 22.2328 20.5359 19.0794 20.2669 19.5375 17.8119 17.0944 17.9291 16.5422 18.4416 22.4722 21.7719 19.9069 20.5822 19.6856 18.3944 19.0478 20.9166 20.9837 20.5525 21.7878 21.9316 21.5037 20.7672 19.3506 19.8078 17.4231 17.0634 17.3288 16.9387 18.4159 19.2456 18.2797 15.2856 7.7206 5.0000 5.0131 5.1766 6.1784 14.7791 17.6459 15.7469 14.7678 13.9734 13.0209 11.1109 8.9550 7.3669 6.2838 5.5366 5.0778 5.6050 9.3212 12.7516 15.8694 16.8553 15.7575 15.1900 14.9144 14.7403 14.5509 13.5972 11.4113 9.7659 10.1434 12.0513 14.2991 11.7487 9.3278 10.4491 10.9537 10.8247 11.1278 11.3325 9.8175 9.5609 9.0819 8.2378 9.4072 10.8072 10.2881 9.3019 8.9881 9.5397 10.2563 11.3606 10.0016 9.1303 7.3081 5.9219 6.5219 7.5459 7.5194 6.6081 6.4819 7.6791 9.3938 9.2275 8.4831 6.5406 7.5884 7.7350 7.3906 6.9209 6.4128 6.0569 4.8878 7.2250 9.3306 8.6622 8.2184 7.0809 7.2300 7.5872 7.6050 7.9412 8.2053 8.3481 7.6256 7.7278 8.1294 8.1209 8.5825 9.1103 10.4450 11.1622 11.2891 11.2288 11.0453
11.1559 10.4978 9.0853 8.8588 10.8528 11.4684 11.8366 11.8719 11.4816 11.2853 11.4175 11.6722 12.0300 12.4034 12.7584 12.2906 10.4087 9.8572 11.5406 12.5400 12.7472 14.9972 20.7175 20.3994 16.2278 14.0781 14.1316 14.4156 14.4184 15.5941 17.6500 16.3866 15.5959 15.2753 15.7672 15.3778 15.1306 12.7653 11.2809 12.4556 11.8116 12.2384 13.0791 12.6950 13.3356 14.3116 13.8834 13.0097 11.6597 11.8350 13.2113 14.4756 14.3019 14.1641 14.5981 14.7509 14.8697 15.1263 14.6872 14.2147 14.2487 15.2850 16.2609 17.0391 17.0522 15.8384 15.2453 14.5672 14.1381 14.1981 14.9816 14.2859 12.8078 13.5172 15.9600 16.1325 16.1109 16.5722 16.4966 17.5184 13.4844 10.9128 12.7631 15.5344 16.2528 16.8581 16.6659 16.5644 19.2575 21.6394 20.2572 19.3638 17.5794 17.6741 17.1175 16.6659 17.5006 18.4572 16.2691 17.3991 21.2072 24.3469 22.8638 21.3800 20.0681 19.5497 21.3297 22.4922 21.4441 20.9013 21.1459 20.9994 20.3841 19.9716 19.4166 19.5016 20.5381 19.3322 17.6063 17.0903 18.3466 18.4153 17.7391 17.8166 14.4381 5.9272 5.0000 5.0031 5.7734 17.3019 18.9281 17.1691 16.2531 14.4187 11.7531 9.5112 7.8609 6.7209 6.0003 5.5312 5.0934 5.0847 7.9000 11.3847 14.5278 15.7394 15.3547 15.0119 14.8166 14.6519 14.3962 13.8069 12.7109 11.7972 10.4416 12.4606 12.7675 12.2544 10.5150 10.6159 10.9728 11.2200 11.5041 11.2762 11.6497 10.8059 10.2178 10.5128 12.1512 12.2312 10.2447 8.9606 8.7525 9.0731 9.5350 8.7372 7.6241 7.7066 7.3984 7.1250 6.5538 6.5512 7.0072 6.9216 7.4944 8.2466 8.6491 7.9416 7.1928 6.7372 7.4656 8.3647 9.1925 8.4466 6.7150 7.7263 7.4094 6.6775 7.2834 7.5747 7.3663 7.2391 9.4316 9.5631 8.1047 7.5728 7.6728 7.0509 6.6725 7.0534 7.9316 9.0406 10.2231 10.1287 11.2269 11.4700 11.4778 10.7262 10.0703
11.3634 11.3103 10.8944 9.7113 10.1912 11.3056 12.2541 13.0347 12.7897 12.3822 11.7400 11.0138 11.7841 12.1912 12.5600 12.8053 11.8441 11.5538 11.4347 11.4284 11.4288 12.6888 16.9434 17.8953 15.2872 14.3659 14.1331 14.5781 15.1644 15.6906 16.6556 16.1953 16.3403 15.6119 15.7600 16.3822 15.3169 12.7978 10.4472 9.3100 8.3731 9.1000 11.1266 12.6278 14.7634 15.4375 14.9531 14.1216 12.8878 11.4672 11.9256 14.9472 14.7759 13.8938 13.5900 13.8809 13.8647 13.7081 14.0144 14.4547 13.9325 14.6347 15.3003 16.1284 16.3556 14.3162 13.3594 12.6803 15.1422 15.9369 16.0462 14.9128 11.8828 12.1919 13.9156 13.6600 14.1347 13.3150 12.6706 15.4125 16.1009 12.2906 12.7800 14.5188 15.2437 16.0037 15.7053 16.1800 19.5406 20.5997 19.5103 19.5697 17.1406 13.8766 14.3169 15.7931 17.2362 18.0625 16.8956 17.4194 19.6588 22.9841 24.0141 20.0650 19.2519 21.0775 23.5459 23.5219 21.0466 20.6375 20.6863 20.6759 20.7700 20.7416 19.4597 19.9109 22.0378 21.9500 19.5525 17.4016 18.1259 19.2375 18.3069 18.0788 13.2422 7.2384 5.1659 5.0000 5.5534 17.1775 20.1556 17.7653 14.9253 12.0988 9.7875 8.1844 7.0428 6.4966 6.0266 5.5572 5.1078 5.0000 6.5309 10.0337 11.9966 14.9659 15.1475 14.8938 14.6803 14.3663 14.0503 13.7459 13.1944 13.5147 14.2494 13.8753 12.0084 12.6106 12.0125 10.4344 11.2959 11.6216 11.6247 11.1559 12.0947 11.5466 10.9963 11.9372 12.9041 12.5437 10.6816 9.1772 8.9591 7.5734 6.7497 5.5550 6.5506 8.0969 8.2284 7.9647 7.4309 6.9053 6.5647 6.7325 8.4491 8.8888 8.5078 8.3228 8.0084 7.6937 7.2144 7.5247 8.5434 8.1484 7.0925 7.2587 8.7819 9.7431 8.2253 6.9247 7.0441 7.4953 9.7391 9.7650 8.3347 7.0538 7.1213 7.2066 7.2069 7.6194 8.6531 10.0387 11.4231 11.7131 11.4456 11.1109 10.5616 10.0578 9.6109
11.5466 11.4981 11.4487 11.1975 9.9181 9.3556 12.3387 13.8903 13.7025 12.1366 10.2250 9.6219 11.1659 11.7413 12.0866 13.0647 13.2437 13.0275 13.2141 13.2409 13.0891 12.9725 16.0675 16.0912 14.4719 13.5828 13.9922 14.5781 15.1641 15.7531 15.7753 16.1644 17.0650 16.7084 16.5731 16.5469 14.8881 11.6784 9.4666 9.3737 9.8353 9.5434 10.0325 13.3341 14.7253 14.1088 13.7100 14.7472 13.8441 12.1412 12.4688 13.7172 13.0584 13.6253 13.5063 13.1922 12.8950 13.0141 13.4869 13.7656 13.1562 13.0784 13.7706 15.1112 15.4666 13.3494 11.4137 11.1328 15.5775 17.2428 16.8559 14.8241 13.3000 14.9197 15.5803 13.9537 11.1741 9.5225 12.1191 14.3822 15.4269 10.3975 11.4891 14.3600 15.1450 15.1778 14.8638 16.1253 19.2434 19.3603 19.4156 19.7700 19.4641 18.6616 17.7544 17.9972 18.3484 17.8838 18.0141 17.8797 19.7566 21.6981 24.1475 20.2903 19.3078 20.9366 21.7325 21.1187 19.6541 19.8431 20.1309 19.8059 20.7278 21.9050 21.0828 19.6447 19.6038 20.4378 20.4713 18.9953 18.9144 19.4547 18.4603 18.2434 16.7453 12.2444 7.5816 5.0397 5.0622 6.5806 13.9913 15.0138 12.1341 9.9216 8.3403 7.4622 6.9922 6.5212 6.0516 5.5819 5.1275 5.0000 5.5637 8.5328 8.1059 12.7784 14.9697 14.7006 14.4019 14.1138 13.8256 13.5378 13.0588 13.5675 13.8903 15.8634 13.7706 12.6344 12.7803 11.5181 11.2934 12.0822 11.3431 10.9325 11.6888 11.3284 11.5988 12.8038 12.7528 11.8375 11.0809 9.8516 8.6175 7.5556 6.6500 6.7978 7.6766 8.3778 8.6597 8.9216 8.9972 8.6375 7.9634 6.5444 7.7203 8.1847 8.5781 8.9716 8.9587 8.6553 8.1434 7.1275 7.1512 7.3016 7.6788 7.6500 8.1897 10.4675 10.0863 7.1191 6.4044 6.0447 6.6228 6.5813 6.7247 7.3106 7.4347 7.8059 9.4288 9.7388 9.6684 10.4619 10.9066 12.3381 12.4106 10.3028 7.8191 7.7831 9.0047
11.7672 11.7428 11.7259 11.7141 11.2509 10.4134 11.4984 13.3553 14.5950 13.4384 12.0091 11.3016 10.6506 10.0794 11.4800 12.1341 12.6466 12.6581 12.9953 13.3969 14.4791 15.3647 16.4434 15.1675 13.5753 13.3875 13.8638 14.2947 14.6972 15.4056 15.9347 16.6803 17.6859 17.6912 16.8416 14.1822 13.2806 10.5409 7.2709 10.9719 14.6572 10.9438 9.5597 12.3178 13.7828 12.7712 13.0437 14.3541 13.2537 12.6237 13.6750 13.7975 12.9131 13.1191 13.7575 13.4194 13.4222 13.4325 13.8641 13.2638 12.7141 13.1634 13.6053 14.1872 13.0116 10.7691 10.7234 11.6472 15.4494 17.2944 17.1588 14.9559 13.7322 15.6287 15.6784 15.6847 12.5938 11.6825 13.7609 12.2822 13.5387 12.0825 14.4900 17.1719 17.3534 17.5713 16.3325 16.4034 18.6559 18.9656 19.2375 19.2206 18.9922 19.1350 18.3691 19.0800 19.4994 17.2481 17.5581 18.7016 19.6369 18.8619 18.2284 18.1112 19.2950 20.8697 21.3041 20.6966 19.8506 20.1488 21.5431 20.2028 20.5966 22.1053 21.4450 19.0044 19.1103 20.4756 20.7816 19.0466 17.9009 18.5797 18.3628 18.5956 18.1150 12.9459 7.8828 5.4662 5.0028 5.0000 6.1881 10.7984 9.9528 8.5447 7.9572 7.4875 7.0175 6.5469 6.0775 5.6062 5.1475 5.0000 5.0719 6.0550 5.0081 10.0309 14.6059 14.4581 14.1713 13.8844 13.5972 13.3106 12.9625 12.0222 10.5056 11.4041 11.7288 11.3591 11.8944 12.4425 12.2253 11.8128 11.1231 11.4853 11.7691 11.0631 11.2609 11.8419 11.1953 11.0100 11.1962 10.9916 10.1484 8.9006 7.2081 7.3256 7.9522 8.3519 8.2338 8.6297 9.0312 9.4203 9.6997 9.1709 8.3528 8.3878 8.8816 9.2869 9.5072 9.5556 9.2931 7.8909 6.5666 7.1438 7.9169 8.7625 9.3737 9.8825 9.9150 7.9550 6.2141 4.4800 4.4519 5.4541 6.4138 7.1891 7.4113 7.6178 9.4897 10.2544 10.0453 10.0144 10.4278 11.1122 11.3050 10.8000 8.9303 8.3900 8.6562
12.2528 12.2606 12.2681 12.3344 12.1725 11.9241 13.1194 13.5650 14.6991 14.9259 13.7291 12.4694 10.6919 10.3972 11.4906 11.2788 11.9334 12.2844 13.0916 14.7537 16.4441 16.0216 15.6381 15.5434 14.5337 13.8019 14.1763 14.7275 15.6834 16.7341 16.6806 15.7384 16.7478 17.0116 16.5094 14.0875 12.1431 11.6103 12.1328 14.2278 15.4372 12.5391 11.0653 12.4478 14.2950 14.1797 13.4028 13.8156 13.1353 13.4759 15.0191 14.4300 13.3825 12.7103 13.8584 13.7706 13.8691 14.1663 14.6803 13.7384 12.7516 13.3956 14.1381 13.7738 12.0078 10.5353 11.1403 13.1266 15.9847 16.9066 16.8897 15.5059 14.1066 15.0884 15.3550 14.7753 13.4594 15.7747 14.8628 12.8700 16.1016 17.1028 17.3978 18.8794 20.2219 19.3231 17.6603 17.1509 18.1475 18.0503 17.6534 17.2228 16.3425 16.2669 17.2169 18.9387 17.3403 15.5034 16.3097 17.9822 19.2922 17.0688 15.7741 16.8709 18.6647 20.0631 20.8122 21.1134 21.5775 21.5944 22.4275 21.9169 22.4959 22.4934 20.5159 18.0709 19.0759 19.2019 18.7500 17.8512 16.7847 17.6931 18.2747 18.8175 18.8703 15.0628 11.7584 9.0803 5.0322 5.0000 5.0794 7.8106 9.0897 8.5672 8.0400 7.5259 7.0487 6.5750 6.1019 5.6328 5.1672 4.9975 4.9466 4.7503 4.2838 8.8859 13.7622 14.2116 13.9259 13.6403 13.3550 13.0916 12.5244 10.9684 10.0000 10.0000 10.0294 10.0259 10.8628 11.3875 11.9406 11.5441 11.1272 11.7034 11.0925 10.2194 11.1331 11.1569 11.1053 11.6859 12.0819 11.3206 10.7309 8.9016 7.1566 7.3412 8.1591 8.5144 7.8597 8.1494 8.5516 8.9766 9.8862 9.9628 8.9559 8.6766 9.0791 9.6578 10.2828 10.5684 10.4241 9.1350 6.0453 7.1756 8.7494 9.1216 9.2509 9.6528 9.3691 7.6725 6.7828 6.3994 6.4850 6.0813 4.2537 7.0912 7.3078 8.0609 8.6672 8.9897 9.5081 9.2238 9.1253 9.2959 9.8422 10.8394 10.5594 9.6456 9.3516
12.7103 12.7178 12.7397 13.0013 11.8750 11.9816 14.0156 13.3606 13.4044 13.1994 12.2050 11.9941 12.3663 12.4900 11.9878 11.4419 12.1897 13.0588 14.9225 16.3225 16.5263 15.3481 15.4359 15.0625 14.6650 14.4081 14.8319 15.3700 15.8681 16.4253 15.5528 15.2587 15.9087 14.9197 15.0075 15.4137 14.4972 14.7063 14.9925 16.6684 15.5350 15.0444 13.6522 13.7128 15.9169 14.4275 13.3641 14.3191 13.3603 14.4000 16.8841 15.5250 14.2466 12.5016 13.9253 14.0684 13.9228 13.7841 14.5050 14.1916 12.7497 13.3472 14.9750 15.0541 13.3253 12.8263 13.5644 15.0378 16.4700 16.1847 15.9122 15.1681 13.3700 12.5525 12.5819 12.2641 11.2447 14.3562 14.9156 16.1519 19.6959 17.8075 17.1216 19.2228 21.5897 19.6094 17.8372 17.7844 17.1006 16.8900 16.7684 16.7375 15.4128 14.4422 15.7709 16.5069 14.0144 14.3047 16.0831 17.1319 19.0588 17.7328 17.8206 18.2153 19.5106 20.8181 20.8859 21.5191 22.0359 21.9597 21.3675 22.1550 22.6194 20.9084 18.6775 17.7834 18.7563 19.3066 19.1556 18.6434 18.2034 18.6197 19.0694 19.8791 20.1238 17.4378 15.7822 15.0881 6.4488 5.0000 5.0000 6.1216 10.4303 9.6681 9.0472 8.4341 7.8212 7.2094 6.5441 5.8256 5.1719 4.7750 4.6325 4.4331 4.1522 7.1459 12.4328 13.9641 13.6797 13.3972 12.9628 12.0684 11.0894 10.2291 10.0000 10.0000 10.0000 10.0000 10.0750 10.0584 10.8503 11.1053 11.3056 11.9097 10.3494 10.1047 11.5278 11.2466 11.5453 12.4853 12.5841 11.8625 11.1675 8.2625 7.1634 7.1553 8.3462 8.6944 7.7591 7.6731 8.0712 8.5922 9.0306 8.6722 8.2931 8.9447 9.4038 9.8050 10.4203 11.0453 10.9753 8.7897 7.1291 8.9903 9.9503 9.1303 8.9656 9.4041 8.7834 7.7387 7.6597 7.6581 9.1956 8.6425 5.3325 6.5609 7.3425 8.0047 7.1934 7.3200 8.0097 7.4062 7.6656 8.4397 9.7072 10.9506 10.6250 9.7688 9.6406
13.1953 13.1719 13.3616 13.2131 12.6041 12.3391 13.8638 13.3609 12.6303 12.5078 12.0437 12.9613 14.4828 14.7516 14.1459 12.5544 13.0881 14.7312 15.5578 15.4416 14.7944 14.5737 15.5712 15.4159 15.5066 15.3428 16.4212 16.8866 16.5816 17.6381 15.7837 13.6934 13.0466 12.6941 13.2056 14.2113 12.9791 12.7956 15.0878 17.3272 16.5997 15.9575 15.4269 14.8903 15.6272 15.0616 12.6206 12.2759 12.0975 14.3500 17.0931 16.3103 14.5675 13.6356 14.3363 14.6388 13.2744 13.2294 14.1484 14.5728 13.2894 13.0856 15.3709 16.5681 15.8947 15.0756 14.6928 14.9125 16.2153 15.6019 14.8075 14.2834 12.7963 11.4497 12.8900 12.9144 11.7819 13.9222 15.9872 16.9622 19.4166 19.3941 19.4956 20.1456 20.6975 20.5047 18.5100 18.8000 17.3628 15.8959 15.6562 15.7597 14.1675 14.4412 15.2031 14.7750 13.2231 13.2081 14.5659 15.9781 19.6812 19.5678 19.0109 19.3650 20.9950 21.7347 21.4206 22.4575 22.1159 21.2500 20.4222 21.7203 20.8713 19.4491 18.9303 18.9416 19.6391 21.5403 21.8953 20.5378 20.4656 19.8225 19.2169 20.3150 21.0263 19.4869 18.9438 18.7044 13.7850 5.9472 5.0000 5.0272 8.4222 9.7228 9.4053 8.5947 7.7706 6.9591 6.2431 5.6172 5.0322 4.4769 4.2537 4.0953 4.0084 5.0166 10.6088 13.6075 13.3750 12.8525 12.3378 12.1119 12.0828 11.9603 10.1059 10.0000 10.0000 10.0000 10.0000 10.0000 10.0597 10.9191 11.4913 11.4347 11.3609 11.2281 11.7278 11.3503 11.3600 11.9966 11.9684 10.9094 9.8831 8.3356 7.2294 6.9347 8.3616 8.8438 7.9119 7.2528 7.5366 7.9044 7.5166 7.3253 7.6194 8.9331 9.8603 10.2028 10.4712 9.5509 7.7509 7.4662 7.7866 9.2275 9.6416 8.7762 8.4378 9.0697 8.4291 8.1222 8.0072 6.9594 7.9281 9.1934 7.2156 7.4744 7.8247 6.7934 5.9887 6.0406 6.8450 7.5988 7.7209 8.5756 10.0844 10.8219 10.5594 9.8237 9.3828
13.8525 13.5903 14.1250 14.5297 14.8941 15.1306 14.7875 14.5863 12.8234 12.7750 13.2172 14.1731 15.5144 15.4297 14.1525 13.7397 14.8584 16.4094 15.2097 14.1109 13.8612 14.6800 15.8575 16.6791 17.4037 16.9809 16.7753 17.0441 17.2919 18.1522 16.2353 11.9166 9.4987 9.6756 10.6516 11.6594 10.6438 11.5347 14.2753 15.2600 14.0672 13.9553 14.2628 13.1500 13.5334 14.3153 12.0931 11.7372 12.7747 14.8022 16.0969 15.2463 14.9616 14.9325 14.3141 11.4400 11.7569 12.3197 13.2494 14.0203 13.2634 13.4641 16.4275 18.8747 18.1991 15.4975 14.5097 14.3888 16.0209 15.3559 14.3938 13.3166 12.3922 11.8759 14.8962 14.6153 14.3203 15.0841 16.8291 18.6431 20.9837 22.3678 22.4075 20.9338 19.9472 20.9713 19.4394 19.1641 18.3544 15.8363 14.5013 14.2419 13.9438 15.0897 18.1753 17.1509 14.7722 15.6009 18.7959 18.4041 19.1075 18.0103 18.3891 19.4306 20.1581 19.9081 20.8456 21.4216 20.0319 20.6084 21.0797 21.0794 19.6491 18.7253 18.0222 17.9909 19.0216 21.3234 22.0919 20.8494 20.7497 20.7653 18.5494 18.2938 19.3556 20.5741 21.4084 19.7847 16.0616 8.5969 5.1953 5.0000 5.4887 7.5559 8.6184 7.9850 7.3203 6.6647 6.0588 5.4719 4.8353 4.2056 4.0047 4.0000 4.0000 4.3553 9.5162 12.5534 13.6388 14.0156 14.1141 14.1566 14.1488 14.6353 11.9856 10.0241 10.0000 10.0000 10.0000 10.0000 10.0000 10.0247 10.7397 12.1547 12.0206 12.5216 11.9412 10.6128 10.9341 11.0519 10.0878 9.9087 9.2316 10.5131 9.0494 7.1719 8.0716 8.8816 8.0853 6.3425 6.6366 7.7822 6.3191 6.5256 7.3025 8.7487 9.5922 10.2434 10.4153 9.4806 8.4872 8.8966 8.7659 8.7397 8.4097 8.3653 8.5656 9.0172 8.3972 8.6147 7.8403 6.2013 6.3622 9.2506 8.9325 8.7487 7.8416 7.4247 6.4706 7.4659 8.8994 8.3775 8.8434 9.6409 10.2278 9.8047 9.8313 9.5566 8.9266
13.0497 14.1059 14.8109 14.8325 15.4431 16.4794 14.9928 14.6716 13.6153 13.0350 14.3375 15.8194 16.5806 15.7447 14.3956 16.0394 16.8200 17.5666 15.7150 14.0156 14.5728 15.8147 17.0222 18.1734 18.7309 18.1516 17.5422 17.3522 17.8369 17.4169 15.7372 12.3569 9.7534 9.2328 9.0981 10.0312 10.1491 10.9384 11.9153 11.4453 11.2269 11.6306 12.5856 12.1769 11.8337 11.3394 11.5697 13.1862 14.9862 15.8347 15.5253 14.5578 14.8775 14.9441 12.3628 9.7137 11.1388 10.0359 10.6816 12.0084 11.3509 12.5981 14.5694 15.9941 15.0847 13.8581 12.5238 13.2556 15.6559 16.1175 15.2525 14.1613 13.8341 14.1672 17.3897 15.0969 14.2375 15.1225 15.3928 16.9566 20.7103 23.3084 21.8088 21.8662 22.1800 19.8137 19.4109 18.9856 17.9747 15.4041 14.0584 15.2906 16.4912 15.2403 16.5841 17.1191 16.7987 18.2687 21.7588 22.3200 18.5391 16.7537 19.3525 19.2019 18.8113 18.8269 20.0022 20.1803 18.3612 19.0516 21.4344 21.5634 19.3734 17.2919 16.3684 15.8538 17.8237 21.6894 22.1216 20.4681 20.9053 20.8953 19.1297 18.9744 20.1203 21.4178 21.7594 20.4222 18.0181 14.0809 10.5222 5.7416 5.0000 5.1194 6.3272 7.5875 7.0672 6.3834 5.6444 4.8406 4.1594 4.0000 4.0000 4.0000 4.0184 6.3441 9.0119 10.6344 12.3353 13.9650 14.9744 15.3300 15.5878 15.0406 12.8678 11.0047 10.1556 10.0031 10.0000 10.0000 10.0000 10.0000 10.0353 11.2097 13.2200 14.1878 12.3694 10.2056 10.0784 9.8031 9.3837 9.7422 10.2803 12.7403 10.5078 8.5866 8.0703 8.7875 7.8812 7.2947 6.8244 7.6191 6.4806 6.6491 6.6134 7.8344 8.7728 9.4778 10.5572 11.9000 10.8128 9.5022 8.1150 8.5444 9.2922 9.6778 9.8625 8.9197 8.1478 8.1250 7.9391 6.4341 6.3428 8.1097 8.2834 8.1331 8.4038 8.3859 8.0394 9.5538 8.3331 7.0544 7.5622 9.0644 11.1703 10.8550 9.2053 8.7262 8.8516
12.4688 15.0294 15.3922 14.9053 15.7059 15.5309 14.3413 13.9206 13.7975 13.6388 15.5091 16.1478 15.9500 14.6562 15.3197 17.2081 18.0306 17.7572 16.6938 14.6484 15.0894 16.3838 17.6716 18.8647 19.6162 18.8859 17.5772 17.0353 16.2678 14.7947 13.7966 11.9506 10.8481 9.0700 8.3775 9.5116 10.4797 10.3069 11.3403 10.3481 9.0797 10.0734 11.2303 11.1972 9.5528 9.6306 12.3331 14.7806 15.9247 16.0000 15.9050 15.3581 14.9566 15.0794 13.9359 12.4266 12.0612 11.2784 11.6075 12.2269 11.0391 11.9497 13.0569 13.4134 13.6337 12.8400 11.5069 13.0109 15.3322 16.7922 16.5947 15.5041 15.4594 16.8119 19.4163 16.2563 14.9203 16.4078 15.9341 15.7662 18.2194 21.5656 20.5850 18.3272 17.9937 17.0666 18.5750 19.5834 17.5631 15.4156 15.0378 17.1119 19.2806 18.5519 16.3672 16.3862 17.5075 18.6022 21.5709 23.4081 19.4922 18.5138 19.9722 17.9578 17.3200 18.0800 19.7081 18.1388 16.0872 18.4631 20.3713 19.9809 19.3244 17.9566 16.8312 16.6912 19.4666 23.2941 23.0450 21.1025 20.9566 21.3137 21.2962 20.4144 20.6334 21.4597 20.7319 19.7784 19.2691 16.4788 13.8066 9.2212 5.3369 4.9694 4.7919 5.1422 6.2772 5.4969 4.6784 4.0878 4.0000 4.0000 4.0000 4.0000 4.0453 5.4884 7.1669 8.8494 10.5331 12.2184 13.9028 15.4122 16.2094 16.1488 14.5881 12.9194 11.8328 10.7231 10.0022 10.0000 10.0000 10.0000 10.0000 10.4519 12.8337 13.7584 14.2006 12.3697 10.8144 9.9288 9.1147 9.5925 11.2506 11.9031 10.8072 9.6850 9.0950 8.8462 8.3859 7.7525 7.1181 7.3634 6.8303 6.7216 6.4328 6.9088 7.9725 8.7234 9.5169 10.8628 11.0487 10.0122 8.8391 10.2122 10.8484 10.6700 9.6425 8.6084 7.9356 7.6578 7.6653 6.6359 6.5991 7.2409 7.6916 7.8222 7.5344 7.6128 7.8822 7.4141 6.3859 5.8575 6.4019 8.4406 11.1822 11.7753 10.1850 9.9559 9.5688
12.1959 15.0122 15.3112 14.4059 15.3994 15.3931 14.5813 13.4422 13.1000 13.4941 14.5787 14.9288 14.4356 13.2966 13.7513 15.3434 16.5984 16.7144 16.8253 15.8678 15.7534 16.6716 17.2341 17.3097 17.0713 15.7378 14.9347 13.9484 13.6263 13.3522 13.1825 13.6444 12.8541 9.7800 8.9603 10.2941 11.5666 11.8925 13.6544 12.9566 12.2019 12.3081 10.9300 11.0534 10.6663 10.2253 13.0259 15.8438 16.0784 16.0413 15.8687 14.4987 14.2428 14.9956 15.6131 15.3787 15.6759 14.8141 14.5897 13.7137 12.1147 12.0281 12.5909 14.4547 15.3956 13.8197 11.9237 13.0844 15.1616 17.1584 17.3681 15.0828 13.0556 14.0091 15.3697 14.6022 14.8013 16.2962 16.4959 17.2450 17.4350 19.8981 21.8919 18.6644 15.2016 15.5681 18.7144 21.1522 19.6984 16.4328 15.4247 18.1397 21.2075 20.0000 17.5919 16.8784 16.3194 16.8272 18.9666 20.8469 18.3506 17.4422 18.6078 17.8062 17.0406 16.9575 16.9472 18.6138 17.9094 20.7250 21.3397 19.8334 19.0656 18.3559 18.4000 19.5966 20.5650 22.5259 23.3906 21.1481 19.0416 19.5428 21.1844 19.0225 19.3334 20.9919 20.9803 20.9866 20.6031 18.5472 15.0275 12.7719 7.0419 4.3853 4.0622 4.0000 4.6491 4.5234 4.0419 4.0000 4.0000 4.0000 4.0000 4.0000 4.0216 5.0781 6.6962 8.3141 9.9316 11.5497 13.1341 14.5813 15.9041 16.7941 16.1178 14.7344 13.9344 12.2544 10.2828 10.0000 10.0000 10.0000 10.0000 10.4644 11.6694 12.7594 13.4731 13.1534 11.6725 10.6431 9.3550 9.1275 10.6522 11.2084 11.6584 9.7444 8.0269 7.4053 8.0919 8.0819 7.4516 7.2497 7.0563 6.7881 6.4950 6.3300 7.1500 7.9753 8.6153 7.5287 8.9137 9.6556 11.1122 11.9494 11.3387 10.3772 9.3316 8.3047 7.7297 7.3794 7.2350 6.5941 6.7928 6.9622 6.9037 6.8666 7.2434 7.7647 7.7153 7.5281 6.8722 6.7312 6.2247 7.5606 9.5769 9.9322 10.5041 10.9334 10.5234
11.6891 13.9278 15.5597 15.3572 13.6834 14.6341 14.9816 13.3878 12.3641 12.3628 13.4381 14.0828 13.8409 13.5875 14.8753 15.1041 15.1734 15.6263 16.1844 16.1403 15.7584 14.8659 14.6219 14.9747 13.4222 12.7431 12.3103 11.5922 12.6050 13.9397 13.9319 14.0081 13.6044 10.4700 9.7219 11.2094 12.6125 13.0981 13.4681 13.5328 13.1281 11.9778 11.3372 11.7847 12.0928 12.3722 13.6628 14.5372 14.7197 15.0131 14.8578 12.0834 13.0256 14.6716 16.0953 15.9416 16.0131 16.4678 15.3119 14.0575 13.0294 12.4041 12.9569 14.7753 16.4891 14.2806 11.7244 12.2966 13.7994 15.9050 15.9797 14.2441 12.6916 13.7009 15.1300 15.0028 15.0775 15.2894 16.0269 18.3497 18.2234 21.2875 23.7344 20.3634 16.3581 16.9081 19.2553 20.9022 18.6084 15.8909 15.9300 18.6722 20.6087 20.3159 18.7478 17.6303 16.6206 16.2275 17.6719 19.8831 19.0453 17.3256 18.1019 18.0872 17.2375 17.9828 18.1231 19.8334 20.3272 20.5881 21.0216 21.6216 19.3841 17.2106 18.1878 19.3531 19.0741 19.5669 21.5100 20.6534 18.5997 17.9888 19.1038 19.8219 20.4872 21.2213 21.6094 22.6747 21.4681 19.6078 18.1072 15.0428 9.0562 4.2900 4.0069 4.0000 4.0141 4.0156 4.0000 4.0000 4.0000 4.0000 4.0000 4.0000 4.0197 5.0697 6.6875 8.2956 9.7969 11.1459 12.3750 13.5884 14.9378 16.1947 16.2522 15.6653 15.4284 13.5447 11.4594 10.3803 10.0000 10.0000 10.0000 10.1491 11.0550 11.9716 12.1731 11.4956 10.6637 11.7175 10.9550 9.6716 10.8316 13.1331 12.3956 10.1375 7.4444 6.9212 7.0406 7.4056 7.6206 7.3594 7.1487 6.8556 6.5622 6.2684 6.3978 7.1469 7.7438 7.1103 7.3022 9.3397 10.2547 10.4125 10.6275 9.9828 9.0206 8.0206 7.5212 7.1703 6.8647 6.3541 6.5294 7.2859 6.5269 6.6747 7.5163 7.7653 7.5119 7.3438 7.1125 7.1191 6.9247 7.4350 8.7872 9.3600 9.6872 10.0194 10.3313
10.8791 10.9712 13.0712 13.9700 13.1637 14.0909 14.8869 14.1319 13.4822 13.1406 14.5841 14.7719 15.0191 15.4300 16.6347 16.3366 15.4178 15.2850 16.8325 16.6334 14.4137 13.7841 13.9691 13.9563 13.2281 13.1691 12.1766 11.8784 12.9503 14.9631 15.3747 11.8553 11.5047 10.6834 10.2137 11.0087 11.9325 11.7587 12.5463 12.6038 12.0803 11.1125 11.7312 12.3856 12.7266 13.0416 13.6119 12.5997 12.8044 14.3219 13.0350 11.2403 12.2353 14.5716 16.3825 13.6819 13.4362 16.0959 17.3341 16.7859 15.8647 13.6587 13.7712 15.1691 15.4556 13.9847 12.6281 13.6425 14.6903 15.0559 14.4175 13.9534 14.2984 15.0691 15.1319 14.0272 13.4888 14.3972 16.4000 19.1497 19.7675 22.0297 23.9147 19.5906 16.2528 18.3013 19.3281 18.8391 17.3300 18.3597 17.4553 17.7231 18.6356 18.0850 17.5187 17.7159 18.5109 18.4303 19.3559 20.7750 20.3559 18.7428 16.5959 16.2913 17.3634 18.5900 19.4272 21.2309 21.5528 21.2766 20.9884 21.7366 19.4613 16.6462 15.0966 14.3919 15.2772 16.7931 19.0866 19.8741 18.5853 17.9569 19.5347 24.0662 23.7694 22.0319 21.7381 22.4216 20.9566 18.8225 18.4628 16.3300 10.2981 5.1109 4.1259 4.0000 4.0000 4.0000 4.0000 4.0000 4.0000 4.0000 4.0000 4.0000 4.0175 4.9938 6.3966 7.6566 8.8700 10.0837 11.2975 12.4969 14.1747 15.5562 15.4613 15.1528 15.6469 14.2103 13.0475 12.1903 10.2859 10.0000 10.0000 10.0009 10.3862 10.9622 10.5894 10.2262 10.4550 12.3297 11.9322 11.1056 10.4288 13.8188 11.8425 7.8222 7.1631 7.5481 7.6091 7.6416 7.6291 7.8156 7.3038 6.9909 6.6366 6.2528 6.3100 7.1363 7.6981 7.4259 6.7050 6.9953 8.1025 8.6156 9.1812 9.2437 8.6466 7.7534 7.3156 7.0759 7.1875 6.4484 6.5941 7.7512 7.4363 6.6159 7.5997 7.4666 7.2709 7.1050 7.0212 7.0797 7.2556 7.5603 8.0206 8.6566 8.0312 8.4097 8.7969
12.2325 10.8991 12.8541 14.1297 14.2125 14.2441 14.0975 13.9487 16.0825 15.8272 13.6194 14.0616 15.9703 18.1516 19.3050 18.3591 16.6634 15.4534 17.8487 17.9656 14.6997 15.0169 14.3459 13.3206 12.7444 15.6669 14.0847 14.3962 15.7628 16.3734 19.4959 18.6659 17.5706 13.2728 11.4597 11.4397 11.2931 10.2347 10.6397 11.6341 11.0525 11.3600 12.1266 12.8816 13.3516 13.6572 13.7709 12.3809 14.2478 14.3050 12.0634 10.6725 12.1641 15.6491 16.2441 12.7566 12.5628 13.9834 17.5438 18.4391 17.0984 15.3419 14.3441 14.7384 14.5741 14.2959 15.0347 15.2153 15.4500 15.3622 14.1628 13.2291 14.3088 15.1928 14.3147 13.6459 13.1684 13.9244 16.2191 20.3678 21.0528 18.6166 18.5522 15.9816 14.8328 17.4444 19.1331 18.7000 18.3137 20.2709 19.5194 15.9653 16.5987 17.7241 16.6659 17.6250 19.7219 20.7134 20.7641 19.6106 18.1419 17.3828 15.5878 15.6263 18.6950 19.6184 20.5634 23.2494 23.2288 23.0516 21.6488 21.2000 19.9459 15.8422 11.9456 11.6550 15.0188 16.2281 17.4031 19.2550 21.0513 20.3306 21.2663 24.0109 24.3672 21.1509 20.8047 19.8266 18.5881 18.4172 17.9859 16.9691 13.4572 7.4019 5.1600 4.0309 4.0000 4.0000 4.0000 4.0000 4.0000 4.0000 4.0000 4.0000 4.0009 4.2875 5.3663 6.5788 7.7922 9.0056 10.2194 11.4375 13.5847 14.9234 14.7050 14.1922 15.4841 14.4150 13.2147 12.1881 11.0962 10.5909 10.0944 10.0000 10.0172 10.2606 10.3641 10.6025 11.4109 12.0869 11.6062 11.7147 11.9744 11.8938 9.2025 7.1909 7.9184 8.1694 8.2441 7.9709 8.3478 8.9691 8.1987 7.2613 6.4794 6.3506 6.6219 7.2222 8.2534 7.7750 6.8444 7.0141 7.1950 7.4641 7.8097 8.1897 8.0119 7.8356 8.6350 9.3784 8.9081 6.6231 5.8794 6.6809 7.7619 7.1581 6.6984 6.3238 6.2309 6.4641 7.0912 7.2512 7.4169 7.5831 7.7541 7.9184 6.8559 7.3447 7.7406
12.6359 12.6200 13.1906 13.8956 14.1769 14.8259 15.3337 15.2831 16.5241 15.2519 12.6800 14.6078 17.7997 19.0578 19.5134 19.2519 18.0097 15.7500 16.2872 17.7803 17.4628 17.4713 15.3756 13.3584 14.6388 20.3862 20.6322 18.3075 17.1275 16.9059 22.2381 26.4359 30.6178 28.6019 16.1434 12.3962 11.7972 11.1025 10.7478 10.7866 10.9725 11.7544 12.5209 13.2875 13.9481 14.2666 13.9619 12.4106 13.7819 14.5756 12.5516 10.1797 11.3506 13.6719 15.1675 11.6594 11.6088 13.1094 15.4866 15.9959 16.3587 15.5341 14.5709 14.2778 14.5744 15.0497 16.0562 15.6097 15.2113 14.1784 13.5959 12.2913 14.0206 15.2413 13.7897 13.6428 13.6366 15.0712 18.0234 17.8509 15.4625 14.2669 14.4169 14.9781 15.1922 16.1025 17.5462 16.9338 15.9741 18.3947 18.4344 15.6822 16.5378 18.1053 16.8072 17.6287 21.9666 22.8481 20.9309 18.1178 17.6581 17.9553 16.9281 16.3269 19.1706 19.3106 20.1441 21.8994 23.3856 24.4725 22.9869 22.6541 21.9519 16.7784 13.0622 13.5925 15.0169 15.1341 15.6628 17.6537 22.0122 22.0016 21.9591 22.2544 20.8047 19.7203 21.3003 20.3309 18.9988 17.6784 18.4269 17.7684 14.7075 10.1003 6.5406 4.1188 4.0000 4.0000 4.0000 4.0000 4.0000 4.0000 4.0000 4.0000 4.0000 4.0000 4.3131 5.4931 6.7144 7.9281 9.1400 10.5566 13.0238 14.2909 13.2709 12.7741 14.1947 13.6625 12.3600 11.1453 10.8625 10.7828 10.6450 10.3453 11.6584 11.6147 10.8597 11.0897 11.9688 11.7553 11.4500 11.4603 11.2831 12.0394 11.2466 10.4747 10.5763 9.0244 8.1362 8.2203 9.7772 9.5238 8.8203 8.5778 8.2656 8.1656 8.1281 8.4331 8.9613 8.4266 7.8150 8.5569 8.8581 8.6666 8.8203 9.0878 8.6122 7.8738 9.4931 9.4859 8.9325 7.5619 6.6253 7.5247 7.5753 5.7281 5.2756 6.2694 6.4719 6.5972 7.2537 7.4284 7.5759 7.5581 7.3872 7.0963 6.9634 6.9844 7.3922
12.8466 13.1394 13.3813 14.1284 14.3531 14.9025 15.3766 15.7516 16.5275 14.8628 14.5672 16.3984 18.3213 18.7081 19.6150 20.3388 20.6087 18.0656 16.7231 18.4084 18.6122 19.2666 18.7294 14.7769 13.3038 16.3447 22.0559 16.7650 14.5047 16.4191 22.6778 28.0794 26.8147 25.4753 17.1306 14.6022 13.1663 12.9691 13.4041 13.7325 12.3034 11.6163 12.0953 13.2694 14.3216 14.7503 14.0131 12.5503 12.5778 12.8825 11.9822 10.9925 11.8369 12.8975 14.1491 13.7003 13.1422 12.3956 13.3084 15.3972 16.0550 15.6591 13.7306 13.1969 13.9531 15.6959 15.9881 15.3544 15.5847 14.2059 13.3347 12.2603 13.8950 16.1125 13.7044 11.3322 13.6025 16.4353 18.3247 16.2916 14.0813 14.1169 13.9222 15.6053 16.3981 15.5475 16.4616 16.4619 15.4747 15.8253 14.9044 15.6606 17.7563 18.7697 17.4075 17.6719 21.1328 23.7691 21.5756 17.9600 17.2519 17.8678 18.8412 19.3062 20.5669 19.4459 19.6819 20.4594 20.6850 22.9666 22.5588 22.8803 21.2706 15.8528 11.0709 10.2772 10.8650 13.4072 15.2963 16.1706 19.0109 21.7450 21.6372 20.7778 20.1150 17.8891 19.6141 20.0503 19.8534 19.0444 19.8703 18.2850 15.0825 11.6694 7.9172 4.6206 4.0000 4.0000 4.0000 4.0000 4.0000 4.0000 4.0000 4.0000 4.0000 4.0000 4.0000 4.2503 5.5522 6.8503 8.0322 9.9038 12.4628 13.3512 11.3934 11.4922 12.2525 12.0609 11.1462 10.6206 10.8991 10.5378 10.1275 11.5375 12.6809 12.7437 11.8025 11.6656 11.8900 11.5337 10.9300 10.8881 11.5100 12.4503 11.1375 9.3884 8.6997 7.8869 6.8888 9.8256 11.5359 10.3694 9.7022 9.5356 9.3363 8.8994 8.8684 8.8875 8.9519 8.8453 8.9078 9.8263 10.6306 10.3141 10.1297 10.4537 9.3588 6.9741 7.4703 7.1659 7.8187 8.3572 8.5203 9.0125 6.1378 4.8834 6.4637 6.9191 6.8803 6.8225 7.4206 7.6491 7.5444 7.3938 7.1594 6.9841 7.1316 7.1056 7.5500
12.0688 13.7694 13.5006 14.6791 14.4566 14.6756 14.8291 15.1478 15.7300 15.2419 15.0891 15.8056 17.2859 18.3375 19.3009 19.7288 19.5138 18.0981 17.5500 20.2066 17.6916 17.1656 18.0244 16.9719 14.9569 11.9847 17.5325 14.4675 13.5006 15.9931 19.4341 21.8466 17.4350 16.7319 13.9788 14.3131 15.3034 15.4594 16.1297 16.1462 14.6997 13.4009 12.3263 11.5656 11.9647 13.0941 12.6544 12.3853 12.8781 13.1816 12.7013 12.2706 12.7300 13.4406 13.9644 14.4806 14.6062 14.7650 14.8316 16.1341 16.1866 15.5819 14.8816 12.8875 12.3303 17.4566 20.0544 18.4103 16.7925 15.9663 15.3450 15.1659 14.1000 14.1713 12.4578 10.0981 13.8884 17.1744 18.6281 17.5666 15.4978 15.7850 14.6222 15.6066 16.8872 14.8100 15.1606 15.8609 15.3447 15.1669 14.7134 16.2887 17.8397 17.7816 17.1181 16.7800 19.2047 20.0216 20.5944 19.5131 18.5987 18.8575 19.2763 19.2331 18.6756 17.5056 18.1750 19.5831 19.2453 20.6872 22.2191 23.3006 23.2072 18.1362 10.1462 4.2825 5.6344 11.9388 15.8569 15.9744 18.0266 20.7706 19.8388 19.2463 21.2831 20.6166 18.3219 17.7625 17.8094 18.1181 19.0597 19.1166 17.5338 13.4947 8.5628 5.5806 4.0087 4.0000 4.0000 4.0000 4.0000 4.0000 4.0000 4.0000 4.0000 4.0000 4.0000 4.0000 4.1616 5.4925 7.0394 9.3478 11.9237 11.9419 10.8681 11.9409 12.3375 12.3737 11.8769 11.4794 11.7384 12.1325 11.6031 12.4491 12.4762 11.8813 12.0856 11.9434 11.5878 11.0934 10.3656 10.8303 12.0472 12.1044 10.8269 7.4956 6.9450 6.5144 5.5394 9.7481 12.4994 11.0813 10.5625 10.3725 9.9744 9.3228 9.3044 9.2987 9.2366 9.1081 9.3509 10.3725 10.6319 9.9703 9.4697 9.6641 9.8263 8.7775 7.1025 5.3825 6.2450 7.3372 7.8100 7.9662 6.4722 6.3325 6.9338 6.7547 6.9084 7.1056 7.7562 7.6438 7.4094 7.1750 6.9500 6.9988 7.2188 7.2737 7.4578
11.7678 13.2288 13.1972 13.5291 13.9400 14.7194 14.8322 14.8612 15.7119 16.4884 15.4281 14.6966 15.9688 17.5763 17.8719 17.9906 17.0794 16.1606 17.2656 18.2481 15.4244 13.7000 16.8862 17.3309 16.4050 13.4900 14.3147 14.6828 14.3203 15.4156 15.8381 14.9850 13.8341 12.9281 12.5553 13.2081 14.9600 16.5253 17.0922 15.8737 14.9100 14.4263 12.8181 10.8375 10.3787 11.5022 11.7644 11.6319 11.8869 12.3484 12.9266 12.8419 11.9259 11.4784 12.1872 14.7578 16.4263 15.8966 15.2778 16.8791 16.5319 15.5600 15.7134 14.0716 12.6938 15.0469 19.8388 20.1200 19.8731 18.2834 16.5953 16.5850 14.7728 11.5463 11.2991 12.4734 15.6184 17.3406 18.4466 18.2062 16.2950 15.5278 15.5741 15.9178 16.0225 14.1522 15.4725 16.8050 16.5366 16.4969 16.0341 16.2913 16.5494 16.1497 16.2909 16.0956 17.0816 18.4119 19.0309 18.9578 18.5634 18.5481 17.5456 16.9534 15.2934 15.6600 17.9203 18.9691 18.1891 19.1575 21.3831 21.9431 21.2738 21.4647 15.5300 6.7275 7.9825 13.6231 18.3175 18.7966 20.0662 19.8947 19.5222 21.1309 23.6294 23.9122 20.0225 17.7694 17.2906 16.9369 18.0375 19.2809 18.7581 15.3494 8.7537 5.3647 4.0247 4.0000 4.0000 4.0000 4.0000 4.0000 4.0000 4.0000 4.0000 4.0000 4.0000 4.0000 4.0000 4.0528 6.4672 9.4784 11.1909 12.2806 13.4219 14.1791 13.9537 13.6891 13.5188 13.3678 13.2262 13.0731 12.9991 13.5806 12.7503 11.5841 12.4094 12.1256 11.1741 10.4228 10.0284 11.6519 12.3131 11.6509 11.1059 9.7719 9.6125 8.9788 8.6759 9.7378 12.0378 11.8188 11.3234 11.2712 10.3619 9.7481 9.7391 9.6237 9.3359 9.0925 9.4738 10.1578 9.8481 9.4759 9.1547 9.0625 9.6075 9.8766 8.7281 6.9831 6.1753 5.6716 6.5456 7.1216 7.0903 7.4869 8.7625 7.6413 7.4766 7.4744 7.5800 7.4228 7.1875 6.9531 6.8784 7.0837 7.3041 7.4744 7.3781
11.3053 12.6250 13.5906 13.6997 13.5353 13.9038 14.2756 14.4066 15.5875 16.4491 14.7712 12.9881 13.4022 15.2463 16.0828 16.2556 15.3138 14.4216 16.3369 16.6959 15.0572 15.7181 18.6028 17.2069 15.5413 15.5878 15.8819 16.0109 15.8803 15.5928 14.1728 12.1263 12.1803 11.5569 11.6866 12.7269 13.0962 13.7416 14.2891 13.7775 14.7812 14.3737 12.6747 12.1925 11.7447 12.0478 11.9219 11.2487 10.4206 10.5372 10.3200 10.8706 11.4178 10.3200 10.9650 13.7037 16.0147 16.1812 14.7578 15.8853 16.8025 16.2709 15.8038 14.0269 13.5419 14.3166 18.9150 20.5444 20.9019 19.7575 17.2009 16.4463 15.0066 12.5853 12.1316 15.6603 18.6087 17.4237 17.1472 16.5831 15.6891 15.5256 16.7241 16.5947 16.3512 15.1578 15.8703 16.9369 18.1231 18.9888 17.4497 15.7969 13.7144 14.2178 16.2647 16.4828 15.6234 16.9803 16.9263 16.6316 16.6400 17.3700 16.9650 16.9625 16.0894 16.1847 18.1369 18.7475 17.1294 17.1656 19.2294 18.4112 17.5494 19.6938 18.0653 12.0913 11.7516 13.1231 15.6838 17.0341 19.0184 19.9122 22.6444 24.0025 26.1981 28.4472 22.6044 17.7609 17.0331 15.7169 16.7672 19.0244 19.6572 17.5809 14.2113 10.6247 5.4275 4.0000 4.0000 4.0000 4.0000 4.0000 4.0000 4.0000 4.0000 4.0000 4.0000 4.0000 4.0000 4.2387 7.5434 10.0225 10.4778 11.7934 13.2013 14.4963 14.6500 14.5406 14.4312 14.3212 14.2075 14.0953 13.9975 13.8406 12.5725 12.4478 13.1169 12.4537 11.7656 10.9609 10.8059 12.0538 12.3038 11.9894 11.9722 12.1775 12.0913 11.8541 11.5819 11.2188 11.2659 12.5994 12.1681 11.7325 10.7309 10.1694 9.9934 9.6875 9.3750 9.0962 9.4475 9.8053 9.5506 9.2478 8.9422 8.7494 9.2050 9.7603 9.8772 8.3772 6.2116 5.3069 6.9991 7.4828 7.1091 8.4116 10.2725 10.5503 8.9631 7.4637 7.3441 7.2022 6.9656 6.7947 6.9491 7.1697 7.3900 7.6097 7.6813
11.0047 12.3597 13.8975 14.8509 14.7306 14.2041 14.0875 14.6562 15.7972 16.3097 14.6184 13.4937 13.1862 13.6831 13.4944 13.8691 14.1356 14.0231 14.4081 15.3606 15.1666 16.8372 19.1697 18.0206 16.7572 16.6787 16.5891 16.5066 16.2950 15.2334 13.3994 11.7303 10.9384 12.2884 13.1431 12.5772 11.4397 10.4781 11.4134 13.2281 14.6838 14.3178 12.7712 13.1697 13.7191 13.7738 12.5800 10.7797 9.2772 9.8363 8.9472 9.3125 11.0513 10.3172 12.0053 14.7294 15.0478 14.5372 13.5188 14.0478 15.2634 15.2113 13.5759 12.9147 13.3450 16.0713 17.7422 17.6084 17.8416 18.9609 18.3653 16.8972 15.1800 14.3062 13.4428 16.0303 17.8700 17.1897 16.7122 15.7644 15.7272 16.9916 17.7781 17.8144 17.8134 16.8691 15.3100 16.7369 18.3731 18.3366 17.7959 16.1844 13.6691 13.4853 15.4722 17.2641 16.7616 16.0972 15.6019 15.9016 16.6541 17.4853 17.9466 17.8353 17.7131 16.6884 17.8416 19.4275 19.1191 17.6369 18.1881 17.5825 17.3403 17.2216 14.1778 10.6591 9.9016 10.4825 14.7850 16.3406 18.2313 21.0766 24.5481 26.2975 29.3778 32.4781 30.4112 18.2916 16.4400 14.7469 15.6637 17.7181 18.9519 18.6213 16.5550 12.2744 7.6156 4.4131 4.0000 4.0000 4.0000 4.0000 4.0000 4.0000 4.0000 4.0000 4.0000 4.0000 4.0000 4.0006 5.9941 8.4941 9.9269 11.3819 12.8366 13.9891 14.0128 13.9131 13.8150 13.7159 13.6172 13.5222 13.4778 13.9631 13.2803 12.8609 13.0328 13.2731 12.7547 11.8600 11.1459 11.8325 12.8475 13.3831 13.6184 13.4506 13.2106 12.8450 12.4091 11.9838 11.5806 12.0516 11.7847 11.4200 11.0216 10.5003 10.1025 9.7284 9.4125 9.1116 9.3013 9.5231 9.3359 9.0272 8.7178 8.5041 8.7159 8.6653 8.9953 7.7725 7.0141 6.1744 8.0894 8.8369 7.3566 8.2591 9.9509 11.1034 9.1294 7.5606 7.1097 6.9812 6.7591 6.8144 7.0347 7.2550 7.4750 7.6953 7.8281
11.4856 12.4194 14.1284 15.7234 16.2300 14.9456 14.1056 15.4934 16.4972 16.9291 15.5525 14.5653 13.7319 13.4169 12.4894 11.4784 11.1803 12.2275 13.1006 13.2331 14.5522 16.2350 17.2453 16.9544 16.5372 16.4922 16.3506 16.6947 16.7709 15.2225 12.9534 11.3928 10.9359 12.9531 13.1419 12.4909 11.4163 10.2175 10.8988 12.8938 14.5678 14.2125 12.9606 13.2806 14.7859 14.7219 13.6375 11.9172 9.3462 9.4788 9.2397 8.8184 8.8800 10.1691 13.0166 15.6850 15.1397 13.6709 12.9181 13.5825 15.3225 14.8391 12.6103 12.6025 15.2359 17.8206 16.8603 14.5097 14.1763 15.5606 16.9278 16.3284 15.9728 14.4025 14.5956 14.9900 15.0675 15.4300 15.7788 15.8209 16.1881 17.1131 16.5325 16.6122 17.4375 17.9225 16.3412 16.1153 16.4891 17.0803 17.9197 17.6216 15.0256 13.8206 16.0097 17.8609 17.8162 16.6634 14.6059 15.3097 17.2822 17.3959 16.9338 17.7800 18.9309 17.4222 16.9981 19.6731 18.7116 18.8009 19.5837 18.7862 17.9547 16.9275 14.5622 10.5300 9.2953 12.4734 17.6675 18.6816 18.2009 19.1213 24.3231 29.9550 35.1781 40.2337 43.4581 25.5825 17.8566 16.9716 17.4291 17.3572 18.1187 18.5588 17.3731 14.1728 5.9209 4.0184 4.0000 4.0000 4.0000 4.0000 4.0000 4.0000 4.0000 4.0000 4.0000 4.0000 4.0119 4.1859 5.3409 8.1263 9.5916 11.0466 12.5019 13.4084 13.3591 13.2606 13.1613 13.0628 12.9637 12.8944 13.2881 14.1472 13.9484 13.5741 13.1606 12.9675 12.0522 11.1366 11.2381 12.3988 13.4438 13.8578 14.2303 13.8628 13.3681 12.8734 12.3787 11.8837 11.5650 11.8172 11.3009 10.4156 10.1950 10.2744 9.9916 9.6428 9.2359 8.8162 8.8981 9.2231 9.1244 8.7850 8.3797 8.4888 8.1631 7.0709 7.4784 8.0387 7.6166 7.0134 8.1475 8.0547 7.0134 8.1934 9.9378 10.0538 8.8313 7.7672 6.9559 6.7609 6.6925 6.9000 7.1200 7.3403 7.5603 7.7806 7.9125
12.4625 12.4097 13.9644 15.7391 16.0588 14.3256 13.7041 15.4203 17.0772 17.2516 16.1203 14.9425 14.3713 13.8828 12.5272 10.9103 9.8144 10.4419 12.4116 12.9125 14.0638 13.9619 15.4197 15.7725 16.0287 16.1978 16.5178 17.0631 17.4200 15.3906 12.5119 11.1647 11.6603 12.3884 13.3919 13.5281 11.5497 10.1366 10.5700 12.0566 13.5269 13.4378 12.2750 13.5225 15.2706 15.2037 14.3062 13.1525 11.5350 11.4381 11.4925 9.3047 9.3894 11.8850 14.3122 15.4072 15.0244 14.0853 13.5050 13.6838 15.0013 13.0503 10.8525 11.3713 15.3191 18.6928 16.7175 14.0238 11.9494 12.3984 15.3406 16.1553 15.8156 15.4594 15.1478 14.8462 14.0181 14.8372 15.1000 13.7662 13.1628 14.6506 14.1287 14.3959 16.4803 17.4338 17.3469 15.5259 16.2597 17.1734 17.2953 16.7656 14.6388 13.7106 14.9822 15.3372 15.2244 16.1225 16.0322 17.0031 18.8694 17.9016 17.4303 17.3872 16.5656 15.5703 15.7381 17.3578 17.2375 18.1384 19.1644 18.6700 17.1719 17.8881 19.7825 13.3938 6.6984 10.1962 19.1912 21.0744 18.5788 17.5578 21.1128 26.8575 33.9200 39.4581 41.8475 28.4425 20.4306 20.0275 21.2931 18.9969 17.9578 18.1591 18.4347 16.1525 6.7050 4.0000 4.0000 4.0000 4.0000 4.0000 4.0000 4.0000 4.0000 4.0000 4.0000 4.0484 4.3094 4.6691 5.0981 7.4959 9.2569 10.7116 12.1591 12.7638 12.7059 12.6069 12.5087 12.4091 12.3269 12.7013 13.4247 14.2956 14.5103 14.1478 13.2797 12.2853 11.3138 10.7147 11.7206 13.1928 13.8491 13.8150 14.0509 13.6384 13.1163 12.6219 12.1275 11.6328 11.5850 11.6406 11.0016 10.0103 10.1272 10.3016 9.9444 8.8756 7.7909 6.8141 7.8600 8.8138 8.8141 8.2134 8.0769 8.2566 7.7831 7.3000 7.7075 8.3622 8.1831 7.7562 7.9781 7.8012 8.1122 8.5434 9.8691 9.4256 8.4147 8.2341 7.0584 6.6062 6.7650 6.9850 7.2053 7.4253 7.6456 7.8656 7.9984
13.0706 12.9866 13.7216 14.5819 13.5191 13.0103 13.5584 15.1469 16.7066 17.7203 16.4263 15.5531 15.0041 14.1788 12.6069 10.9644 9.9812 10.1737 13.1263 15.2378 12.9003 12.2716 13.2956 14.6756 15.6038 15.6172 16.8337 17.4331 18.0428 15.8319 12.1678 11.5491 11.5206 12.0288 12.8650 14.5588 12.4409 11.1669 10.7891 11.7153 12.0316 12.3816 12.9528 14.4372 16.4856 15.6797 14.8313 14.2856 14.0428 14.0897 14.0381 11.7016 10.9438 13.3178 15.5103 15.9156 15.2169 14.3034 13.8919 13.7656 14.8669 12.7597 10.3906 9.5200 11.7188 15.7319 18.0394 16.6087 12.8184 11.5466 13.4303 15.8588 15.8222 15.7481 15.4616 14.9534 13.8822 14.6237 15.4234 13.4159 10.4203 12.6325 12.6763 12.4125 14.2800 15.9481 16.7309 15.6888 15.8512 15.7303 14.2341 12.9000 14.7694 16.7428 16.0347 15.1178 14.0422 14.7487 17.2834 18.2469 18.5562 18.3722 20.6344 20.2556 17.7013 15.6369 15.2181 17.6656 18.2706 19.2669 19.7444 18.9372 17.5928 17.4119 19.3194 18.7362 14.7172 15.4547 19.5397 20.1891 16.9841 16.0400 18.6341 21.6803 24.8694 26.9819 29.1750 23.8459 19.9656 19.4747 19.9078 19.0884 17.9619 17.6450 18.1978 15.7716 8.2734 4.1825 4.0000 4.0000 4.0000 4.0000 4.0000 4.0000 4.0000 4.0028 4.1219 4.4462 4.8075 5.1672 5.5284 6.7197 8.9216 10.3769 11.7587 12.1038 12.0525 11.9541 11.8547 11.7597 12.0356 12.8409 13.5731 14.4441 14.9672 14.6409 13.2231 12.0894 10.7619 10.9334 12.4719 13.8128 13.7181 13.6500 13.7153 13.5188 12.8656 12.3709 11.8759 11.4216 11.5850 11.4366 10.4547 10.5153 11.0269 11.8309 11.8344 10.7141 9.4094 8.2434 7.8200 6.5862 7.7525 6.6028 7.5819 8.1094 8.0913 7.8416 8.2225 8.5750 8.6297 8.2863 7.9959 8.8716 9.5813 9.7541 9.8419 9.4187 8.9500 8.6300 7.7737 6.5453 6.8072 7.0397 7.2709 7.4994 7.7256 7.9494 8.0828
14.8175 14.3016 13.6559 12.7547 12.0703 11.8337 12.7194 14.0566 16.1253 17.7219 17.5228 16.0706 15.3700 14.0800 12.3466 10.8309 10.7691 10.6794 12.2344 14.6891 12.8462 11.2591 12.0337 13.0900 14.2278 13.5228 14.6075 17.1769 17.8775 14.8628 11.7972 10.6062 11.4103 13.7519 14.6697 13.7553 12.3509 13.1428 14.5141 15.1653 14.4775 13.2641 13.1812 13.9806 15.5116 14.6559 14.3347 14.5506 14.1366 13.5519 14.1716 14.3813 12.0191 12.9231 15.2503 16.2822 15.2784 14.3444 13.5650 14.1000 14.6394 13.5900 12.5731 11.1975 11.1222 12.6441 19.0722 19.6069 15.1259 12.4566 13.5316 15.2356 15.0103 14.2953 14.5694 15.6031 14.3966 14.7072 15.3059 12.9616 11.2594 13.8784 13.0744 11.7894 13.5528 14.9681 15.9028 15.7522 15.0675 14.1081 11.6650 10.7884 13.7037 17.0016 18.3156 18.2919 16.6903 16.7650 18.6066 18.3291 17.5469 17.2728 20.4094 21.1509 18.9631 16.8075 15.9097 18.6625 20.5425 20.9666 20.3566 19.4775 17.6147 17.6056 21.0666 21.6791 18.2991 17.6991 19.2850 18.7797 18.4234 17.4256 17.7675 18.3925 20.4266 22.7319 25.1541 24.6053 20.3937 18.3281 17.7444 18.2838 18.6894 18.3850 18.1731 15.0322 8.7738 4.0097 4.0000 4.0000 4.0000 4.0000 4.0000 4.0000 4.0000 4.2006 4.5831 4.9444 5.3056 5.6669 6.0266 6.4734 8.5075 10.0413 11.2831 11.4441 11.3997 11.3003 11.2016 11.3550 12.1531 12.9897 13.7216 14.5925 15.3259 14.8809 13.5459 12.2075 11.1422 11.6062 13.4691 13.7700 13.2634 13.5181 13.3584 13.4325 12.6394 12.1197 11.6250 11.3375 11.4550 11.1253 10.2128 10.8891 11.3356 11.3766 12.4356 12.7634 10.2300 9.9844 8.4284 5.2197 5.7819 6.7200 8.2634 9.1609 8.5697 8.2559 8.7744 8.6888 8.7547 8.0437 7.2106 7.9103 9.3300 9.1653 9.6809 9.3106 8.9838 8.5478 7.2178 6.2694 6.7131 6.9538 7.1947 7.4519 7.7322 8.0169 8.1562
15.4394 14.6666 13.4178 12.3569 12.2747 12.1587 12.5941 13.2353 14.9950 16.6466 16.4803 15.6309 15.3409 14.1341 11.5212 9.7744 10.6634 11.6975 11.4234 11.7150 11.5084 11.5734 12.0037 10.7441 11.8659 13.2672 14.4150 15.3616 15.4853 12.3088 11.1953 9.2866 10.1294 17.4616 20.3550 14.4706 12.5341 15.3553 18.3309 18.6044 17.3672 15.9597 14.5631 13.8934 14.3816 14.0103 13.8234 13.9131 14.2219 13.0156 14.1309 14.8216 14.3775 13.9066 15.7534 16.6531 15.4519 14.3981 13.4666 13.5403 14.5672 14.3378 15.0275 13.7534 11.8922 11.8784 16.6063 18.4128 16.0541 13.6741 13.1866 14.0175 14.3038 13.4819 14.5075 16.2056 15.7344 15.6000 15.2431 13.5141 13.4925 14.6553 14.2444 13.3294 15.2641 15.2275 15.9012 13.9791 13.6244 14.4237 12.2163 10.5134 12.2847 15.1297 17.0131 17.1684 16.4791 17.3169 18.8678 18.8100 17.3078 19.2256 22.1987 20.7550 17.5706 17.6103 17.9266 19.1588 21.8078 19.8541 16.7041 16.1319 17.3719 19.2609 21.8891 21.9497 19.5459 16.8584 18.6931 19.1509 19.8109 19.6569 19.3531 20.2381 20.9003 21.5872 22.7437 24.1547 22.4525 19.7647 17.8366 18.0531 18.5550 18.5606 18.7075 16.4959 10.6928 4.0050 4.0000 4.0000 4.0000 4.0000 4.0000 4.0000 4.0000 4.1722 4.8141 5.3775 5.8025 6.1650 6.5262 6.8859 7.9525 9.7059 10.7362 10.7837 10.7463 10.6472 10.7000 11.4300 12.3016 13.1381 13.8700 14.7416 15.5894 15.1706 13.9550 12.8881 12.2016 13.1491 13.8081 13.3316 13.0109 13.2403 12.9913 13.2472 12.5816 11.8681 11.3778 11.3025 11.2759 10.6706 10.3053 11.3888 11.7997 11.4328 12.1516 11.1016 9.0409 7.8231 7.8828 8.1812 8.0381 8.9263 10.2003 9.9788 9.2691 8.4372 9.0534 9.1538 8.9109 8.1347 7.3478 7.1566 7.6244 8.7459 9.8422 9.3781 8.7106 9.1006 7.8972 6.7334 6.8478 7.1853 7.5338 7.7797 7.9131 7.9531 7.9688
14.4941 14.3431 13.5244 13.2666 13.6419 13.7572 14.2406 14.6313 14.5219 15.6416 15.1934 14.7503 14.7944 13.8547 11.8672 9.8200 9.7869 10.6672 11.3306 11.1081 11.7194 13.4866 15.1459 13.3334 12.8956 14.6450 15.0366 14.6700 14.6950 13.1228 11.3713 11.6725 11.7837 16.2419 18.6816 13.3416 13.1734 16.2325 18.8322 18.7850 18.2294 17.2769 16.0678 14.7847 14.0275 13.6650 13.2834 13.4075 14.7544 14.1441 14.1350 15.9572 16.1269 15.1344 16.5169 17.0266 15.8150 14.6078 13.5200 12.8056 14.1697 15.0116 16.9741 16.5816 13.9937 13.7166 16.3416 18.8937 17.2216 13.6866 13.3894 14.4263 15.0572 13.9750 13.1244 14.1213 13.7853 14.6931 15.3387 14.8297 14.3684 14.6078 14.7681 14.7244 14.8475 14.0416 12.9319 11.2994 13.1331 16.3034 13.7847 11.4278 13.1381 15.1163 15.5319 15.0703 16.2919 16.9178 17.2612 16.5528 16.3994 21.1712 26.4803 24.8150 19.8416 19.6912 21.9447 20.3950 18.6719 16.6000 13.4975 14.8828 18.3009 20.8884 21.5116 20.4906 20.6003 18.1775 17.7991 18.9109 20.0637 19.8325 20.0728 21.5697 20.7228 20.0559 19.7547 20.6912 21.7087 19.6594 18.5597 18.6597 18.0150 17.7678 18.1984 17.1075 12.9706 4.9228 4.0000 4.0000 4.0000 4.0000 4.0000 4.0000 4.0000 4.0363 4.5591 5.2519 5.9391 6.5481 7.0159 7.3856 7.8406 9.3666 10.1166 10.1237 10.0919 10.0737 10.7075 11.5784 12.4494 13.3416 14.2403 14.8584 15.0503 15.2641 14.1534 13.0675 12.9222 14.0147 13.9831 12.9278 12.9350 12.8847 12.6284 12.9663 12.6459 11.6250 11.1884 11.2247 11.1091 10.2788 10.6938 11.8106 11.9816 11.8984 11.8406 10.5291 9.7625 9.9534 8.7887 10.5981 9.5156 9.3034 9.8541 9.3538 8.9697 8.1347 9.2837 9.6684 9.4575 8.5903 7.7106 7.5050 7.6847 9.5444 10.2319 9.9166 9.1797 9.0731 8.5037 7.2812 6.9531 7.5166 7.5234 7.5497 7.5744 7.5994 7.6172
13.6656 13.7947 13.8313 14.6219 15.0519 15.3088 15.3531 15.1166 14.5806 14.3309 13.5334 13.4203 13.0259 11.7784 11.0631 10.8247 10.2497 10.7028 13.1128 12.6234 14.1050 15.4719 16.0778 14.0375 13.8259 14.1191 13.9250 13.9072 13.9875 13.3684 11.7081 13.2059 14.2141 15.3947 14.4453 13.0075 15.6966 18.5894 18.6616 18.0619 17.6081 17.0250 16.2962 15.3900 14.7819 14.9191 14.1891 13.7087 14.8050 14.6319 13.3897 14.6372 15.8059 16.0912 17.3337 17.4000 16.1891 14.9781 13.7681 12.6672 12.8822 15.0575 16.9822 16.3913 15.8334 15.7784 17.6378 18.7603 17.1006 15.2191 14.3634 14.7000 14.8719 13.4756 11.5694 10.5450 11.2203 12.7094 14.1138 15.2853 15.6684 15.4350 14.8872 14.2219 12.6534 12.2275 11.0616 11.6478 14.6838 16.1022 11.7688 10.9784 13.2209 16.0481 17.4094 15.8038 16.5031 15.7681 15.2047 15.1891 14.9503 18.2341 24.0244 23.2197 24.3956 25.3334 23.1584 20.1219 18.0659 16.0750 15.9722 17.8578 18.7031 19.3053 19.5897 20.0537 20.2256 18.6900 17.7875 18.3025 18.9037 20.6325 22.9881 24.3381 23.2531 21.8972 20.7709 19.4163 20.1228 20.5544 21.9050 21.1419 18.6172 17.9828 18.8253 17.6809 14.6159 6.0984 4.0000 4.0000 4.0000 4.0000 4.0000 4.0000 4.0000 4.0000 4.2941 4.9806 5.6731 6.3644 7.0572 7.7038 8.2172 8.9972 9.4563 9.4637 9.4731 9.9772 10.9447 12.2222 13.3813 13.9347 13.9106 13.8938 13.9972 14.3191 14.2041 13.5156 13.7081 14.6044 14.8816 13.5181 12.7100 12.4897 12.2666 12.6459 12.5725 11.5956 11.0744 11.0806 10.8500 10.1316 11.3866 12.4816 12.2484 11.7369 11.1225 9.9341 9.9084 11.7163 9.8512 8.3850 7.6203 7.1813 8.0772 8.0706 8.2769 8.6600 9.5000 9.9812 9.9909 9.0653 8.0887 7.8831 7.9450 10.0922 10.9788 10.6328 10.0581 9.9647 9.0759 7.7006 6.5250 7.6406 7.5375 7.3400 7.2463 7.2459 7.2625
13.3319 13.7250 14.2369 15.6697 16.1303 15.8050 15.4003 14.9500 14.3922 13.5681 12.6566 12.3325 11.2878 10.5056 10.9678 11.8772 11.2081 10.3350 12.8775 15.5678 16.9556 16.3897 14.3697 12.5672 12.2006 12.5228 13.0822 13.1438 13.2219 13.1934 11.9028 14.2403 16.2794 17.8081 16.8241 16.6616 18.6534 19.3509 18.1706 17.7869 17.0094 16.4312 15.7894 15.5887 17.6562 18.5353 17.5662 16.7138 14.8228 12.7581 12.1922 13.7188 15.6744 17.4203 17.8356 17.6956 16.6194 15.3200 14.1391 12.9644 12.5394 13.1388 14.7416 15.1888 15.8387 17.4188 17.4447 17.1187 17.3559 18.0934 16.4037 15.1503 14.7997 13.7719 12.7353 13.0709 12.5934 12.0513 13.8747 14.6131 15.3325 14.6741 13.3772 13.3009 12.4081 12.8122 12.0819 13.0253 14.6247 13.3881 10.0572 9.7953 11.8687 15.4412 17.1588 15.9587 15.6028 14.1447 15.0475 15.9681 15.1559 17.0584 19.7162 20.8097 24.7247 23.5494 21.0228 25.3625 27.1528 18.3919 18.3275 21.0622 21.8475 21.1250 20.9513 21.8022 18.9406 16.4859 16.6444 17.7072 18.4969 21.7647 23.9013 24.4278 24.5091 26.0825 25.8869 20.2612 18.9597 21.1850 24.9856 22.4106 18.5050 18.3828 18.8950 18.2903 15.5434 9.8778 4.1503 4.0000 4.0000 4.0000 4.0000 4.0000 4.0000 4.0000 4.0991 4.7097 5.4022 6.0941 6.7859 7.4791 8.0472 8.6994 9.5147 9.5894 9.8394 11.4341 12.6428 13.0322 13.0387 13.0706 13.1259 13.1412 12.9788 13.1153 13.5431 13.6397 14.1016 15.1163 16.1541 14.4025 12.9941 12.8094 12.3734 12.3438 12.2878 11.7391 11.3281 11.2809 10.8369 10.2256 12.2866 12.8319 12.1656 11.5112 10.5666 9.4034 10.1403 12.5634 11.9141 7.8916 6.3722 6.3972 7.5328 9.0184 10.4875 11.0087 9.5725 9.3284 10.0516 9.6322 8.6084 7.9297 8.2472 9.9303 11.0594 10.6247 10.5750 10.6178 9.6722 8.4747 7.8403 8.7153 8.5091 8.1697 7.8247 7.2866 6.9219
14.4347 14.4628 14.2041 15.1594 15.7638 15.1619 14.6019 14.0813 13.5188 12.7772 12.9431 14.1078 13.7791 11.2316 10.5744 13.3881 12.4469 11.0409 15.6709 20.9281 17.4338 14.9709 12.4113 11.5909 11.3384 11.7662 12.1803 12.3241 12.4419 12.5428 12.0653 14.2297 16.8297 18.7900 17.9556 17.1553 18.6578 18.8888 17.5963 17.5250 16.8256 16.0106 15.3344 16.6809 18.8512 18.9737 19.5891 17.3347 13.7831 13.1094 13.8922 15.4419 16.6759 17.2881 16.1206 16.0903 16.5684 16.2491 14.8619 12.9738 13.2544 12.9566 13.6156 14.2672 15.0500 16.6284 16.2725 15.8600 16.6347 16.9022 14.9575 14.7256 14.8444 14.7222 14.3850 15.2344 14.7659 14.5431 15.3216 14.6678 13.9250 12.6300 11.2325 13.4619 14.1075 13.6041 11.7206 12.2891 13.0550 12.1622 10.2622 9.5309 11.0991 15.5331 17.2625 16.5528 15.4328 14.9056 15.4506 16.3156 16.6012 17.8994 18.0684 17.2772 18.4897 19.2138 20.0912 28.6059 35.1078 23.6838 17.7047 21.0766 23.4534 24.9372 24.6244 23.0012 19.8031 16.0447 16.3028 18.4559 21.5222 22.3216 23.8062 22.0000 19.7406 22.0222 21.5494 20.1244 18.8453 19.0875 22.4906 20.9966 17.7019 17.3481 18.6347 19.7106 17.9325 14.9766 6.9709 4.0000 4.0000 4.0000 4.0000 4.0000 4.0000 4.0000 4.0094 4.4400 5.1309 5.7984 6.2234 6.3203 6.2422 8.2334 10.0450 11.0881 11.7441 12.2172 12.2472 12.2769 12.3116 12.3344 12.2497 12.0716 11.8928 11.9869 12.3672 12.5897 13.6491 14.8409 16.0287 15.2463 13.7812 13.3031 12.8212 11.8209 12.0809 12.4444 12.2706 11.0800 10.8466 10.3634 12.0406 12.3050 11.8916 11.2094 10.5475 10.6747 11.0369 11.2416 11.0369 10.3813 7.9631 7.7731 8.0891 8.6966 10.6106 10.0091 8.4047 8.3425 9.0772 9.9672 9.3328 8.4097 9.2322 10.5772 10.2209 9.7572 10.3006 10.2706 9.6447 9.7638 10.3103 10.8112 9.9691 9.4297 8.7662 7.2475 6.7125
14.8950 14.7325 14.4159 14.5072 15.1300 14.5000 13.8387 13.2188 12.6469 12.6062 13.7587 15.0641 15.5244 10.6191 10.3200 13.2587 13.2603 13.2037 16.6262 19.3691 13.8725 11.1412 11.7966 11.8691 11.6234 11.7969 11.9878 12.0000 11.9953 12.0609 12.2853 13.3069 15.2628 16.3619 16.0888 15.7544 16.5422 16.4922 16.9169 17.1175 16.7013 16.0041 15.5897 16.4278 18.4681 19.0059 18.6694 16.0037 14.9825 15.1334 15.7675 16.8106 17.4391 17.0097 15.7259 15.1287 15.4534 15.8972 15.8406 12.5244 11.0256 11.2431 13.1209 14.9569 16.2509 16.3491 15.9928 14.6100 13.9331 14.8462 14.6306 15.0178 15.4309 15.6044 15.6609 16.2572 15.2137 14.9034 14.2825 15.1431 15.6172 15.1594 12.9300 12.8278 14.0291 12.8941 11.4884 11.2266 11.8541 10.9481 9.8737 9.9116 11.2078 15.4441 17.4778 16.9203 14.9131 14.6656 16.3697 16.9044 16.3731 16.5678 17.1600 17.4922 17.3900 16.9528 19.4403 28.9237 37.1031 24.4341 17.1706 18.6272 19.7950 22.2397 23.9134 21.3269 18.5647 17.2909 16.9163 20.4759 22.3106 20.8169 21.2531 19.6528 17.2359 18.3953 20.2172 23.1069 21.2391 18.5134 19.1894 19.2800 17.5816 17.2741 18.7766 19.5837 18.0047 13.6253 7.9237 4.0988 4.0000 4.0000 4.0000 4.0000 4.0000 4.0000 4.0000 4.1528 4.5106 4.6456 4.7459 4.8778 5.2819 8.3397 11.4859 11.8834 11.3900 11.4375 11.5053 11.5522 11.4766 11.3144 11.1641 10.9856 10.8066 10.8625 11.1600 11.9216 13.1644 14.4091 15.6009 15.8916 14.6031 14.0169 13.2022 12.4181 12.7584 13.4466 12.6938 11.2338 10.5416 10.4581 11.2013 11.3125 11.4738 11.3897 11.2969 11.1131 10.8025 9.9450 9.5803 10.6075 9.6572 9.5562 8.9006 9.9191 10.6803 9.1184 8.8672 9.2675 9.2866 9.3950 9.7922 9.0947 9.1047 9.5100 9.2803 9.1103 9.6709 10.2972 10.0306 10.6922 11.6222 12.5456 11.6072 10.2400 9.3222 7.2694 6.1609
15.0078 14.9987 14.6356 14.2281 14.4981 13.8656 13.2131 12.6666 12.4225 12.6616 13.2906 14.3881 14.8156 10.6900 11.5941 12.7616 12.5391 12.5731 14.6303 13.5913 11.5463 11.8606 13.1219 12.3584 11.9137 11.9441 11.8897 12.0672 12.4209 12.8375 13.2878 13.6472 12.7775 13.4053 14.5831 15.4028 15.9963 16.2441 16.3328 16.5416 16.2806 15.9531 15.7709 15.9766 16.3469 17.1497 16.0016 15.5969 16.0344 16.3906 16.6437 16.6400 16.7334 16.8600 17.4988 15.3419 14.9906 15.6022 15.0406 12.2034 10.6275 9.1234 10.7897 14.3622 15.1625 15.4066 16.0562 15.1075 13.7209 14.6481 15.6031 16.2178 16.2138 15.0722 15.3334 16.7919 15.4547 12.7394 12.7844 14.3947 16.7747 16.3944 13.5381 13.0247 13.2119 11.3206 11.5028 11.0925 11.7556 10.8641 10.5375 10.1488 11.1062 12.1938 14.5188 15.2259 14.2238 13.7584 14.2416 14.2356 14.4619 15.8006 15.3797 16.1431 16.6353 17.0269 18.0353 20.9069 24.3059 18.6784 15.8728 18.4653 18.6544 19.9263 23.6641 20.8416 18.3922 17.9088 18.2862 20.5494 20.3450 19.1162 18.7241 16.0941 15.9059 18.6984 25.2738 28.9519 26.2084 21.2809 17.5209 19.0837 18.3219 16.9928 19.9434 20.4116 18.4287 14.0341 8.8837 4.0000 4.0000 4.0000 4.0000 4.0000 4.0000 4.0000 4.0000 4.0000 4.0084 4.0675 4.1491 4.2525 5.5856 8.4097 10.8313 11.3616 10.4809 10.6328 10.6694 10.7103 10.5966 10.2903 10.0925 9.8997 9.7203 9.7294 10.2425 11.4350 12.6797 13.9244 15.1681 16.1122 15.4109 14.6572 14.5394 14.6347 14.5641 14.4334 12.8525 11.4228 10.6159 10.1725 10.3588 10.7066 11.1306 11.3359 11.0341 10.6556 10.2756 9.8528 8.0562 8.9472 10.1300 10.4791 9.3581 10.7566 10.5600 9.8462 9.7994 10.6997 10.3106 10.3397 9.8156 9.7081 9.5128 9.6034 9.8322 9.5703 9.6606 10.1187 10.4234 10.9697 11.2666 11.8716 11.7772 10.9394 10.3169 8.7556 8.0109
14.8250 15.2425 14.8550 14.3466 14.0041 13.6344 13.3775 12.9844 13.4422 14.0312 13.3934 12.9969 11.8431 10.8916 13.6828 15.2619 14.8172 13.5541 13.2247 13.3866 13.6828 14.0722 14.8666 13.3231 12.2384 11.6528 10.4331 10.8125 11.5066 12.2638 13.5391 13.5903 11.4184 11.3600 12.8053 13.9706 14.8647 15.4694 14.8506 15.1659 15.1194 14.3331 14.0750 14.9803 15.6575 14.7603 14.9388 15.9069 16.3331 16.9575 17.2328 16.5131 16.6484 17.6669 17.8884 15.5156 13.4697 13.3025 13.8456 12.5797 11.3059 10.3994 11.3681 12.7634 14.4888 15.8531 16.8472 15.9125 15.2019 14.6237 15.2075 15.7788 15.1850 14.3756 14.4234 15.3022 15.0334 13.4600 12.2816 13.3663 15.9228 15.3306 12.5591 11.5938 12.1081 11.0331 10.3322 10.4281 12.3241 10.8719 10.7963 9.4803 10.0128 11.9934 14.4291 15.4284 16.3150 16.0647 13.5484 10.9134 11.9288 13.3131 13.0800 14.9759 15.9784 17.6047 18.0509 19.4509 19.6309 18.0688 16.5278 18.2844 19.1591 19.4475 21.9297 19.7275 17.7053 17.9041 19.7034 22.9419 22.4675 21.1303 18.6531 16.0709 15.4338 17.6831 23.8925 28.8378 29.1388 23.4547 20.0247 18.7959 17.2544 16.1425 20.2409 20.8881 17.7816 14.5306 9.4494 4.0722 4.0000 4.0000 4.0000 4.0000 4.0000 4.0000 4.0000 4.0000 4.0000 4.0000 4.0000 4.0003 5.1984 7.2016 8.6144 9.1484 9.8363 10.4116 10.6553 10.8878 10.8144 10.1859 9.6041 9.0556 8.6866 8.6734 9.7031 10.9400 12.1781 13.4137 14.6438 15.8606 16.0159 15.5359 15.7531 15.5778 15.0238 14.4678 12.6184 11.5631 10.8988 10.5428 10.4359 10.3741 10.2712 10.0456 10.0741 10.0034 9.7456 9.5706 9.2081 8.9809 11.2388 13.1781 11.0503 10.9406 10.9397 10.5072 10.8366 12.1584 11.6328 11.3844 10.4878 9.9766 9.9756 10.2341 10.3766 10.6316 10.6756 10.9034 11.0147 11.3547 11.5550 11.8706 11.9828 11.2778 10.4425 9.6025 9.4156
14.9637 15.6419 15.9850 15.0413 14.0316 14.1678 14.0437 13.0594 14.6259 15.9319 16.5312 15.7272 11.1950 10.4144 12.9987 14.0309 13.4381 12.3853 15.3856 15.6028 15.8650 16.1078 16.2622 14.7825 13.0034 12.2941 9.9091 10.2612 11.1362 12.7766 14.7881 13.8450 12.2897 11.5259 10.2194 10.6825 12.5212 13.9169 14.0800 14.7278 14.7278 13.6472 11.9891 12.8225 15.5200 16.2594 15.8625 16.2638 16.5169 17.9888 17.9550 17.0491 16.2991 17.1828 17.1963 15.4762 14.2322 13.2344 13.2153 14.4712 12.0231 12.0272 13.4691 14.4113 15.1462 16.4434 17.2791 17.2362 17.2769 15.1172 14.4909 14.8834 14.3503 13.6753 13.6034 13.6962 13.7406 14.3231 14.0087 13.3247 14.2631 14.2100 12.5159 9.7863 9.6850 10.8434 6.8541 7.5425 11.1394 11.9544 11.4762 8.2662 9.2291 12.8834 15.9909 15.5141 17.4644 17.7291 15.4144 11.8562 10.5450 11.4012 13.3988 15.1391 16.2547 17.5922 18.0166 18.5341 16.9653 16.3538 16.7725 18.6287 19.6691 20.2966 21.3706 19.8422 16.5422 17.5163 20.3219 22.3866 22.2728 20.9328 17.1297 15.8394 16.6853 18.8322 22.0322 23.5662 22.9181 19.5969 19.9813 18.2178 16.7316 15.6225 17.5044 19.8741 17.6637 14.7381 11.7706 4.3869 4.0000 4.0000 4.0000 4.0000 4.0000 4.0000 4.0000 4.0000 4.0000 4.0000 4.0000 4.0000 5.1659 6.9387 7.6150 8.1462 9.8809 11.0366 11.3369 11.4794 11.3756 10.9922 10.3359 9.5494 8.7678 8.4247 9.3975 10.4722 11.5675 12.6800 13.8088 14.9519 15.3878 15.6456 15.9622 15.3628 14.8803 13.8175 12.2619 11.6975 11.3747 11.6197 11.5869 11.2209 11.0669 10.7553 10.0822 9.4462 9.1603 9.5728 10.3972 10.2206 11.4750 13.6691 12.5384 11.3156 11.2516 10.7188 11.1141 13.0372 13.1884 12.1213 11.0428 10.2300 10.6491 11.0441 10.9441 10.7178 11.0387 11.4306 11.5400 11.8022 12.0572 12.0881 11.7150 10.8316 9.9784 10.0112 10.3984
15.7025 16.7778 17.1206 15.5719 13.8800 13.2863 13.1153 12.5922 14.0778 15.2688 16.0088 15.3013 12.5887 12.2413 12.0125 12.3431 12.7694 13.9766 17.0834 15.4028 15.3606 15.2078 15.0334 14.8475 15.3241 12.9378 10.4694 10.4081 11.8416 14.0344 15.6909 14.8478 14.5878 15.1547 12.8956 9.4422 10.4222 13.0375 13.3684 14.0644 14.3784 14.3756 12.3928 11.6912 13.0984 16.4847 17.8113 17.1822 17.5000 19.0169 18.6141 17.3444 15.9241 15.4919 14.4700 14.2397 14.1587 13.1912 13.3928 17.2938 17.6781 14.9628 14.2697 14.4481 13.8875 14.4075 16.0656 18.0731 18.6338 15.9000 13.8850 14.7150 14.4509 13.5612 12.9147 12.3425 11.1331 11.9700 13.6497 13.8144 13.4703 12.6981 12.5078 10.6775 6.9844 10.1172 6.0963 7.3172 11.7709 13.3744 12.4831 10.1434 10.3819 14.4031 17.4116 16.0400 17.6488 17.3719 14.4934 11.6800 11.1953 11.8916 11.6637 11.4841 15.5800 16.9513 17.0272 16.4331 15.5769 16.1666 16.4591 18.1947 19.5475 19.9341 19.9997 18.8678 15.5809 17.8069 23.2441 22.4937 19.0459 18.8006 18.3294 17.9991 19.0844 20.1416 20.3937 21.4531 21.4750 19.4350 19.1672 19.1509 18.0109 15.4325 15.0506 17.4341 17.9094 16.1884 12.1950 4.6213 4.0000 4.0000 4.0000 4.0000 4.0000 4.0000 4.0000 4.0000 4.0000 4.0000 4.0000 4.0000 5.0841 6.1247 6.6075 7.8928 10.0200 11.3916 12.0044 11.9916 11.8734 11.7103 11.1544 10.3666 9.5434 9.0028 9.5262 10.6112 11.7116 12.8069 13.8991 14.9575 15.0228 15.2494 15.5431 15.2556 14.6141 14.0959 13.6362 13.1841 12.2303 12.6503 13.2584 12.7769 11.6653 11.3203 11.5825 11.1587 10.2044 10.3550 10.9734 11.4328 11.7750 11.8116 11.3709 10.8281 11.1256 10.7047 11.8575 13.4597 12.8825 12.7941 11.6466 10.7863 11.4913 11.8287 10.9597 9.4841 10.7137 11.7894 12.0519 12.2478 12.1828 11.8384 11.3997 10.4875 9.7222 10.1978 10.6500
13.7525 14.6559 16.6709 15.8594 14.5116 12.3631 11.2731 11.4709 13.4081 14.6781 15.1772 13.6522 13.0538 13.5972 11.1219 10.4269 12.0397 12.3581 12.7963 13.1325 13.2919 13.3159 13.0609 12.7384 12.9997 12.8022 12.1316 12.2872 13.3084 14.5600 15.4916 14.3978 14.7334 15.3450 14.6109 10.9663 11.7725 13.6478 13.6269 13.3859 13.9175 14.5087 13.9434 14.1153 14.2028 14.9875 16.6547 18.2025 18.5506 19.4053 18.2128 16.3891 15.2887 15.3884 14.8794 14.6931 13.8100 13.0403 14.6906 17.2506 17.5559 15.8956 14.3447 12.9419 12.5706 11.5300 13.6803 17.8059 19.2512 16.9022 14.7788 15.0744 14.6841 14.4900 13.2659 11.7253 9.9834 12.0444 13.1931 12.9091 12.1103 12.4997 12.3206 11.6009 8.9434 8.9269 6.7659 6.2337 11.1159 12.3666 12.0844 11.2388 12.6462 14.6725 14.9147 15.4009 16.7700 16.9528 14.6553 11.5056 11.2594 11.7975 9.6516 9.5238 13.8806 15.5466 15.7159 15.1803 16.6500 19.4159 18.6756 18.8137 18.2256 15.7388 15.6344 17.7384 17.9103 18.4975 20.7150 17.6209 15.3606 18.8716 22.2556 21.9122 22.3378 21.1353 20.1981 19.4453 21.0906 20.0491 17.9059 19.2031 19.4016 16.8288 15.2747 16.5981 18.4819 18.7547 14.9772 7.4225 4.0000 4.0000 4.0000 4.0000 4.0000 4.0000 4.0000 4.0000 4.0000 4.0000 4.0000 4.0000 4.5603 5.1228 5.8316 8.0850 10.1466 11.4625 12.1641 12.3131 12.3378 12.2594 11.9491 11.1894 10.6353 10.2184 9.8197 9.9494 10.9250 12.0491 13.1734 14.2947 14.4734 15.1859 15.1862 14.6081 13.4722 13.7559 13.5319 13.2931 13.2459 13.9544 14.5391 13.0956 11.2784 11.1831 11.9119 12.0409 11.8325 11.8625 11.7906 11.6722 11.5669 10.6197 9.1116 9.1325 10.2825 11.1141 12.7372 13.1925 11.8056 12.2847 11.8478 12.0994 12.8559 12.5481 11.5188 9.2259 10.1541 11.7662 12.5122 12.4350 11.9406 11.5503 11.0747 10.5453 10.2994 9.8500 10.2422
11.8438 11.2825 12.2413 14.9319 15.5291 14.7831 14.0319 12.4884 13.2097 14.6272 14.2241 13.4028 11.7372 11.3209 9.4709 9.2587 8.9125 9.7950 11.4631 12.3484 12.7191 12.8737 12.9116 12.6038 12.2856 12.8647 12.9372 13.8153 14.8803 15.4403 14.2594 13.2825 13.9494 14.8406 14.8434 13.2950 13.2781 13.8350 12.5500 12.4016 13.4197 14.4006 15.9809 18.4028 18.6600 18.3291 17.1987 17.1838 17.2334 17.4850 16.8619 14.9828 14.1613 15.3253 16.8072 16.0362 13.7869 13.1000 14.1797 13.8325 14.4172 14.6103 13.7375 12.6347 11.4859 10.5181 13.2525 17.5269 17.6894 16.2766 15.9409 15.8159 15.7025 17.0534 15.5309 12.5081 8.8047 11.0900 12.9219 13.1503 12.0566 13.0034 13.0125 11.6631 11.6206 12.8916 11.6050 9.2700 12.2328 12.4563 11.1200 10.4156 11.7141 13.1656 13.2216 14.3991 15.2022 16.0341 14.6919 12.7503 12.2669 14.2537 13.2700 13.5138 14.6450 14.9509 15.1766 14.4616 15.8272 19.4259 21.4866 20.4103 18.2928 16.4459 16.9044 18.0116 19.9387 19.7588 19.0622 17.5350 15.2622 16.4116 18.3825 21.8225 24.4509 22.7634 19.9666 17.5203 20.5584 21.3237 18.9541 18.2009 19.0578 17.4222 17.2403 18.8784 20.4309 20.1794 17.2738 11.0631 4.4778 4.0000 4.0000 4.0000 4.0000 4.0000 4.0000 4.0000 4.0000 4.0000 4.0000 4.0000 4.0575 4.5075 5.7175 8.3181 9.9722 10.4969 10.8828 11.2719 11.6687 12.0503 12.3141 12.2428 11.9575 11.5703 11.1531 10.7366 10.5181 11.1866 12.3016 13.4259 13.8316 14.9734 15.2406 13.7444 12.4309 13.1991 13.0353 12.7875 13.2275 14.2203 13.6600 12.0481 10.2550 11.1172 13.1847 13.1763 12.3819 11.9066 11.7756 11.6750 11.5734 11.2672 9.5359 11.0853 11.6800 12.1775 13.5300 12.0816 11.0275 12.4559 11.0794 11.5297 14.0325 13.0425 10.9684 9.2638 9.2684 11.3797 11.8147 11.4459 11.2634 11.0222 10.9906 11.8025 11.2344 9.8628 9.8578
10.0766 8.2022 8.6416 12.3969 16.1091 16.5987 15.3250 12.9931 12.8419 14.6412 14.8134 13.8175 12.5309 12.6016 12.0562 11.1450 10.3672 11.7278 12.2634 12.2188 12.6003 12.7228 12.7569 12.6153 11.9006 11.8884 11.7900 13.6631 16.0259 15.4356 13.9794 13.9213 14.7288 16.3675 15.6872 13.0894 12.2059 12.9816 11.4709 12.5856 13.4656 14.3478 15.1488 17.4525 17.9544 17.4053 15.5003 14.6403 15.2959 15.6091 15.4987 14.4172 13.8013 14.0325 16.0644 15.8003 14.8809 15.0872 14.0884 11.8634 11.8337 14.5397 15.5478 13.8212 11.3925 10.7722 14.6644 15.8509 14.7531 14.7706 15.1772 15.5575 16.5284 17.6125 17.1706 14.3094 9.9513 10.5241 12.2034 12.9553 13.8225 14.0984 13.6584 11.9597 12.7309 13.3975 12.9525 13.2469 14.2609 13.5306 11.7150 10.6716 11.0281 12.1947 12.8266 13.6088 14.4475 14.2747 13.0369 12.8650 13.0106 15.1716 14.6512 14.3872 14.4625 14.1187 13.6594 13.4281 13.9641 16.9525 18.6822 17.7656 17.2038 17.5953 18.2094 17.5737 18.0447 18.6022 19.9484 20.1819 16.7337 15.8200 17.4309 21.3103 30.0119 26.8453 21.3006 20.2456 20.3509 18.6456 17.5381 17.4297 18.9716 19.1750 19.6278 19.9494 20.9250 20.2150 16.8291 14.3822 5.6947 4.0000 4.0000 4.0000 4.0000 4.0000 4.0000 4.0000 4.0000 4.0000 4.0000 4.0000 4.0047 4.4566 5.4397 7.9628 9.3281 9.7575 10.1831 10.6097 11.0387 11.4537 11.8878 12.3034 12.3203 12.2906 12.1866 11.9772 11.6587 11.2906 11.5284 12.5541 13.2725 14.6056 15.4775 12.7750 11.5225 12.5744 12.5597 12.4256 13.1187 12.8859 11.8181 10.7034 10.2881 12.1225 13.8297 13.7728 13.3109 12.6097 11.9381 11.6812 11.5803 11.6172 11.0794 11.8428 11.7288 11.3044 11.9613 11.5778 11.0859 12.2484 11.7294 11.2362 13.6756 12.2959 9.6041 9.7169 9.0825 10.3797 10.1522 9.6538 9.5916 9.4137 9.8006 10.5984 10.8681 10.2672 9.9172
9.2606 7.7731 8.7853 11.4334 15.0087 16.3731 15.4591 14.0803 14.6141 15.2225 15.8188 15.0172 15.7594 15.1009 14.3953 15.4459 15.0691 13.8581 12.8466 12.6619 12.4987 11.9263 11.4369 11.0325 10.8000 11.5659 11.9484 14.0616 16.3037 16.6787 15.8594 15.8272 15.7431 15.4347 13.8263 11.7306 10.1547 10.9778 10.5966 11.2147 12.4359 13.3581 14.0706 13.4628 13.7094 13.6975 11.5016 11.5734 14.2853 14.9941 15.2025 14.5728 13.9719 13.5797 14.5700 14.4325 14.7522 15.7991 14.2381 11.3494 11.4484 13.1878 13.9963 13.9519 13.2803 12.9406 13.9000 13.9012 14.4153 15.6472 16.9250 15.4809 15.7875 15.9628 15.5184 13.8413 12.2916 12.3453 13.6594 13.9722 15.0178 14.6613 14.2478 13.6703 13.6922 11.3747 10.9684 13.2266 16.3891 15.4097 11.9697 9.8975 9.8138 12.4688 13.1169 13.6419 14.2394 13.9909 13.4544 12.8197 11.5409 11.9353 13.4253 13.6438 14.0700 14.8728 13.4200 12.2188 14.0191 16.0881 16.5934 16.8013 17.9906 18.3266 17.7928 16.6572 16.2066 17.5328 20.2584 20.6525 18.0387 19.2488 19.9356 21.3784 29.4959 28.0103 19.7028 21.0806 22.3041 17.7341 15.4559 17.1731 20.5059 20.9222 19.2203 18.1325 17.8500 18.3472 16.5122 12.9953 6.0694 4.0000 4.0000 4.0000 4.0000 4.0000 4.0000 4.0000 4.0000 4.0000 4.0000 4.0000 4.0044 4.4528 5.0684 7.3150 8.7781 9.2037 9.6328 10.0597 10.4850 10.9441 11.4078 11.9556 12.2078 12.1875 12.1641 12.1416 12.1187 12.0769 11.9419 11.9744 12.7572 14.1219 15.3506 13.0344 10.9634 11.8903 12.1444 12.1888 12.1341 11.3228 11.1272 11.5972 12.1578 14.1794 13.6597 13.5806 13.5041 13.1150 12.6294 12.0319 11.6191 11.6819 11.6031 11.4462 11.3156 11.3216 12.0350 11.6000 11.1859 12.1103 12.0956 12.4794 14.3944 12.1006 9.4647 10.9275 9.9406 9.8609 10.0097 9.5153 10.6700 9.7334 9.4884 9.5197 9.0403 9.9672 10.8859
8.8028 8.3547 9.1441 9.6209 13.3112 15.7228 15.4784 15.8128 15.5994 13.6425 14.7481 15.6081 16.7744 15.8550 15.8116 16.2403 16.1313 14.7316 13.2291 12.9616 12.8984 12.0909 11.2706 10.5078 10.8331 13.3009 15.2044 16.0322 17.2141 18.3075 15.6959 13.5063 11.1200 9.7269 10.7219 10.4134 9.6088 11.1172 11.1984 10.2716 11.0750 12.0459 13.4153 13.6962 13.7247 10.7806 8.0956 9.9300 14.2397 15.2587 15.6784 14.9034 13.7506 13.4250 14.4819 14.3263 15.4244 16.0303 14.6325 10.5350 12.0153 13.3737 13.8116 14.2009 14.2897 14.3656 13.8231 14.7656 15.6525 16.9306 17.9694 14.7188 14.3778 14.6675 15.0875 13.8125 13.2725 14.0291 15.3650 15.7841 15.6313 14.9150 14.7066 14.9028 13.9344 12.0638 11.9769 14.5306 16.9900 15.5350 12.2522 10.3059 9.7597 12.9347 13.5538 14.1478 14.7600 14.7672 14.0847 14.1800 12.8956 11.7522 10.6059 12.4100 14.7575 14.8725 14.6278 13.1766 14.6928 17.1794 17.0688 17.9294 18.8741 18.1763 17.2725 17.4894 15.8687 16.1516 19.2778 19.4691 18.5306 20.1725 19.4028 19.8334 24.7072 22.7344 19.3997 20.0728 21.6122 18.6581 16.3725 17.8125 20.3694 20.4366 18.5244 17.2094 16.4997 17.6975 17.3444 13.9122 9.2469 4.1747 4.0000 4.0000 4.0000 4.0000 4.0000 4.0000 4.0000 4.0000 4.0000 4.0000 4.0031 4.4472 4.8003 6.6678 8.2266 8.6547 9.0800 9.5078 9.9513 10.4628 10.9278 11.4816 11.9834 12.0772 12.0544 12.0312 12.0081 11.9853 11.9625 11.9400 12.1519 12.6216 13.2569 13.9591 13.3356 11.5022 11.7181 11.8272 11.7212 12.2841 13.1109 13.9050 14.6713 14.2175 13.3103 13.3184 13.3269 13.2281 12.8253 12.3750 11.9175 11.6012 11.7244 11.6897 11.6200 12.0328 11.7662 11.3150 11.0350 11.1506 12.0228 11.3375 12.0244 10.9475 10.5494 11.5534 11.0047 9.7009 10.3650 11.7803 12.1884 11.0109 10.9147 10.3091 8.3725 10.5619 11.6328
8.2031 7.3894 7.0309 7.5256 11.0356 13.6797 14.5509 15.7894 16.2353 14.8956 14.9731 15.1053 15.5722 14.8294 15.8988 16.6906 16.9925 15.8434 13.8897 13.2781 13.3441 12.7381 12.7544 13.3266 14.1650 15.0819 15.2837 16.2425 17.5972 18.8981 15.7212 12.1844 10.7644 9.4131 10.7628 13.2891 15.0284 16.4681 15.0188 12.7516 12.0147 10.5506 11.2566 12.8309 13.9609 11.0853 9.8119 13.3984 16.6391 16.4159 15.9666 14.4444 12.7825 14.2084 12.3897 12.3019 14.9253 14.8781 13.2575 10.1119 11.4794 14.2953 14.5409 14.7909 15.6781 15.1603 15.3975 16.2763 16.1056 15.8313 14.9059 13.4541 13.5872 14.7156 16.1978 14.7269 14.2394 15.1441 15.2487 14.7766 15.1916 15.4272 15.6925 15.5878 14.7959 13.7009 14.0466 14.4163 14.0691 12.9084 11.4934 11.2706 11.1187 11.9762 13.6637 14.4834 14.8716 14.8991 14.1266 13.9062 9.6975 8.0916 8.7625 13.0787 17.1750 14.9684 15.3172 15.0947 15.5703 17.3612 17.9528 18.1787 17.7169 17.0819 18.3838 19.1663 16.9253 17.0309 18.6213 18.3466 18.2850 18.6525 18.0138 18.5919 20.4975 20.2869 19.9434 19.8781 19.7203 18.8659 18.5713 19.2900 20.0741 20.8078 18.8697 17.8603 17.3175 17.0544 15.9278 14.4012 12.2616 7.6609 4.2375 4.0000 4.0000 4.0000 4.0000 4.0000 4.0000 4.0000 4.0000 4.0000 4.0028 4.4275 4.6425 6.0206 7.6747 8.1016 8.5306 8.9575 9.4509 9.9822 10.4478 11.0016 11.5550 11.9397 11.9438 11.9216 11.8984 11.8750 11.8525 11.8500 12.1122 12.5009 12.9331 13.3647 13.6834 12.3050 11.9969 12.1606 12.2916 12.4128 12.5541 12.8994 13.4950 13.1266 13.0481 13.0566 13.0647 13.0728 12.9506 12.5356 12.0856 12.1388 12.0112 11.9937 12.0944 11.9341 11.5081 11.1131 10.7288 10.7166 11.3681 11.6153 10.5150 10.1578 10.8978 10.4425 9.5928 9.9384 10.2494 10.8541 12.0809 11.6550 10.5716 9.4137 9.0056 10.5219 11.0125
8.3853 7.4891 6.1469 7.5647 9.0981 10.0884 12.6556 15.4394 17.2625 17.4041 15.8322 14.4137 14.5506 15.1500 16.5837 16.3137 16.3128 16.0184 13.4975 12.6619 14.1888 15.0856 15.9453 16.7806 16.9041 15.8275 15.0050 16.4003 17.5578 17.0037 14.1728 13.4369 11.7719 10.4950 15.1428 19.5303 20.9469 18.7081 16.4766 14.5681 13.6562 11.9559 11.5162 11.9044 12.9159 12.3159 13.0928 14.2528 15.6572 13.3597 12.6697 12.3638 12.2431 10.4675 8.1141 8.2931 9.5903 10.3888 10.9106 10.5059 10.2478 11.5181 13.9928 15.6866 16.2972 15.4684 15.0522 15.0903 15.6925 15.1466 12.5209 13.5794 15.1966 16.5906 16.8844 15.9172 15.1972 15.3031 14.1375 14.0900 14.9081 14.6856 15.5353 15.5647 16.3234 16.6028 15.3538 12.8912 12.4300 13.4653 13.2100 13.9606 13.7081 13.0091 13.7531 15.5700 16.1503 15.0109 12.9309 11.8013 6.0628 2.2647 9.0044 16.1931 17.2897 14.0341 17.2906 16.6834 14.0097 14.9941 17.6569 19.2188 17.5284 16.5534 17.1678 17.8109 17.6594 18.0253 18.1041 17.9503 17.7522 17.0022 16.9781 18.5169 18.0628 17.7109 19.2119 18.5134 17.6422 17.4853 18.4850 19.7447 20.1356 19.1269 16.9753 17.7209 17.7450 15.5966 15.3366 16.2556 15.5112 11.8378 5.6472 4.0309 4.0000 4.0000 4.0000 4.0000 4.0000 4.0000 4.0000 4.0000 4.0016 4.3978 4.5459 5.4237 7.1256 7.5512 7.9772 8.4288 8.9706 9.5025 9.9672 10.5209 11.0750 11.6184 11.8331 11.8109 11.7881 11.7653 11.7422 11.7837 12.1088 12.4325 12.8644 13.2966 13.2866 11.8988 11.9681 12.3350 12.4800 12.6250 12.7697 12.9144 12.9187 12.9516 12.9397 12.8653 12.8225 12.8119 12.8181 12.6703 12.3084 13.2159 12.5431 12.2878 12.1044 11.7016 11.3059 10.9109 10.5153 10.2641 10.5369 11.0716 10.6866 10.3044 9.5628 9.3000 9.7606 10.2381 10.6728 10.3403 10.8878 11.2612 10.7369 10.5188 10.8275 10.7197 10.6422
9.1566 8.0403 7.0012 6.9997 7.8644 10.3503 13.0300 15.7250 17.1903 16.9675 14.2297 13.1575 14.3300 16.0881 16.0291 14.6147 14.4397 14.2075 12.8597 12.5406 13.7388 14.6378 15.3847 15.8475 15.9566 15.4637 15.8434 17.4713 18.0269 15.3700 14.3059 13.1044 11.3003 11.6869 17.7797 22.0609 20.4050 13.8741 12.9187 12.5328 13.4931 14.2594 15.0397 14.4144 13.1931 12.9284 9.9444 8.3934 9.9209 8.5966 8.9822 10.1284 10.2106 8.7781 8.0000 8.0000 8.0928 8.3419 9.1156 10.2984 10.2091 10.1497 14.1028 15.7262 14.9631 14.4422 13.8650 13.6625 14.9456 15.4631 14.7119 15.6041 16.6466 17.0025 16.7306 16.3744 16.0625 16.7547 15.5363 13.8434 13.8050 12.7616 14.3553 14.8153 15.8328 17.3591 17.4594 14.9944 14.5166 15.9766 16.3925 18.5362 18.2097 15.9200 15.8753 18.6316 18.4466 15.4156 13.2422 11.3094 9.8759 7.0675 9.0238 13.2194 13.4081 19.1800 30.7884 26.0078 18.3972 18.2087 18.2134 18.2378 17.0850 16.2569 15.5509 15.0375 16.3947 17.6362 18.0000 17.4237 16.4587 17.0044 16.9609 18.5047 18.3878 18.5194 19.0631 18.2259 16.0866 14.9012 17.4531 20.9513 20.5244 17.3503 16.0766 17.7356 17.9338 15.9316 16.2316 17.2941 16.8237 12.4284 5.6372 4.0000 4.0000 4.0000 4.0000 4.0000 4.0000 4.0000 4.0000 4.0000 4.0012 4.3553 4.4478 4.9391 6.5622 7.0000 7.4309 7.9366 8.4903 9.0219 9.4872 10.0409 10.5947 11.1484 11.6322 11.7016 11.6781 11.6547 11.6325 11.7419 12.1409 12.3638 12.7959 13.1862 12.7003 11.5394 11.8663 12.4984 12.6431 12.7875 12.9325 13.0441 12.6009 12.7709 13.0428 12.9428 12.8428 12.7434 12.6569 12.5981 12.7709 14.3503 13.9937 12.3125 11.9231 11.5153 11.1109 10.7106 10.3128 9.9306 9.8475 9.4884 9.2516 8.9403 9.1019 9.5797 10.0578 10.5356 11.0131 11.0425 10.4009 10.7581 10.8497 10.6788 10.5397 10.4016 10.3188
10.5166 9.2150 7.8153 6.3597 6.4437 13.6100 15.4038 16.0406 16.1087 15.3806 12.6175 13.1150 15.6456 16.7337 16.4447 16.3931 15.2406 13.7969 12.6216 12.6997 13.5503 14.2459 14.5778 14.9222 15.4803 16.1872 16.7241 17.5531 17.3300 16.5669 16.0925 12.7966 11.6400 11.8053 15.5628 15.9038 11.3828 8.1088 6.4694 7.8672 10.8319 13.9556 16.3491 15.6534 13.1219 11.3713 8.3075 8.0000 8.0000 8.0000 8.0009 8.2200 8.3834 8.1022 8.0000 8.0000 8.1844 8.6231 9.3391 9.8178 11.1287 12.5806 14.5106 14.7300 13.6456 13.2644 12.8522 12.4762 13.3900 14.3472 14.5900 15.7028 15.9894 15.9325 15.0391 15.0853 15.7706 16.1622 15.4466 13.4456 13.4009 13.3453 12.8131 11.2278 13.0356 15.1747 15.8100 14.0122 13.5459 15.0600 15.6700 17.6056 20.7162 21.0847 19.9441 24.5906 18.4341 14.4466 13.6494 10.4397 8.6894 5.0594 3.4813 3.9403 5.3169 19.6969 29.8328 27.1106 21.3853 18.8291 19.0613 19.6987 20.1794 17.4525 15.7788 16.3869 16.2709 16.6172 18.7519 18.3525 16.9731 17.5394 17.0000 17.4316 17.5253 19.5416 19.7928 18.3959 17.3131 15.9834 16.4666 17.2828 18.4103 18.7119 18.4000 20.0078 18.6100 16.2556 17.7087 19.2253 16.4194 11.6494 6.3653 4.0316 4.0000 4.0000 4.0000 4.0000 4.0000 4.0000 4.0000 4.0000 4.0000 4.2991 4.3506 4.5653 5.9934 6.4478 6.9084 7.4563 8.0103 8.5419 9.0069 9.5606 10.1144 10.6684 11.2225 11.5731 11.5681 11.5453 11.5219 11.7266 12.2066 12.2947 12.7275 12.8034 12.1431 11.2259 11.7525 12.6378 12.8062 12.9506 13.0938 12.8878 12.1766 12.3959 13.1428 13.0481 12.9481 12.8481 12.7484 12.6516 12.9425 13.5128 13.3944 12.1666 11.8984 11.4778 11.0569 10.6356 10.2319 9.9956 9.9931 9.9541 9.9594 10.0056 10.0722 10.2300 10.4897 10.8534 11.3103 11.7375 11.0409 10.5378 10.4856 10.3856 10.2222 10.0825 10.0000
11.5953 10.3253 8.9319 7.6588 5.7841 11.1806 14.6531 13.5928 15.3678 14.5269 13.1094 13.2216 15.6450 16.4041 17.3578 17.8575 16.0894 14.8566 13.6731 13.6984 14.4909 14.6772 14.8259 15.1431 15.8062 16.5944 16.6544 16.9469 17.8297 19.3559 18.2397 15.5381 16.4291 13.6678 12.1028 12.0800 8.1459 6.8900 6.1844 7.3409 9.9119 12.4875 13.9522 12.5066 12.0628 10.7147 8.7053 8.0000 8.0000 8.0000 8.0000 8.0000 8.0000 8.0000 8.0391 8.1450 9.1934 9.5191 9.6534 9.8488 11.4016 13.5356 13.9031 13.8766 13.1800 12.4700 12.3241 12.6184 14.0422 14.9297 14.4494 13.9266 13.5953 13.6566 13.1344 13.9741 14.3250 13.8359 13.8550 13.4969 14.1844 13.6809 12.6278 10.6259 13.1978 15.5922 14.2447 11.8041 10.9937 12.7441 13.3634 12.8766 16.1866 22.1831 25.5675 29.0763 17.2944 16.4856 14.5325 9.3687 7.7984 6.1863 4.8831 4.9534 5.3113 15.9806 19.0462 15.9850 15.5459 15.1903 16.7594 19.2819 20.1537 16.8053 15.1647 17.1047 16.9631 18.4819 20.9653 19.6316 17.9188 17.9703 17.3397 16.9897 17.1488 18.0594 18.3622 17.6353 17.0159 17.3297 16.7609 15.8206 18.4284 19.8491 20.6494 23.1069 19.8919 17.8675 20.1581 21.5997 18.0200 13.1869 7.5200 4.1803 4.0000 4.0000 4.0000 4.0000 4.0000 4.0000 4.0000 4.0000 4.0000 4.2334 4.2534 4.3028 5.4212 5.9041 6.4222 6.9763 7.5297 8.0612 8.5269 9.0809 9.6347 10.1884 10.7422 11.2781 11.4578 11.4347 11.4125 11.7353 12.2903 12.2269 12.6587 12.1591 11.6631 10.9466 11.6303 12.7197 12.9691 13.1141 13.1109 12.4806 11.7659 11.8784 13.1647 13.1528 13.0534 12.9534 12.8825 12.6925 12.8766 12.2397 11.5053 11.8741 11.8950 11.4762 11.1412 10.9784 11.0000 11.4944 11.6766 11.7031 11.6788 11.4450 11.3541 11.4306 11.5644 11.7016 11.8475 12.0703 12.1225 10.7866 9.9056 10.0122 9.9237 9.7681 9.6797
11.4513 10.8109 9.6138 8.4494 5.2762 6.8200 9.4497 10.6806 13.8491 13.1547 13.2675 13.2472 14.2881 16.3547 16.9284 15.9347 14.6116 15.0281 15.9697 15.5041 14.5003 14.9391 15.6406 16.4075 16.2141 15.3025 15.0491 15.7275 17.9106 19.9172 19.3456 18.4375 18.6759 14.2956 12.2338 11.2878 10.4325 9.3400 8.1853 7.0603 8.8316 11.4053 12.3822 10.7616 8.8753 8.5722 8.6025 8.1084 8.0309 8.0050 8.0000 8.0000 8.0000 8.0000 8.1684 8.7734 9.9334 10.5031 10.7919 10.1719 12.5153 14.8997 13.3434 13.0891 14.2678 14.5203 13.6472 13.4172 15.6359 16.2203 15.3169 12.9003 11.9709 12.6728 13.3003 13.7437 13.6194 14.1062 14.2566 13.2841 11.7516 11.9406 12.2041 12.6841 13.7366 14.5763 14.3784 13.4278 13.1475 12.6675 13.0372 13.1613 13.8197 15.4319 17.7503 19.4925 14.0825 13.3991 12.7709 10.1316 10.1356 9.3081 11.2650 13.0506 12.7719 16.0494 16.8656 13.6300 13.1678 14.8884 16.6262 18.1766 18.2906 18.2650 16.1838 17.1878 18.0378 20.1250 20.8734 18.6513 18.3662 18.5403 19.0387 18.8847 18.2503 16.3709 16.8881 17.6028 16.7038 17.9572 18.2488 18.1209 18.4037 19.9200 22.5897 24.1725 21.4250 18.4816 19.3066 20.2272 17.0187 13.8209 8.4903 4.1553 4.0000 4.0000 4.0000 4.0000 4.0000 4.0000 4.0000 4.0000 4.0000 4.1547 4.1559 4.1516 4.8519 5.3916 5.9422 6.4959 7.0497 7.5816 8.0469 8.6006 9.1544 9.7081 10.2619 10.8156 11.2781 11.3250 11.3181 11.7531 12.3872 12.1697 12.4425 11.4350 11.1931 10.6763 11.4781 12.7578 13.1325 13.2413 12.7866 12.0553 11.3603 11.3428 12.9934 13.2584 13.1584 13.0678 13.1478 12.5731 12.5025 11.5753 10.3903 11.1800 11.9328 12.0497 12.0803 12.1362 12.7091 13.3484 13.2725 13.0369 12.7206 11.9378 11.3144 10.9678 10.7594 10.7406 10.8559 11.0719 11.9284 11.4631 9.9225 8.9872 9.4725 9.4616 9.3734
11.4453 11.1178 9.8841 8.8422 8.4797 8.7309 8.9284 10.6763 11.6816 11.9916 12.6453 12.7981 13.7288 15.5247 17.0647 17.0088 15.6156 15.3394 16.9750 17.4769 15.2481 15.5612 16.3334 16.6019 15.8313 15.0472 14.8444 15.4441 16.3188 18.1812 20.0903 20.5291 19.7031 16.1863 13.0619 13.0297 14.0938 11.8337 10.3328 8.7600 8.1181 10.3244 10.7947 9.3616 9.4375 9.9906 9.4116 8.5766 8.2028 8.0913 8.0000 8.0000 8.1603 8.6344 9.7209 10.5312 11.2300 11.6197 11.4397 10.9053 14.1897 16.3091 13.7844 12.9409 14.2487 15.3669 13.4366 13.9366 15.7091 15.3447 15.5456 13.9109 12.5747 12.8578 13.8766 11.7966 12.2266 14.5159 14.5731 13.3953 11.8544 10.5259 10.9334 13.1034 13.1741 13.1747 13.6344 14.5209 14.1756 13.4925 13.8422 15.1722 15.5925 12.9450 14.1519 17.8494 13.6206 13.8916 14.4209 13.5222 13.7809 13.1228 14.0297 15.5091 15.7350 15.2853 16.4072 14.5741 13.7800 15.3509 17.2009 18.7313 17.9703 17.3878 17.0403 16.6362 18.3850 20.1681 19.5931 19.0416 18.8962 18.3297 19.3813 19.6331 18.8709 17.0044 16.5019 17.9531 18.0356 17.7409 17.5697 17.9856 17.8941 18.9344 20.2516 21.6331 22.4456 19.6641 17.1997 17.8150 16.4731 14.5897 11.2472 4.6116 4.0000 4.0000 4.0000 4.0000 4.0000 4.0000 4.0000 4.0000 4.0000 4.0628 4.0581 4.0544 4.3491 4.9081 5.4619 6.0159 6.5700 7.1013 7.5666 8.1203 8.6744 9.2281 9.7816 10.3356 10.8878 11.2044 11.2547 11.7669 12.4841 12.1481 11.8397 10.8734 10.7772 10.4353 11.2978 12.7528 13.2925 13.0756 12.3612 11.6291 10.9553 10.8894 12.5544 13.3462 13.2634 13.4097 13.0275 12.5775 11.8478 10.4459 9.2506 10.4712 11.5559 12.1897 13.0384 13.5188 14.2359 14.5809 14.2797 13.9519 13.6291 12.7406 11.6425 11.2453 10.8641 10.4966 10.1956 10.0616 11.1028 10.6881 9.8334 8.7706 7.9194 8.6950 9.0484
12.4422 11.1247 10.0475 10.4716 12.8062 11.9297 9.3503 9.8128 10.3834 11.0837 11.7850 12.3028 13.0334 14.6287 16.2847 17.8150 17.6162 16.6719 15.8753 16.3638 15.4547 15.0584 15.2934 15.7766 15.6128 14.9559 15.3431 15.7537 16.1034 17.6822 20.9134 21.8422 20.5766 17.1769 13.8634 14.7788 16.4144 13.5147 11.9581 10.7297 9.3259 9.3256 9.4822 10.2794 11.6372 10.9259 10.1103 9.2569 8.5072 8.1759 8.0781 9.0291 9.3241 9.5059 11.0603 11.8897 12.5919 12.8538 12.2100 11.8062 15.3025 15.6884 14.1191 14.0244 13.8903 14.1219 13.1709 14.4650 15.1897 15.4403 15.8588 14.2409 12.1469 11.9584 12.6650 12.1116 12.3619 13.2372 13.0941 14.1009 14.1400 13.4697 13.4947 13.0828 13.0125 13.2431 13.9263 13.8641 14.0006 13.5487 13.6934 16.3494 15.2403 11.9516 11.8628 14.8403 14.0300 15.0387 16.5094 17.9659 16.6625 16.5163 15.8547 14.0644 14.8678 15.8909 15.7966 14.3650 15.3234 16.2525 18.0281 19.2550 17.9919 16.4366 16.4553 16.6709 17.5569 18.2506 17.7125 17.7825 17.2862 17.0241 17.4747 18.4538 18.5475 19.3628 18.9325 18.1028 17.9478 15.7141 15.9012 18.2172 18.9944 20.0378 19.0519 20.7213 21.2644 18.2666 15.7478 16.5425 15.5659 15.9812 14.4456 7.8122 4.1750 4.0000 4.0000 4.0000 4.0000 4.0000 4.0000 4.0000 4.0000 4.0009 4.0000 4.0000 4.0831 4.5569 5.0850 5.6147 6.1494 6.6641 7.1172 7.6584 8.2034 8.7509 9.3016 9.8553 10.4091 10.9356 11.2197 11.7741 12.5787 12.1506 10.9741 10.3534 10.3763 10.2166 11.0891 12.7150 13.3025 12.6672 11.9347 11.2031 10.5500 10.5097 11.9487 13.3194 13.5538 13.7037 12.6816 12.4012 11.1081 8.6381 8.4259 10.3691 11.2762 10.9628 12.8047 14.1031 14.4016 15.0934 15.2650 14.9169 14.3328 13.3434 12.1416 11.5594 11.1766 10.8106 10.4444 9.4028 10.0659 9.9438 9.0641 8.1866 7.3022 6.7263 7.0391
12.0887 9.5672 9.8384 10.5100 10.8347 9.4128 8.6416 9.2009 9.9166 10.6466 11.4406 11.9322 12.1450 12.9425 14.1028 15.5763 16.9631 16.1594 13.9091 13.4050 14.4906 14.5275 14.7441 15.3741 14.9525 15.1884 15.5344 15.8628 16.1909 16.7100 18.6437 20.1875 19.1391 16.9966 14.5528 15.1075 14.9431 12.7472 11.8853 10.9684 10.0509 9.2772 9.8009 11.5622 12.5078 11.6850 11.0409 10.2762 9.4409 8.9941 10.3837 10.8138 10.3988 10.2506 11.6159 12.0084 13.2103 14.1072 13.0997 12.7981 15.2116 14.1075 12.4356 12.0913 12.1453 13.5116 13.9213 14.5719 14.2803 13.9891 13.9969 12.6378 11.7163 11.0706 11.0784 12.9012 13.1737 12.9888 12.7766 12.3334 12.6056 14.4634 14.5791 13.2609 13.2341 13.9991 14.3456 12.8938 13.5391 13.9172 14.0487 15.6444 14.1991 11.6469 10.9766 11.0872 12.0112 14.4894 16.2241 17.2412 17.0275 16.7800 16.6166 14.8944 16.2653 17.1350 16.0938 16.1022 17.0409 17.5422 18.8669 19.6763 18.0241 16.3431 15.0753 15.9253 16.3988 16.5103 17.0319 16.7497 15.7216 16.2403 16.6416 17.1431 16.3091 17.5025 18.7697 17.4106 18.2294 16.9141 16.9619 19.6134 21.7681 22.8463 21.5387 21.2931 20.2591 18.3703 17.6341 17.1316 16.2656 16.4013 17.3247 12.9197 4.5466 4.0000 4.0000 4.0000 4.0000 4.0000 4.0000 4.0000 4.0000 4.0000 4.0000 4.0000 4.0222 4.4088 4.9294 5.4475 5.9662 6.4647 6.9000 7.4184 7.9372 8.4541 8.9706 9.4878 10.0075 10.5306 11.1391 11.6922 12.2563 11.4522 10.6072 10.1491 9.9053 9.7847 10.6047 11.9263 12.9766 12.3038 11.6231 10.9316 10.2628 10.4134 11.8144 12.9775 13.8819 12.9669 12.5741 12.4412 9.5906 7.1566 7.9647 10.0847 11.2231 10.3612 11.3534 14.0081 14.9469 15.2525 15.4869 15.1178 14.0728 13.0266 12.1694 12.1341 11.8544 11.5763 11.1075 9.5809 9.3703 9.8862 9.2728 8.6294 7.9959 6.5694 5.0000
11.3097 9.3297 9.5294 9.5413 9.3988 9.0169 9.8681 10.3481 11.2575 11.8962 12.1694 11.8547 11.7947 11.8947 11.9237 11.9834 12.3297 12.9159 12.1116 11.7769 14.9822 15.7019 15.0150 14.4622 14.4272 15.1953 15.5178 15.8475 16.1906 16.5359 16.8006 17.3494 16.5672 15.6622 14.7016 14.5575 13.1078 12.5403 11.6484 10.7272 9.9353 9.6634 9.5419 10.4844 11.5525 11.7769 11.6419 11.2353 10.7913 11.1831 11.9491 11.8578 11.4731 11.1263 12.0841 12.1784 13.2669 15.0278 14.1106 13.3784 14.1434 12.2350 10.0700 9.5416 11.4184 13.5719 13.7153 13.4319 12.7972 11.5869 11.0391 10.7544 10.9847 11.7453 11.9284 11.8744 12.6216 12.2753 11.2238 10.0981 10.5166 13.4141 14.0206 13.2109 14.4775 15.4259 13.7678 12.6219 12.6531 13.7809 14.1228 15.6834 15.2684 12.2219 10.5031 10.8216 12.4053 15.5312 17.5419 17.2594 17.1897 17.4231 17.1838 15.5497 14.8359 17.0863 17.9912 18.3541 18.0600 18.1931 19.7691 20.1437 18.4722 17.1819 17.3300 17.0491 16.0694 16.4837 16.4456 15.4519 14.6356 15.5000 15.7150 16.3859 15.8250 15.8250 17.5269 17.8438 17.4300 15.9913 16.0212 16.5569 18.6100 21.1197 19.7981 19.6559 18.8616 17.8572 18.6228 18.8059 18.0794 16.7994 16.7709 14.5341 5.2987 4.0000 4.0000 4.0000 4.0000 4.0000 4.0000 4.0000 4.0000 4.0000 4.0000 4.0000 4.0000 4.1206 4.6053 5.1200 5.6334 6.1259 6.5578 7.0712 7.5850 8.0981 8.6122 9.1256 9.6391 10.1619 10.8491 11.3591 11.4884 10.3938 10.0716 9.6259 9.5266 9.3334 9.3944 10.2084 11.7784 11.8347 11.1866 10.5381 9.8897 10.2416 11.4347 12.4894 12.6444 11.7234 11.9431 9.4894 7.1512 7.1966 7.4681 9.0491 11.0425 10.9744 10.4150 12.6006 14.2500 14.8016 14.7353 14.5275 13.7525 12.7059 11.8831 13.0281 12.9775 12.7200 12.0319 10.9328 9.7672 10.3019 10.7622 10.2616 9.3731 7.6297 6.5828
10.1056 9.8013 10.2209 9.8794 9.5209 9.7134 10.7900 11.8594 12.1391 12.3906 12.1206 11.6103 11.5869 11.7766 11.8044 11.8328 11.8619 11.9478 12.7734 13.5422 16.3206 15.8447 14.4047 14.4734 14.6453 15.1606 15.5000 15.8497 16.1956 16.5416 16.7847 16.4203 15.8422 15.2828 14.3619 13.3606 12.6406 12.3253 11.4025 10.5831 10.3231 10.1603 9.9975 9.9156 10.5747 11.3628 11.8347 11.4656 11.2394 11.8331 11.8850 11.9113 12.2834 12.1322 12.4806 12.3969 13.2844 14.3981 13.4691 12.6353 13.4200 13.1819 11.2428 9.7197 12.4378 13.2806 12.5031 12.4472 12.8291 12.0000 10.3097 9.1838 11.0691 11.7519 11.4019 9.9347 10.1203 10.7356 11.1125 10.0153 10.5291 12.7759 13.4225 13.5562 16.8013 17.0212 14.5081 12.7334 12.2484 13.3659 14.3728 15.1919 14.9156 11.2113 11.1291 12.7378 14.5834 17.0291 17.6847 16.6766 16.4169 17.2875 17.4075 15.8991 13.2297 16.5294 18.0259 18.1241 17.6847 16.9378 18.4100 20.4419 20.5763 20.2150 20.3609 19.3113 16.8809 16.3553 14.5538 12.8653 13.6894 15.7244 16.1219 16.6437 16.2831 15.6834 16.3988 17.2991 17.1394 15.8047 15.9584 16.2478 17.6641 17.7419 16.7138 16.4553 16.1669 16.1956 18.2009 19.0191 18.5206 18.2691 16.4497 12.6978 6.8263 4.0000 4.0000 4.0000 4.0000 4.0000 4.0000 4.0000 4.0000 4.0000 4.0000 4.0000 4.0000 4.0000 4.1900 4.7350 5.2525 5.7453 6.1766 6.6906 7.2038 7.7172 8.2309 8.7450 9.2584 9.8259 10.5325 11.0069 10.3488 9.8059 9.3425 9.2203 9.1359 9.0531 8.8784 8.9622 9.8559 11.1594 10.6675 10.0191 9.3709 9.7212 10.8409 11.8497 11.0950 11.0759 9.1844 7.1062 7.2391 7.4150 7.5872 8.1600 10.1341 11.4250 10.7137 11.3072 13.5103 14.2231 14.4712 13.7300 13.3600 12.3884 11.5419 13.1691 14.1100 13.8659 12.9616 11.7241 10.7416 10.6359 10.9253 10.5603 10.3534 9.3734 8.3875
9.1403 10.8775 11.6634 10.3162 9.9934 10.0562 11.1669 12.3281 12.6006 12.4475 11.7975 11.3962 11.3556 11.6578 11.6853 11.7141 11.7431 12.0791 13.1213 16.8509 17.8250 15.1144 14.3212 14.0491 14.0487 15.2528 15.3384 15.6794 16.0503 16.4209 16.7222 16.1969 15.6816 15.5053 14.1625 12.5337 12.6794 12.0694 11.2341 10.9822 10.8128 10.5647 10.2184 10.1031 10.6675 11.1866 11.7691 11.7956 12.4619 12.9634 12.3106 11.8453 11.7575 12.3997 12.7837 12.4375 12.1075 11.3722 10.7159 11.7297 13.7494 15.3584 13.4650 11.0437 11.8403 12.0278 12.1000 12.6041 10.5450 9.5331 9.4087 8.7803 8.7603 10.6447 9.8397 8.0387 7.6922 9.0941 10.7688 11.0194 11.4613 13.3138 14.5409 14.1644 15.4059 15.3478 14.0472 12.6078 12.8038 13.1634 11.4828 12.9234 13.3072 12.1838 13.2803 16.7319 18.5800 18.4728 16.4744 15.7728 15.2175 14.9384 16.1531 16.8228 15.6047 16.3341 17.8691 17.8041 17.2206 16.4222 16.9500 19.2569 20.8003 19.8209 18.4112 17.6559 15.8609 15.1731 14.5556 13.7800 13.3719 15.0753 17.6069 17.4325 15.5691 14.9987 15.1434 16.0872 15.9631 16.8031 16.8288 16.7663 17.7775 17.4775 16.4562 16.3100 15.6794 15.3544 17.1434 18.7944 18.2444 17.8528 14.8181 13.0616 9.7834 5.3678 4.0000 4.0000 4.0000 4.0000 4.0000 4.0000 4.0000 4.0000 4.0000 4.0000 4.0000 4.0000 4.0028 4.2647 4.8606 5.3644 5.7959 6.3091 6.8231 7.3366 7.8500 8.3634 8.8800 9.5453 10.1759 10.3344 9.5044 9.0794 8.9141 8.8297 8.7453 8.6625 8.5781 8.4219 8.5300 9.5884 10.1469 9.5003 8.8519 9.2031 10.3084 10.6534 10.1525 8.8344 7.0691 7.2816 7.4594 7.6316 7.8047 7.9875 9.0872 11.0737 11.3138 10.7834 12.6897 13.5253 14.0534 13.6462 12.6791 12.0653 11.1997 12.8162 14.2269 14.6016 13.8678 12.7422 11.8988 10.7906 10.1384 9.6991 10.1575 10.5669 10.1844
10.3122 10.7469 10.7925 9.9572 10.9803 11.6953 11.9609 12.7963 12.7612 12.1394 11.4866 11.1978 11.0766 11.5391 11.5669 11.5959 11.6859 12.3584 13.2078 16.5497 19.2838 15.6259 14.1369 12.3384 13.2981 15.4953 15.7222 15.4653 15.7406 16.0487 16.0425 15.2612 13.9122 13.5397 13.0347 12.3109 12.3116 11.6841 11.2059 10.7003 10.1031 9.6322 10.0275 11.1366 12.0063 12.6044 13.0853 13.8369 14.5459 14.6134 13.8691 13.2078 12.8444 13.1081 12.7712 11.3919 8.8841 8.4144 8.8197 10.7806 12.2806 12.4434 12.0631 11.8791 11.6800 12.4478 13.0988 12.9200 11.8669 6.9469 5.7306 7.7391 8.7644 10.3550 9.9366 10.3869 11.0050 10.4756 11.0297 12.0497 13.9003 15.4469 16.1225 14.8653 13.6284 12.7472 12.1100 12.1412 13.0816 12.6213 10.7275 11.5184 12.8175 12.7459 13.0825 15.6519 15.5312 11.3047 10.4659 11.9850 15.8944 15.2125 16.0491 16.3681 16.1253 16.4331 17.4044 17.3856 16.7219 16.2616 17.0700 18.7106 19.8656 18.5872 16.7106 15.9478 15.5725 14.6797 13.5931 13.5084 12.8606 14.7400 18.0494 18.7072 17.3259 16.8288 15.8734 15.6294 15.3078 15.9428 15.9744 16.8856 17.3925 18.0259 19.5994 18.4450 16.4834 15.3016 15.7141 17.8191 18.0544 17.5241 14.2616 14.1269 11.9272 8.1975 4.1822 4.0000 4.0000 4.0000 4.0000 4.0000 4.0000 4.0000 4.0000 4.0000 4.0000 4.0000 4.0000 4.0087 4.3450 4.9584 5.4147 5.9281 6.4419 6.9559 7.4691 7.9825 8.5322 9.2622 9.8206 9.3413 8.8378 8.6078 8.5234 8.4391 8.3547 8.2719 8.1875 8.1016 7.9647 8.0969 9.1809 8.9816 8.3331 8.6753 9.6866 9.3606 8.4312 7.0350 7.3244 7.5037 7.6766 7.8494 8.0222 8.1944 8.4959 10.1522 11.5391 11.0903 11.5919 13.2288 13.4384 13.5638 12.5116 11.5781 10.8578 12.1791 12.9728 13.5363 13.9991 13.8862 13.1719 12.3819 11.7853 11.6441 12.2450 11.9703 11.6687
10.4509 10.6109 10.5581 11.5894 11.9453 12.3706 12.7594 13.0578 12.4809 11.8112 11.2075 10.9991 10.8653 11.3363 11.4484 11.4769 11.8234 12.6525 13.4263 14.6447 18.8625 17.2766 14.0716 12.6788 13.4622 15.4966 15.7456 15.6422 15.5428 15.3372 15.3184 14.3713 12.6659 11.8763 11.7494 11.6597 11.4888 10.6159 9.7391 9.1675 9.2622 10.2622 11.4541 12.5722 13.3353 13.6997 15.1394 16.6537 16.5556 16.1509 15.5756 15.0466 14.3787 14.4706 13.3878 12.1731 9.6159 7.3444 9.1516 10.7491 11.1353 12.2163 12.4622 12.6269 12.9997 13.5525 13.3813 13.1600 12.9381 9.7481 3.3397 4.9556 10.1253 12.4928 13.5959 13.4400 12.7244 11.2909 11.6569 11.5606 12.5803 14.8128 15.1488 14.8684 13.5097 12.8841 11.4050 11.8325 12.4109 11.0825 10.1922 10.3253 11.1169 11.1806 10.5731 11.0766 10.0425 10.0000 10.0000 10.1481 13.1519 14.9269 14.1394 14.8847 15.7100 16.2056 16.8103 17.1100 15.7122 16.1884 17.3319 18.2278 19.5050 18.5878 16.6488 16.7984 16.6413 14.5484 13.0897 13.2509 13.3972 15.2403 16.2750 17.3856 18.2625 17.9734 16.3484 15.4600 15.8416 15.8406 15.2206 16.0666 16.4641 18.1247 20.9503 19.4625 18.0772 17.1619 16.2231 17.2778 18.0019 18.3506 16.5088 16.0894 16.3484 13.7306 4.7288 4.0000 4.0056 4.2097 4.0228 4.0000 4.0000 4.0000 4.0000 4.0000 4.0000 4.0000 4.0000 4.0000 4.0200 4.4006 4.9647 5.5459 6.0609 6.5744 7.0881 7.6022 8.2278 8.9575 9.1862 8.5688 8.3034 8.2172 8.1328 8.0484 7.9641 7.8812 7.7969 7.7109 7.6281 7.5025 7.6978 8.3809 7.8144 8.1287 8.6862 7.9075 6.9966 7.3647 7.5481 7.7209 7.8938 8.0666 8.2391 8.4119 8.5847 9.2259 11.0869 11.5591 11.1412 12.7050 12.9806 13.2556 12.5569 11.3719 10.4903 11.0887 11.6422 12.1794 12.7319 13.2994 13.8781 14.0169 13.3925 14.0281 14.2331 13.5809 12.2578
10.4906 10.7456 11.3506 13.0381 13.1022 12.4388 13.0331 12.8228 12.1528 11.4831 10.9600 10.8006 10.6613 11.1116 11.3300 11.4247 12.1034 12.7300 13.0019 13.3147 14.4438 14.4066 13.2456 13.4888 12.7844 13.2300 14.0809 14.8481 16.0387 15.0238 14.6131 14.0291 11.8491 10.7688 10.7434 10.8306 10.7597 9.9712 8.5341 9.3819 10.5697 11.7612 12.9534 13.8588 13.5984 12.5734 15.5581 17.6406 17.4525 15.8122 15.4181 14.6978 14.5784 15.6466 14.2834 13.1419 11.7300 9.8675 10.0134 11.3363 12.7703 13.2925 13.9775 14.2222 14.5491 14.2413 13.7969 13.4209 13.1772 12.5700 6.6469 3.5812 8.3341 13.5369 13.9116 12.0484 12.6284 13.0356 11.8203 10.3275 12.1541 14.6169 15.3169 14.7253 12.8097 12.4947 12.2041 12.4078 11.5697 10.3878 10.0025 10.0000 10.0094 10.0497 10.0000 10.0000 10.0000 10.0000 10.0000 10.0000 10.0416 11.4666 12.8528 13.7456 14.5787 15.2144 15.7856 16.5750 15.2281 15.5616 16.7181 17.9778 19.3847 18.4797 15.7375 15.8328 17.4491 15.0750 13.0584 13.0272 14.6447 15.0784 14.7994 13.5619 15.3588 15.4213 15.8375 16.1087 15.9412 15.3847 16.9678 19.1006 19.2075 21.4737 21.7106 19.5325 18.6691 17.9925 17.7334 18.1447 17.6056 18.3972 18.2228 16.2441 16.9316 15.2000 7.8459 7.1850 6.4819 4.7969 4.0003 4.0278 4.0000 4.0000 4.0000 4.0000 4.0000 4.0000 4.0000 4.0000 4.0000 4.0256 4.3837 5.0625 5.6728 6.1934 6.7072 7.2400 7.9488 8.6278 8.3572 8.0028 7.9109 7.8266 7.7422 7.6578 7.5734 7.4906 7.4062 7.3203 7.2375 7.1531 7.0406 7.2806 7.2953 7.5509 7.3669 6.9572 7.4031 7.5925 7.7656 7.9387 8.1109 8.2834 8.4563 8.6294 8.8019 8.9922 10.1819 11.5741 11.4312 11.8669 12.9419 12.7600 12.5722 11.4163 10.3478 10.2006 10.7172 11.3219 11.9281 12.5328 13.1594 14.4094 15.4097 16.1828 16.1809 14.1175 12.5063
10.6484 10.9587 12.2309 13.7303 14.2781 12.5431 12.2975 12.3175 11.8253 11.1550 10.7437 10.6022 10.4603 10.8506 11.2106 11.5625 11.9431 12.0863 12.3828 12.6834 13.3900 12.4525 11.3472 12.9406 12.8728 12.7591 11.4444 13.6412 13.9553 13.4150 14.3444 14.7416 13.4312 12.1250 11.3481 10.7013 10.2672 9.4891 7.9431 9.0387 10.5722 12.1822 13.7397 13.6981 12.5534 12.2356 17.5806 18.4713 18.1366 15.1016 14.4100 14.3472 15.7478 16.8913 15.1575 13.8406 12.3272 11.9084 11.9528 12.7388 14.6556 15.0150 14.9400 14.6591 14.3691 14.7913 14.9850 14.9659 14.6722 14.2116 12.0653 6.2894 6.4950 9.3247 10.1622 10.0222 13.8938 16.1459 13.5166 11.9900 12.2116 13.7966 14.8622 14.1675 12.1769 11.9394 12.4462 12.6119 11.3700 10.0578 10.0000 10.0000 10.0000 10.0000 10.0000 10.0000 10.0000 10.0000 10.0000 10.0000 10.0000 10.7188 13.8594 14.3906 14.4072 13.9966 14.6663 15.9513 15.5150 15.3997 16.0216 16.8344 18.4916 18.5341 15.2891 15.9166 17.7894 17.1694 14.0950 11.7413 13.3400 15.3425 14.1966 11.9388 13.7019 12.4578 14.3153 16.4284 17.1884 15.9481 19.3978 22.8984 21.4366 21.6975 20.1500 18.2237 17.3134 16.8234 17.7025 17.1256 16.5200 17.8506 18.9525 17.1850 17.0481 15.8853 14.5625 9.6472 5.7769 4.1797 4.0603 4.4575 4.0341 4.0000 4.0000 4.0000 4.0000 4.0000 4.0000 4.0000 4.0000 4.0000 4.0294 4.4706 5.1562 5.7944 6.3259 6.9212 7.6709 8.0797 7.7147 7.6031 7.5203 7.4359 7.3516 7.2672 7.1828 7.1000 7.0156 6.9297 6.8469 6.7625 6.6797 6.5744 6.6137 6.6891 6.9072 7.4412 7.6375 7.8103 7.9831 8.1553 8.3281 8.5013 8.6741 8.8459 9.0188 9.1922 9.5278 11.0984 11.6931 11.4937 12.6522 12.5847 12.4075 11.4509 10.6422 10.3150 10.1547 10.5797 11.1844 11.7887 12.3784 13.3372 14.8547 16.1934 16.7606 14.3862 12.7547
11.2166 11.1844 12.0225 13.3391 14.5162 13.8144 11.9372 11.2869 11.3078 10.8422 10.5450 10.4031 10.2619 10.5409 11.1163 11.0678 11.1631 11.4444 11.7178 12.0984 12.9259 12.8531 12.8444 14.6975 15.2866 13.5619 11.5078 11.8397 11.5497 12.7853 14.1362 14.7325 15.2437 14.3516 13.5234 12.5609 11.4591 10.0013 7.7553 8.9888 10.2553 12.5278 12.3456 11.5025 12.1775 13.1253 16.9753 19.0281 19.7231 17.3762 14.3534 14.5078 16.6894 17.7962 15.9128 14.7959 13.5456 13.1562 13.8409 13.9897 14.3053 13.7344 13.1628 13.1334 13.2147 14.3069 14.7084 15.1331 15.7009 16.3037 16.6628 14.8928 11.0037 8.8753 8.3300 8.5956 10.9166 15.1691 14.4688 13.5578 12.6897 12.5103 13.5156 12.9059 12.4312 12.7128 13.2594 13.6737 12.3506 10.0700 10.0000 10.0000 10.0000 10.0000 10.0000 10.0000 10.0000 10.0000 10.0000 10.0000 10.0000 10.7159 13.9169 15.1481 14.4134 13.1138 13.7978 15.2078 15.6647 15.3753 15.1856 15.8381 16.7166 15.9178 15.1359 16.8681 17.6297 16.1600 13.7150 12.5306 14.2747 15.6484 13.4172 12.3650 14.9975 14.2231 13.2784 16.7191 17.2991 16.3022 19.3591 19.4587 18.4503 18.8881 19.1381 18.8700 17.5175 17.5706 17.4912 15.9500 16.0800 17.5272 18.3344 16.5306 16.1187 15.8419 14.2356 9.4881 5.1613 4.0016 4.0681 4.5019 4.2703 4.2522 4.1019 4.0159 4.0000 4.0000 4.0000 4.0000 4.0000 4.0000 4.0000 4.0525 4.5597 5.2484 5.9012 6.6372 7.3766 7.4400 7.2969 7.2125 7.1297 7.0453 6.9609 6.8766 6.7922 6.7094 6.6250 6.5391 6.4563 6.3766 6.3981 6.3938 6.3100 6.8575 7.4794 7.6819 7.8547 8.0275 8.2000 8.3728 8.5456 8.7181 8.8906 9.0638 9.2366 9.4087 9.5813 10.2966 11.5794 11.6862 12.0991 12.6191 12.2409 11.5156 11.0416 10.7181 10.3941 10.1484 10.4447 11.0453 11.6500 12.3241 13.7759 14.6731 15.3197 14.0131 12.7016
11.4872 11.6331 11.0441 11.1488 13.4941 13.0609 11.0906 10.0572 9.9350 11.0272 11.6581 11.2619 10.5769 9.7472 10.0234 10.2266 10.5000 10.7734 11.0222 11.6281 12.6650 13.4656 13.7619 15.1444 14.7625 13.0778 13.4919 12.5934 12.8150 13.3625 13.9453 14.3216 15.9425 16.0447 14.8781 13.6556 12.4306 11.1716 9.3756 10.2372 11.7772 11.8928 10.9062 9.9475 10.0234 12.1394 16.1347 17.8950 19.1925 17.2666 15.1791 16.4622 17.6731 17.4634 16.4613 15.4216 14.4322 13.5175 13.9222 13.8625 13.5928 12.6541 11.3953 10.7366 11.1744 13.5634 14.5228 15.2712 16.0441 16.8466 14.9016 8.8022 8.8644 11.4778 10.2656 7.8194 8.8856 13.5897 14.6991 14.0022 13.1469 12.2784 12.1166 11.9397 12.3853 11.8766 12.4675 13.7794 13.7734 11.1653 10.0134 10.0000 10.0000 10.0000 10.0000 10.0000 10.0000 10.0031 10.0009 10.0000 10.0000 10.7362 14.0491 15.2353 14.7644 13.2091 13.2728 14.6916 15.1219 13.6625 13.2378 14.1597 15.1663 15.8756 15.3153 16.5722 17.2606 15.8819 14.2987 15.7553 16.6753 15.4928 15.2137 15.8766 16.0875 15.9778 15.0400 15.5178 16.1303 16.6006 18.3856 18.5731 17.3719 17.7972 18.7434 19.5153 18.1109 17.8178 16.5100 15.9928 17.2981 16.8875 16.3459 16.8809 16.6619 17.6425 14.8287 9.0575 5.3247 4.0000 4.0272 4.5153 4.8122 4.6363 4.2413 3.7306 3.8434 3.9875 4.0000 4.0000 4.0000 4.0000 4.0000 4.0000 4.0797 4.4394 4.8856 6.0022 6.9797 7.0434 7.0150 6.9778 6.9897 6.9700 6.9481 6.9756 7.0109 7.0128 7.0359 7.1453 7.1737 7.1934 7.2122 7.2306 7.2547 7.5012 7.7266 7.8997 8.0719 8.2444 8.4172 8.5903 8.7628 8.9353 9.1081 9.2809 9.4534 9.6263 9.7991 9.9997 11.1178 11.7369 11.8128 12.5241 12.1378 11.2275 11.0531 10.9563 10.7819 10.4738 10.1788 10.3291 10.9078 11.4381 12.6287 13.4109 12.8516 12.1359 10.4797
11.0706 11.4134 11.3313 10.6706 12.1187 12.2669 11.6722 11.4575 11.1397 14.1069 16.2566 16.1044 11.3509 8.4172 8.4950 9.4784 9.8697 10.1047 10.3687 11.4462 12.2875 13.1784 12.5816 14.7497 14.6628 12.5453 12.2863 12.9856 14.8784 14.2181 12.7700 14.5678 17.0900 16.6141 15.7597 14.5772 13.4963 14.0212 13.6187 13.7087 13.5922 12.8841 12.3103 11.7609 11.9778 13.0791 15.2534 16.0588 15.8594 14.3897 15.3516 16.5788 17.3847 16.9656 16.5244 15.4403 14.5097 13.8622 14.2297 13.6038 13.0856 12.6250 12.3678 11.7584 11.1272 12.4581 13.8456 14.9678 16.1562 15.1263 15.3641 13.8722 11.4684 12.1475 10.2872 8.8894 10.4788 14.5669 14.4663 13.9416 13.4066 12.7559 12.0981 11.5913 10.9853 11.6422 14.0178 15.3325 15.5797 13.1403 10.7234 10.5147 10.6866 10.2597 10.1138 10.0059 10.0000 10.0381 10.8103 11.4022 11.3894 13.0775 13.1578 13.9991 14.5156 13.5312 12.9728 14.2344 14.8694 13.3903 13.1897 13.5581 14.7772 18.1388 16.1459 14.6713 16.9922 17.3066 15.1400 15.9769 16.5637 15.5919 16.1581 17.4694 16.5203 16.7694 16.9309 16.0516 16.9400 18.0981 18.5225 19.7706 18.5938 16.4369 16.9500 19.0487 17.2572 16.2488 16.2559 16.5725 17.9128 17.8037 15.5075 14.9619 15.5175 16.9684 17.4700 16.2116 10.3475 5.6256 5.5094 4.3225 4.3684 3.2756 3.1644 3.3356 3.6425 3.8972 3.9944 4.0000 4.0000 4.0000 4.0000 4.0000 4.0016 4.1325 4.4122 5.5447 6.5147 6.4891 6.4594 6.4862 6.5625 6.7069 6.9000 7.1413 7.2438 7.2750 7.3044 7.3344 7.3641 7.3953 7.4250 7.4563 7.4859 7.5625 7.7000 7.9012 8.1541 8.4228 8.6341 8.8069 8.9797 9.1531 9.3256 9.4978 9.6706 9.8438 10.0162 10.1888 10.5662 11.5844 11.8331 12.2594 11.8219 10.9625 10.6719 10.3891 10.3350 10.4569 10.4306 10.2294 10.2359 10.6619 11.4069 11.3756 11.3206 11.1169 9.2156
10.6756 10.8750 11.1056 11.1419 11.0416 11.1331 11.6547 12.5072 13.3231 15.7441 17.9263 18.5194 13.3906 9.2850 7.9462 7.2991 9.3831 9.4603 9.8813 11.1231 11.1481 11.8909 11.7956 13.5684 14.2841 13.3737 12.6841 12.5950 14.0584 14.4341 12.2428 15.1850 17.3875 16.9869 16.2878 15.4578 14.9306 14.7031 14.2563 13.8397 13.9069 14.1241 13.9044 13.7241 13.1550 13.1737 13.8269 13.6803 13.3181 14.0681 15.1369 16.1241 17.0206 16.5500 16.2800 15.6869 15.2338 15.1603 15.2075 13.5150 12.5900 13.2106 13.9709 14.5162 12.5509 12.9472 14.2672 15.1256 14.8409 12.4838 13.0394 12.2900 10.2791 11.5591 13.4697 12.7966 13.5981 14.7197 14.1841 13.6416 13.0944 12.5469 12.1425 11.3294 10.7897 11.0356 15.3881 16.3434 15.2591 14.1353 13.3134 13.0069 12.1916 11.2794 10.7184 10.0291 10.0000 10.0891 11.0300 12.1831 13.3156 13.4322 12.6572 13.1141 13.7916 13.7541 12.9519 13.7747 14.5759 13.7772 14.1684 14.6666 15.8681 18.3719 17.4669 15.7178 16.3922 16.3956 15.1659 15.3609 16.1703 16.5637 16.1544 16.9725 16.7038 16.7922 18.0844 18.4806 19.1234 18.6262 18.5934 20.3250 19.3009 16.2225 15.2578 18.0094 17.2537 16.2300 16.1469 17.2034 17.6122 15.6112 14.6141 14.2887 17.1744 16.8634 18.3175 18.4513 12.7203 8.4788 7.4403 5.8016 4.2172 3.2584 3.0100 3.2309 3.4928 3.7059 3.9056 4.0000 4.0000 4.0000 4.0000 4.0000 4.0000 4.0372 4.2903 5.3844 5.9612 5.9106 5.8372 5.7638 5.6903 5.6169 5.5434 5.4684 5.5716 5.7972 6.0869 6.4288 6.8194 7.2525 7.4250 7.4563 7.4859 7.5625 7.6797 7.7969 7.9216 8.0719 8.3309 8.6784 9.0281 9.3159 9.5387 9.7156 9.8884 10.0603 10.2331 10.4062 10.5787 11.2031 11.7422 12.0487 11.7397 10.8237 10.4322 10.0778 9.7600 9.5638 9.6528 9.8422 9.9581 10.0234 10.1263 10.4053 10.7669 10.4312 9.4812
10.2887 10.5609 10.7359 10.8947 11.3259 11.4731 12.1175 13.0153 13.6625 14.3381 15.8153 16.6441 11.6609 8.9797 8.4862 7.0944 9.2216 10.5806 10.4078 11.0884 11.0294 11.3819 11.3931 12.7231 14.3059 14.1359 12.8747 13.0269 13.7275 13.9319 13.8028 14.2728 15.7772 16.9069 16.6794 16.5447 15.5547 14.2603 13.6731 13.1806 14.8781 15.1684 14.4225 15.0281 13.9231 13.0872 13.4881 12.6622 12.4875 14.0241 14.6991 15.6594 16.6528 16.2719 14.7666 13.2778 14.5903 15.5309 15.3609 12.4947 11.8053 12.6781 14.3116 13.9941 12.6094 13.2928 14.0853 14.1181 12.2428 13.0994 14.1778 11.0447 10.1378 12.1706 14.6703 15.2891 15.0028 14.1206 13.6369 13.0741 12.5112 12.2044 12.4216 11.5469 10.5319 11.5809 13.6803 15.0816 15.5541 16.2094 16.7162 17.0284 13.9359 13.3753 13.3381 10.0238 10.0000 10.1559 11.1647 12.2822 13.7031 14.1109 13.4925 13.4094 13.3366 13.5863 13.1641 13.3622 14.3769 14.8753 15.2728 15.4922 16.1987 16.6313 16.4725 16.2712 15.1103 14.4081 14.9050 15.9116 16.3634 15.8697 13.9372 13.3269 13.8831 15.1906 17.6450 17.2919 16.7053 17.0172 18.1844 20.1569 19.2425 17.3591 15.5391 14.7362 16.4281 16.3959 15.8837 17.7850 17.8972 16.2850 14.8847 16.0994 19.5406 18.7503 18.1741 16.7638 13.6147 10.7150 9.1672 7.4606 6.4187 4.6450 3.0750 3.0900 3.3066 3.5116 3.7706 3.9803 4.0000 4.0000 4.0000 4.0000 4.0000 4.0016 4.1700 5.0647 5.3906 5.3325 5.2591 5.1856 5.1122 5.0388 4.9650 4.8916 4.8181 4.7447 4.6712 4.5978 4.5244 4.4544 4.6906 5.1391 5.6363 7.2569 7.7041 7.8056 7.9206 8.0391 8.1562 8.2769 8.4466 8.7247 9.1163 9.5422 9.9078 10.2078 10.4431 10.6228 10.7956 11.0112 11.5909 11.8644 11.5013 11.0487 10.5731 10.1150 9.6581 9.2284 8.8803 8.8216 8.9812 8.9103 9.3687 9.8034 10.3369 10.0941 9.0531
10.0622 10.1931 10.4391 10.6006 10.9069 10.8553 11.1997 11.4059 11.1600 10.8947 12.4409 12.8653 9.7262 9.2247 8.6925 7.6069 9.7922 12.4853 11.3575 11.4859 10.9966 10.9466 10.1644 11.5069 12.9481 13.3234 13.3209 15.1962 15.2672 13.8363 11.9175 10.4628 12.2372 14.9019 16.4631 16.7584 16.3603 14.6409 12.9597 13.6056 15.6388 14.6622 13.8825 14.3844 14.8503 14.4388 13.6309 12.0066 11.3991 14.0047 14.5366 15.2109 16.2491 15.0006 11.2775 10.7781 13.0478 14.3566 14.7306 12.4125 11.8069 12.7475 14.1241 13.0063 12.0856 13.7419 13.5091 11.8425 11.3719 12.2466 13.3212 11.3222 12.9537 14.9984 13.4350 12.1894 11.7581 12.6003 13.0081 12.4603 12.2147 12.6741 12.7594 11.9334 10.0631 11.2503 12.8681 14.9128 17.0462 16.9228 16.9128 17.5184 16.1119 16.6087 14.7372 10.0000 10.0000 10.1656 11.1909 12.6819 14.2500 14.9594 14.5753 14.3916 14.1825 13.9231 13.4600 13.3372 14.5291 15.4584 15.2472 14.8847 15.2762 14.6263 14.1519 15.9109 15.3612 13.8397 15.0803 15.7441 14.8716 13.2600 11.5947 10.7584 11.5350 12.9338 14.3897 13.5381 13.5150 14.3766 14.0250 14.9391 17.4631 17.0487 15.5419 12.6684 14.3025 16.0381 16.3687 17.5613 18.6644 18.1806 17.0144 15.9072 16.6031 16.8691 17.7947 19.1588 17.5444 12.7372 10.9134 11.2006 9.5497 6.4884 4.1950 3.2994 3.1153 3.3609 3.6294 3.8931 4.0000 4.0000 4.0000 4.0000 4.0000 4.0000 4.0700 4.5806 4.8175 4.7544 4.6809 4.6075 4.5338 4.4603 4.3869 4.3134 4.2413 4.1794 4.1259 4.0813 4.0481 4.0212 4.0062 4.0000 4.0078 5.1947 7.8031 7.9500 8.0316 8.1138 8.2031 8.2987 8.4053 8.5166 8.6353 8.8228 9.1209 9.5281 9.9719 10.4066 10.7850 11.0978 11.4219 11.4772 10.9506 10.5522 10.1538 9.7541 9.3562 8.9791 8.6291 8.3119 8.1219 8.2994 8.8287 9.2906 9.4175 9.2503 8.7437
10.1722 10.0772 10.1156 10.3103 10.0991 9.2859 9.0662 7.4031 8.3366 9.1781 9.7044 9.0353 7.7106 9.0050 8.8525 8.2609 9.5644 10.2006 9.7434 10.2541 10.7338 10.6862 10.5497 11.1091 11.6797 11.8737 14.3056 16.9650 15.3909 13.5562 10.6925 8.2631 11.0266 13.3566 15.4084 15.9347 16.7237 15.3956 14.1938 15.0347 15.7856 15.0344 14.5466 13.9194 14.3841 15.0850 15.0328 13.6881 13.1438 13.9425 14.1744 14.9203 14.5819 12.1566 10.3359 10.9606 12.0456 13.1256 12.6925 12.5828 13.4622 14.5666 14.9869 13.8459 13.0691 14.2294 12.7178 12.6356 12.1128 11.3709 11.5675 12.4291 13.2775 13.5806 12.2769 10.0806 9.3562 10.3447 12.0078 12.2388 12.7459 13.1819 13.3150 13.0769 12.5112 12.7931 12.8200 13.0678 14.9294 15.2475 14.3862 14.1062 14.9506 15.1206 13.4506 10.0144 10.0000 10.0372 11.0122 12.7053 14.3894 15.9828 15.7163 15.2541 14.5769 13.7300 13.0559 14.0897 15.0691 14.9216 14.6019 13.6519 12.6422 12.6550 13.6566 15.7534 17.1528 15.6266 15.4022 15.0972 13.7369 11.5778 10.4969 10.9759 12.2884 11.6800 10.6950 10.4419 11.0734 11.8709 11.8294 12.3725 14.7581 13.0522 13.2100 11.3562 12.5753 15.7222 16.6656 16.5231 16.8066 18.3797 16.9644 16.0100 16.8853 17.3041 19.5594 22.5359 21.0706 16.9200 16.4772 13.9834 10.5019 6.9513 4.5425 3.5853 3.0078 3.1547 3.4466 3.7381 3.9725 4.0000 4.0000 4.0000 4.0000 4.0000 4.0009 4.0934 4.2450 4.1872 4.1319 4.0869 4.0516 4.0244 4.0078 4.0000 4.0000 4.0000 4.0000 4.0000 4.0000 4.0000 4.0000 4.0331 4.4159 4.7475 6.4163 8.1372 8.2191 8.3003 8.3819 8.4634 8.5450 8.6266 8.7091 8.7997 8.8956 9.0066 9.2016 9.5200 9.9406 10.3853 10.7684 10.7666 10.1069 9.6141 9.3725 9.1622 8.9916 8.8531 8.7172 8.5784 8.3522 8.5425 8.9903 9.1150 9.1400 8.8834 8.8484
10.0616 10.2116 10.1094 10.0666 8.9459 6.8488 7.5450 6.1566 9.1097 11.1950 9.4753 8.0991 6.0106 5.8731 7.0691 7.4522 8.5475 8.8906 9.0941 9.3591 10.1741 10.9453 11.5759 12.3997 12.7853 12.3275 13.8744 16.0853 14.6519 13.7119 14.3272 14.0634 14.0259 13.9916 14.0531 12.9109 14.9362 15.3478 14.7122 15.3766 15.4903 14.9325 14.5784 12.3009 13.1206 15.2137 16.0372 15.8756 14.7019 14.2519 13.4678 15.0497 15.9294 12.7662 11.7644 12.2659 12.7959 11.4878 10.7534 11.7350 12.8775 14.0897 14.4444 14.8331 14.4278 13.0784 11.6828 13.2109 12.9272 11.5209 11.3013 12.5997 14.0016 14.4069 12.5459 11.5778 11.2597 12.7234 14.1781 13.9325 14.0231 14.6259 14.1497 13.3469 12.7081 14.2622 15.4031 11.7681 10.5887 12.0728 13.7300 14.3344 15.4147 14.5891 11.7075 10.7669 11.8284 10.8144 10.0938 10.9788 13.2491 16.0453 16.4994 15.5469 14.2781 13.3281 14.0844 14.9006 14.6566 14.3891 14.1553 13.9350 13.0416 12.0450 13.4381 15.3047 15.6884 16.0316 15.8763 14.2341 13.0122 11.1628 10.6419 10.2634 11.4087 11.9916 10.7025 9.2734 10.5584 11.6378 12.8034 12.2844 12.3656 12.1303 12.0266 11.9300 12.8228 14.5034 14.1847 12.3803 13.7556 15.8294 15.6016 16.7763 18.9256 18.1306 18.9794 21.2975 21.7256 20.5737 16.7228 13.5919 10.4025 6.9956 4.4747 3.7531 3.0806 3.0025 3.1650 3.4825 3.8131 3.9969 4.0000 4.0012 4.0000 4.0000 4.0000 4.0000 4.0000 4.0000 4.0000 4.0000 4.0000 4.0000 4.0000 4.0000 4.0000 4.0000 4.0000 4.0000 4.0000 4.0000 4.0856 4.5869 5.2419 5.4750 5.6059 7.4791 8.4062 8.4878 8.5691 8.6509 8.7325 8.8138 8.8953 8.9769 9.0584 9.1400 9.2216 9.3047 9.4062 9.6347 9.8453 9.9869 10.0941 9.8956 9.6938 9.5519 9.4203 9.2828 9.1459 8.9894 8.7131 8.7634 9.1737 9.0044 9.0334 8.7409 8.6984
9.4163 10.2681 10.2478 9.9803 6.2216 3.9462 6.0400 7.5059 11.6544 12.0059 9.6300 6.6447 3.8006 2.4556 4.4794 5.8316 7.9538 8.8666 8.5581 8.6300 10.1881 11.5800 11.9169 12.5544 13.1234 12.9375 13.5650 15.6831 13.6031 13.4922 15.1309 15.4203 15.0744 14.6737 13.3109 11.7919 12.7944 13.8175 12.5706 12.9925 14.3728 14.4047 13.5244 12.5344 12.8644 15.6281 16.6128 14.9603 13.4009 13.3844 13.0406 14.5553 16.7894 15.9294 14.3781 12.6369 13.6459 13.4322 11.8941 11.6284 12.9534 14.8334 15.2569 14.2528 13.9509 12.3516 11.7037 13.5759 12.7725 11.0647 12.2153 13.0003 14.2197 14.0775 12.8656 12.1075 12.1631 11.8263 13.8925 15.5506 16.1453 18.0138 16.6863 14.7000 13.7209 14.6584 14.8909 11.1459 9.2137 10.6231 13.0059 14.0591 14.4078 13.6109 13.8381 15.0847 15.7466 13.8116 11.0284 10.7312 13.0372 15.8122 17.8244 16.9878 15.7216 14.7916 15.0006 14.8434 14.5416 14.2269 13.9578 13.5644 14.2209 14.5309 15.0588 14.8909 14.5809 14.9431 13.8003 12.5953 12.6781 12.2675 10.9009 9.3197 11.0331 13.3028 11.4797 8.5800 9.3391 12.0206 14.4694 13.9319 13.3244 13.3625 12.9066 12.5406 11.8159 12.2400 12.1228 12.3663 13.3894 14.4753 15.7081 17.7959 18.7297 17.2787 16.6791 19.3181 21.0903 20.4628 16.5916 13.1800 9.5978 6.3669 4.3394 4.7519 4.2013 3.4203 3.7222 4.0231 4.1359 4.0047 4.0300 4.0494 4.0094 4.0000 4.0000 4.0000 4.0000 4.0000 4.0000 4.0000 4.0000 4.0000 4.0000 4.0000 4.0000 4.0000 4.0000 4.0000 4.0009 4.1741 4.7634 5.4428 6.0678 6.2394 6.3187 6.5212 8.2634 8.6753 8.7566 8.8381 8.9197 9.0013 9.0828 9.1644 9.2456 9.3272 9.4131 9.6166 9.9822 9.9328 10.0203 10.3031 10.5600 10.5578 10.3194 10.0769 9.8700 9.7109 9.5719 9.3831 9.0831 9.0041 9.3313 8.9513 8.9216 8.5900 8.5484
8.6428 9.8253 10.3744 8.4987 3.7819 4.8334 7.5150 8.7019 9.2288 9.2200 6.4309 3.0809 0.8875 -0.4134 3.6191 7.2716 7.9706 8.2166 8.7887 9.1531 10.1884 12.5497 12.1369 12.0722 12.1466 11.6547 13.0409 15.4334 13.5453 12.9266 14.0550 14.7725 14.8594 14.5334 13.3784 12.9216 13.8331 13.9366 13.3219 13.1066 14.2675 15.4578 17.6400 16.4363 15.3134 16.6537 16.0763 13.3750 12.7647 12.5616 13.0897 15.8681 15.7672 14.5800 14.7416 14.2037 15.3891 14.2219 13.8878 13.5350 15.8313 18.0716 15.8419 13.1878 14.7784 13.6737 12.6538 13.9066 12.2163 11.7775 13.4328 14.0528 13.0559 12.9478 13.1572 12.2037 10.5178 10.7466 11.7900 14.4984 15.5391 18.1578 18.2969 15.5197 13.6844 12.9709 14.1356 13.0319 11.7253 11.0497 11.8991 11.8519 11.9978 12.7169 14.0056 17.5475 16.5109 15.4259 13.5216 12.9419 12.6231 15.1616 16.4928 13.7956 12.9150 13.8406 15.1800 15.3578 15.4900 15.5047 15.3284 15.1372 15.2194 15.7172 15.4688 14.4166 14.0284 15.5847 14.2966 12.8488 13.0222 12.8912 10.0494 8.2712 10.1791 13.4203 12.0813 8.4847 10.0753 13.1000 15.1094 14.1219 12.5622 12.3997 13.5756 12.6834 11.9237 12.0547 12.5969 14.6672 14.8778 15.0894 16.7169 18.0100 18.0163 16.4181 15.1297 17.9069 19.1322 18.1209 16.0356 14.3409 11.8928 7.2009 4.1041 4.2306 4.3803 4.3162 4.5422 4.4556 4.0797 4.0153 4.1028 4.1200 4.0522 4.0003 4.0000 4.0000 4.0000 4.0000 4.0000 4.0000 4.0000 4.0000 4.0000 4.0000 4.0000 4.0000 4.0000 4.0113 4.2981 4.9419 5.6213 6.3003 6.8806 7.0041 7.0837 7.1625 7.4869 8.7803 8.9441 9.0256 9.1072 9.1888 9.2700 9.3519 9.4528 9.7191 10.2066 10.7303 10.4456 9.5950 9.3516 9.2903 9.4366 9.7750 9.8687 9.9384 9.9644 9.9641 9.9497 9.7587 9.4541 9.2741 9.4622 8.9691 8.7897 8.4297 8.3984
7.9066 9.0631 9.9722 7.6047 5.1334 5.6744 7.0766 8.3912 8.1525 7.5266 2.6044 -2.8028 3.8891 2.9800 5.6203 9.0212 7.9731 7.8244 10.4806 12.2266 11.6131 13.0238 12.8106 12.2769 11.6138 12.2044 13.3016 14.4019 13.8228 13.4278 13.1369 13.8031 14.2431 14.2966 13.7384 14.0094 13.5781 13.5375 13.9769 14.2966 15.3975 18.7469 20.1522 17.5516 15.5184 14.8509 14.5084 12.7084 12.2491 13.3444 14.7950 15.8687 13.3075 12.7844 13.5494 15.1816 15.6891 14.7934 14.9194 15.1366 16.7450 17.3581 15.8272 14.4878 16.5909 15.9472 14.6912 15.4034 13.7094 12.3553 13.5084 14.7113 13.6547 13.6187 15.3588 15.3553 13.9134 14.2997 12.8494 13.6153 14.8466 16.9356 17.6422 14.1681 11.8400 11.7113 13.7113 11.8003 11.4203 10.9862 9.2309 8.8106 8.8394 7.7306 8.8484 14.5100 16.1091 14.2781 12.1012 8.5659 8.4975 9.5225 9.8303 10.7950 11.9288 13.0884 14.9347 15.5084 15.6109 15.7188 15.8553 16.1556 15.7722 15.4959 15.7684 15.4409 12.8897 14.8022 15.0644 13.3028 12.2022 10.0375 7.5981 7.1838 8.3809 10.8162 10.2153 9.6088 12.3562 15.3353 16.6028 14.1444 13.4541 12.3453 11.8072 11.7497 12.0659 12.3497 12.5334 13.8450 14.3197 15.3406 16.8634 16.6750 16.7659 17.2619 16.3534 16.9784 18.2397 17.7619 16.2447 15.6734 14.4369 9.2150 4.7753 4.0000 4.0053 4.5291 4.7069 4.2647 4.0044 4.0778 4.1800 4.1891 4.1159 4.0175 4.0000 4.0000 4.0000 4.0000 4.0000 4.0000 4.0000 4.0000 4.0000 4.0000 4.0000 4.0000 4.0409 4.4497 5.1206 5.7997 6.4791 7.1578 7.6781 7.7684 7.8481 7.9278 8.0063 8.3900 9.1313 9.2128 9.2944 9.3763 9.5087 9.8419 10.3813 10.9781 11.4838 10.9888 10.0259 9.1012 8.7966 8.8181 8.9606 9.1628 9.3831 9.5684 9.7497 9.9225 10.0312 10.3119 9.8313 9.5741 9.5681 9.0275 8.6609 8.2738 8.2500
7.3981 7.6228 7.6984 7.4834 6.6072 6.8934 7.0800 7.9106 7.2150 6.1709 2.2125 -2.8572 4.1550 6.1203 8.0091 8.6438 9.2497 8.0612 9.0400 12.2381 10.8194 10.4775 10.7194 11.6538 12.2219 12.8834 13.6687 14.2247 14.1719 14.0981 13.4825 13.1062 13.4594 13.8516 14.4744 14.3478 13.6847 13.2028 13.3984 14.2644 14.9516 17.1481 20.0284 16.9572 13.7856 13.1494 12.4012 11.0988 12.0575 14.7878 15.1791 13.9884 12.7059 13.3922 12.7437 13.1987 13.6637 13.6553 13.6731 15.0103 15.6931 16.2141 15.9034 14.7281 15.4684 16.9675 17.2987 16.9003 15.2034 12.3622 12.4494 14.0028 13.8397 12.9775 13.9766 15.3019 15.4928 15.1178 14.0597 13.5797 14.6462 15.0559 15.5266 13.3491 11.6272 11.4288 13.2662 9.2869 8.0916 10.7444 10.5356 9.6269 7.4341 7.1416 12.0806 15.0763 15.7309 13.7209 9.1637 5.5212 7.7747 9.2238 10.8125 11.0841 11.2441 12.3484 14.3191 15.6606 15.7653 15.8675 15.9066 15.0109 14.9578 15.4237 14.7269 14.3350 13.5075 14.6334 14.1422 13.0369 9.3025 8.6691 7.3247 7.5197 7.4553 6.3491 4.9409 8.2075 9.0281 10.3956 12.2659 12.4012 13.5988 12.8559 11.4409 11.8588 12.1269 12.5288 12.5731 12.6159 13.1553 13.3747 15.2441 15.9866 16.9422 17.0706 16.4503 15.8231 16.1544 16.3578 16.1413 16.5522 16.7969 12.7797 8.1922 5.5950 4.0159 4.0875 4.4059 4.0672 4.0325 4.1588 4.2578 4.2584 4.1809 4.0684 4.0019 4.0000 4.0000 4.0000 4.0000 4.0000 4.0000 4.0000 4.0000 4.0000 4.0000 4.0997 4.6197 5.2991 5.9778 6.6569 7.3362 8.0153 8.4625 8.5331 8.6125 8.6922 8.7719 8.8503 9.1478 9.4022 9.5856 9.9866 10.5594 11.1556 11.7522 12.1994 11.4328 10.5337 9.7416 9.0694 8.7422 8.8522 9.0450 9.2434 9.4872 9.7238 9.9128 9.8619 10.1522 10.9066 10.5434 9.9219 9.6497 9.0869 8.5766 8.1169 8.1000
6.3741 5.7259 6.7503 7.9156 8.4113 8.5425 8.4094 7.8669 5.8619 4.6625 3.5487 2.6050 3.7003 6.8900 8.3241 9.7631 10.7228 7.3884 7.8322 10.0369 9.5594 8.8581 9.1053 10.9181 12.4716 13.0578 13.6763 14.0491 14.4444 14.3397 13.6419 12.8906 12.6159 14.2234 14.8319 14.4803 13.8591 13.5409 14.0681 13.9881 13.6903 13.5441 16.2884 17.3388 15.5141 13.8353 11.0734 9.1763 11.1422 14.9206 14.0403 12.1763 14.1744 15.2375 13.8556 12.4384 12.3566 12.7216 13.5409 14.9266 15.8337 16.9966 16.9244 14.5266 13.1525 15.1062 16.6247 16.9084 16.4325 13.7453 12.5034 13.4700 13.9028 12.2772 12.3609 14.0434 13.9384 13.8775 14.6469 14.1334 14.5188 13.6091 13.8659 14.3197 13.2756 13.1525 14.8347 12.0734 9.4666 10.5625 9.7756 9.9056 8.7659 10.0794 15.5053 15.3522 15.1206 14.8944 12.5244 8.8072 9.8597 11.8978 13.6981 12.6972 11.7288 11.8625 13.4978 15.6497 15.9150 15.8753 15.0650 13.8956 14.4066 15.0138 14.5116 14.7150 14.7797 15.2853 14.3278 12.9559 9.5394 8.8781 9.2694 9.8234 12.5875 7.1425 2.6628 5.9041 8.5509 9.7516 9.8347 11.0441 11.5931 11.2922 11.2000 11.2081 12.0125 12.7309 12.6175 12.2581 11.7859 10.9022 11.9259 13.6891 16.0356 16.6419 15.1962 13.9750 15.1669 15.6669 16.5144 16.7872 16.3019 14.8966 12.7172 8.6444 5.6613 4.3713 4.0266 4.0053 4.1034 4.2391 4.3350 4.3291 4.2456 4.1331 4.0275 4.0000 4.0000 4.0000 4.0000 4.0000 4.0000 4.0000 4.0000 4.0022 4.1953 4.7978 5.4772 6.1562 6.8353 7.5003 8.0747 8.5238 8.4169 8.1950 8.3438 8.5375 8.7738 8.9706 9.2369 9.4941 10.0000 10.5997 11.1994 11.7991 12.3981 12.4906 11.2728 10.8272 10.4384 9.9984 9.5312 9.1359 9.1325 9.3259 9.5641 9.7841 9.8291 9.6862 10.3859 10.7403 10.3631 10.0159 9.8922 9.3594 8.7978 8.3269 8.1594
6.1013 6.1841 7.3734 8.8888 9.8013 9.5106 8.3784 6.4375 5.8175 5.7234 4.9259 4.1344 4.5044 7.1056 8.7450 10.2206 10.2047 7.1844 8.3094 10.2063 10.3669 10.1284 9.4022 10.8141 12.9050 13.2275 13.6653 13.7931 14.5550 14.5631 13.8497 13.4072 13.0934 13.8103 14.6263 14.5797 14.0925 14.4487 15.6759 15.6166 14.2897 12.1972 12.2259 13.9469 15.3456 15.8291 11.5337 9.5266 12.6316 14.4069 13.4441 11.6862 13.2013 13.8769 13.1009 12.7234 12.7638 13.2522 14.3003 16.9297 19.1262 17.2828 14.9103 12.3544 12.4934 12.0487 11.3131 14.0922 17.2819 16.7975 15.3206 11.7422 10.8497 11.7244 12.9803 13.6575 12.9619 12.7581 12.6781 12.1891 11.8241 11.4234 13.5981 15.7025 15.2756 16.1272 17.6022 17.1141 18.0550 16.0441 9.8072 9.6503 10.0712 10.6425 13.8638 13.8684 15.7772 16.5766 14.1613 11.4684 11.5141 13.0441 13.7816 12.7728 11.2647 11.5487 13.5456 15.7403 16.0659 15.7397 15.7409 15.0631 14.3775 14.2028 13.4172 13.3797 13.7103 14.0706 14.7897 16.0116 15.4047 12.7497 12.4806 14.7534 17.6287 14.7469 7.2659 6.5647 5.7022 7.7169 9.6969 10.5797 10.7709 10.6241 10.6300 10.6709 11.5441 12.6050 13.1944 13.0903 11.4084 10.6763 11.5369 10.8250 12.6484 14.6000 12.2250 12.1616 14.1025 15.3813 16.0175 16.3466 15.8778 16.1372 15.2712 11.2556 8.8631 7.0378 5.4803 4.1053 4.1347 4.3172 4.4116 4.3997 4.3100 4.1981 4.0853 4.0053 4.0000 4.0000 4.0000 4.0000 4.0000 4.0000 4.0156 4.3253 4.9763 5.6456 6.2438 6.7372 7.1072 7.3666 7.5934 7.8184 7.7488 7.2559 7.7078 7.8700 7.7766 8.3097 9.6072 9.1531 9.0628 9.6572 10.2578 10.8588 11.4587 12.1866 12.4209 11.3475 10.9334 10.6266 10.3038 9.9394 9.5566 9.4319 9.5350 9.4647 9.3722 9.6281 9.6466 9.5753 9.7097 9.8572 10.1656 10.0506 9.4812 9.0031 8.6344
7.1789 6.9223 8.5477 10.1250 10.6910 9.2715 7.5086 6.4293 6.6664 6.9215 6.3883 5.5582 5.4430 7.2992 9.1180 10.5938 9.4879 7.5176 8.7098 10.3230 10.4922 10.6598 10.7906 11.3023 12.8371 13.6340 13.7895 13.5063 14.4684 14.8832 15.1242 14.3730 13.1926 13.7066 14.3234 14.4941 14.6984 15.8629 17.1363 17.0348 14.6000 12.4133 11.9621 12.4937 14.9352 15.4645 12.6641 12.1352 13.9000 14.8156 14.8953 13.8766 12.3668 11.8820 12.1770 12.9199 13.3684 13.7559 14.1027 16.8289 19.7660 15.4352 12.1762 10.6273 11.1227 10.1039 8.2895 12.2902 15.2684 15.7770 15.9406 12.4684 10.3035 12.6062 13.0359 13.1168 14.0004 12.4844 11.7691 10.9758 9.7937 11.0441 12.8594 13.5957 12.3973 15.4219 17.2062 18.9207 19.8133 17.7855 11.9344 11.2266 10.2332 10.0625 12.3145 14.0188 18.2641 17.9559 15.2488 12.7473 12.5473 14.4594 13.7617 12.1266 11.5648 12.5684 14.5020 15.8891 15.7906 14.9383 15.7672 15.1613 12.8844 12.8324 12.6406 12.8145 12.4641 13.0539 15.7258 17.3352 17.2570 15.1473 14.4676 16.6672 16.3934 14.1473 6.5180 5.7461 5.1980 7.0758 9.8453 10.5805 10.9852 10.0973 10.0621 10.3984 11.5184 13.2359 13.3223 13.5832 11.4375 11.2203 11.9535 11.5813 11.6449 12.6230 10.5078 10.2891 13.2676 14.4578 15.0016 14.9633 15.5465 16.5684 17.4305 14.1160 11.3324 9.5453 7.5289 5.1602 4.0297 4.2656 4.4543 4.4613 4.3688 4.2227 4.0242 4.0578 4.1125 4.0414 4.0000 4.0000 4.0000 4.0207 4.3789 4.9391 5.3898 5.7074 5.9590 6.1852 6.4105 6.6250 6.8141 6.9859 7.1125 6.9941 6.6211 6.4199 7.4535 9.0789 10.0164 9.1465 8.3770 8.7621 9.3621 9.9625 10.5633 11.2258 12.2465 12.3270 11.3211 10.9586 10.6465 10.3340 10.0215 9.7121 9.4398 9.1969 9.0688 9.2063 9.3543 9.5023 9.6508 9.7984 10.1168 10.5258 10.1141 9.5809 9.3652
