ncols         219
nrows         142
xllcorner     582771.758099999977
yllcorner     2323018.40139999986
cellsize      49.97360521385
NODATA_value  -9999
10.8359375 10.8828125 10.8671875 9.890625 10.171875 11.78125 12.9921875 12.9375 12.3515625 11.96875 11.6640625 11.6015625 11.703125 10.75 11.4765625 12.890625 14.046875 14.4609375 14.1640625 14.171875 14.1171875 13.2578125 12.890625 11.578125 9.828125 8.7578125 9.828125 10.0546875 9.8046875 11.140625 12.375 12.9921875 12.390625 11.6640625 10.6484375 9.1796875 8.0078125 8 8 8 8 8 8 8 8 8 8 8 8 8 8 8 8.1875 9.359375 11.21875 12.875 12.8125 13.4609375 14.5078125 15.375 16.09375 16.078125 15 14.5078125 14.125 13.5546875 13.328125 13.09375 13.078125 13.8671875 15.15625 15.3828125 14.9453125 14.3828125 13.7109375 13.1484375 13.5625 14.375 14.1015625 13.9140625 12.59375 12.609375 11.0703125 8.03125 5.5859375 5 5.546875 8.765625 10.4296875 8.921875 6.3203125 5.0390625 5 5 5 5 5 5 5 5 5 5 5 5 5 5 5 5 5 5 5.2265625 7.3046875 9.8125 10.4140625 11.0390625 11.71875 12.2265625 12.7265625 13.234375 13.8671875 14.875 16.171875 17.03125 17.015625 17.96875 16.6796875 12.1484375 5.6015625 5.0390625 6.8125 6.4453125 6.8359375 9.4609375 11.2890625 12.265625 13.3203125 14.90625 16.0078125 15.6953125 16.453125 16.8984375 16.9296875 15.6875 15.953125 16.7265625 16.4453125 16.21875 15.984375 15.6640625 15.2109375 15.3359375 16.4453125 16.3828125 12.421875 10 10.3046875 10.59375 9.1953125 6.3046875 5.25 5.0078125 5 5 5 5 6.2734375 9.734375 12.6640625 14.1953125 15.859375 15.46875 14.5859375 13.7265625 13.15625 13.3046875 13.4140625 12.9765625 12.3515625 12.3828125 11.7734375 10.671875 10.625 10.53125 10.6328125 11.125 12.5234375 14.3984375 14.8125 13.9375 12.9453125 11.3203125 12.1171875 12.9609375 14.140625 14.359375 13.0703125 11.0390625 11.4765625 11.0859375 10.953125 10.90625 10.296875 10.015625 10.171875 10.921875 11.1015625 11.625 12.015625 12.125 11.734375 11.203125 10.421875 11.1640625 12.4140625 13.6171875 12.609375 12.578125 13.1640625 12.375
9.390625 9.7421875 10.046875 8.671875 9.8515625 12.2734375 12.703125 12.0625 11.765625 11.5859375 11.0703125 10.8984375 10.1875 8.9296875 10.8203125 12.1796875 12.8828125 12.984375 14.078125 14.3046875 14.1171875 12.765625 10.8046875 9.65625 8.703125 8.9765625 9.328125 10.203125 11.8515625 12.140625 12.6015625 13.1875 12.046875 11.0859375 9.65625 8.5546875 8 8 8 8 8 8 8 8 8 8 8 8 8 8 8 8.0703125 8.9453125 10.859375 12.6640625 13.234375 12.875 13.40625 14.453125 15.4609375 17.015625 16.5546875 15.4296875 14.9140625 14.4375 14.0625 13.78125 13.4921875 13.5 14.625 14.9453125 14.984375 14.96875 14.4765625 13.890625 13.640625 14.1484375 14.59375 14.0078125 13.5078125 12.8359375 13.0859375 12.2890625 8.484375 5.7890625 5.0859375 6.8359375 8.8203125 9.46875 7.375 5.328125 5 5 5 5 5 5 5 5 5 5 5 5 5 5 5 5 5 5 5.140625 6.8203125 9.1640625 9.875 10.3828125 11.078125 11.59375 12.09375 12.59375 13.09375 13.59375 14.109375 14.8359375 15.8984375 16.46875 17.5078125 17.203125 15.1875 11.8828125 7.5390625 5.625 5.4765625 5.546875 7.828125 9.90625 10.9765625 12.296875 13.625 13.9765625 14.4921875 16.3984375 17.3515625 17.8515625 16.34375 16.2578125 16.515625 16.0546875 15.765625 15.0703125 14.421875 13.6953125 13.4765625 14.8515625 13.0234375 10.0390625 9.0234375 10.4921875 11.0859375 8.5625 6.1875 5.140625 5 5 5 5.03125 5.0703125 7.5703125 11.9765625 15.515625 16.1640625 15.921875 15.3359375 13.921875 13.046875 12.3828125 12.5078125 12.7109375 12.4609375 11.8515625 12.4921875 12.125 10.40625 9.6875 9.75 9.9609375 10.796875 12.53125 14.3125 14.7890625 12.6015625 10.578125 11.640625 13.5546875 14.6640625 15.1015625 15.15625 13.375 11.65625 13.109375 12.3515625 11.1796875 11.203125 10.7265625 10.625 10.625 10.9609375 11.3515625 11.75 11.6875 11.734375 11.4453125 11.171875 10.5078125 11.28125 12.375 13.609375 13.9765625 13.6796875 13.6640625 13.3671875
9.3125 9.03125 8.4921875 7.71875 8.625 11.25 11.1171875 10.7734375 10.9765625 10.96875 10.65625 10.359375 9.625 7.8515625 8.90625 10.9140625 11.328125 11.109375 13.078125 14.1484375 14.0625 12.4453125 10.2265625 9.1640625 9.0703125 9.5625 9.6171875 10.6484375 12.3828125 12.4765625 12.0703125 10.6953125 10.3984375 10.78125 8.4375 8.140625 8 8 8 8 8 8 8 8 8 8 8 8 8.015625 8.046875 8.109375 8.6875 10.484375 12.6015625 13.6328125 13.375 12.9765625 13.34375 14.3828125 15.6796875 17.2421875 16.6484375 15.2265625 14.515625 14.5390625 14.4609375 14.21875 14.0546875 13.8671875 14.859375 14.34375 14.3125 14.5078125 14.1484375 14.0859375 14.15625 15.078125 15.1640625 14 13.765625 13.7578125 13.1640625 12.7109375 7.03125 5.1875 5.453125 6.921875 8.2265625 8.1484375 5.84375 5.0078125 5 5 5 5 5 5 5 5 5 5 5 5 5 5 5 5 5 5.1015625 6.5859375 8.640625 9.2890625 9.7578125 10.4296875 10.9375 11.4375 11.9375 12.4375 12.9453125 13.4453125 13.9453125 14.4453125 14.9609375 15.671875 16.0546875 16.0625 16.125 16 13.34375 8.578125 6.53125 5.09375 5.8515625 7.0390625 7.546875 9.4453125 11.125 11.7421875 12.609375 14.8203125 15.859375 16.8515625 16.1328125 15.203125 14.59375 13.4296875 13.4453125 12.90625 11.671875 10.4296875 10.21875 10.8984375 10.8359375 9.8515625 8.4921875 8.4453125 8.5859375 6.53125 5.3203125 5.1015625 5.015625 5.2890625 5.96875 7.25 8.15625 9.65625 13.0625 15.609375 16.4921875 15.7578125 15.625 13.765625 12.296875 11.546875 11.609375 11.8515625 11.8515625 11.4296875 12.75 12.4609375 10.84375 9.0546875 8.796875 10.0546875 11.3515625 13.328125 14.6328125 14.578125 12.2421875 12.0390625 13.828125 14.4921875 14.4140625 14.2421875 14.1875 11.9609375 11.296875 13.328125 13.1328125 12.09375 11.5546875 11.3046875 11.296875 11.2890625 11.3125 11.4765625 11.4609375 11.34375 11.3125 11.140625 11.1171875 10.625 11.40625 12.5078125 13.6015625 14.34375 13.1015625 11.5546875 11.2109375
9.1875 9.1015625 8.6015625 8.2890625 7.203125 8.84375 9.4921875 9.4296875 10.2734375 10.4453125 10.21875 9.9140625 9.453125 8.0234375 8.546875 10.109375 11.15625 11.6484375 12.703125 13.640625 13.9609375 13.0234375 12.0625 10.1796875 9.5546875 9.953125 10.234375 10.328125 12.1328125 12.953125 11.71875 9.5234375 9.4921875 9.1171875 8 8 8 8 8 8 8 8 8 8 8.0390625 8.1796875 8.265625 8.359375 8.4765625 8.6015625 9.15625 11.1796875 12.7578125 13.8828125 13.9140625 13.5 13.09375 13.3046875 14.296875 15.6640625 16.0078125 15.578125 15.453125 14.484375 14.9765625 15.0078125 14.6640625 14.1953125 13.359375 12.828125 13.78125 14.75 14.0625 13.8046875 14.09375 15.0234375 16.2265625 16.015625 14.78125 13.9453125 13.0625 12.203125 11.78125 8.0625 5.0546875 5.21875 6.328125 7.5625 6.6015625 5.09375 5 5 5 5 5 5 5 5 5 5 5 5 5 5 5 5 5 5.0625 6.3125 8.0625 8.6875 9.140625 9.78125 10.2890625 10.7890625 11.2890625 11.7890625 12.2890625 12.7890625 13.2890625 13.7890625 14.2890625 14.7890625 15.28125 15.6796875 15.9296875 16.1171875 16.2578125 16.0625 13.8515625 10.7734375 7.859375 6.4140625 5.203125 5.3671875 7.1328125 8.4296875 9.15625 10.078125 11.984375 12.609375 12.578125 12.9453125 12.921875 12.3125 10.4609375 9.8203125 10.3125 9.375 8.3671875 8.484375 7.796875 8.6953125 9.1171875 7.921875 6.984375 6.1015625 5.234375 5.328125 5.5234375 6.5703125 7.9375 9.3359375 11.1328125 12.9921875 13.546875 12.8515625 13.796875 15.4921875 15.5078125 15.5078125 14.5859375 11.828125 10.7421875 10.6875 10.96875 11.1640625 11.203125 13.046875 12.859375 11.8984375 10.2421875 10.6796875 13.0546875 13.2109375 14.96875 14.9609375 13.640625 13.2265625 13.9453125 14.2890625 13.6640625 13.8671875 14.671875 15.6484375 13.703125 12.4609375 13.3125 12.515625 11.9296875 11.9765625 11.859375 11.796875 11.6484375 11.3828125 11.2265625 11.1328125 10.9921875 10.9140625 10.8359375 11.015625 10.7421875 11.5390625 12.625 13.046875 12 10.3515625 9.21875 9.265625
8.421875 8.1328125 8.2734375 8.3359375 7.1328125 7.5078125 8.34375 9.21875 9.828125 9.796875 9.734375 9.515625 9.1796875 8.9453125 9.765625 10.109375 10.296875 11.0703125 12.46875 13.65625 13.9375 13.390625 12.4609375 10.734375 10.4609375 10.9609375 11.265625 11.390625 13.3828125 14.8671875 12.859375 9.59375 8.4453125 8.03125 8 8 8 8 8 8 8 8 8 8 8.109375 8.7734375 8.9765625 9.09375 9.21875 9.78125 11.21875 12.78125 13.9921875 14.546875 14.1953125 13.65625 13.21875 13.2578125 14.1640625 14.7890625 14.5546875 14.515625 14.9375 15.6484375 16.8203125 16.390625 15.4921875 14.2578125 12.75 12.1328125 14.1875 14.3984375 13.8515625 13.6484375 14.046875 15.4921875 17.1796875 17.296875 15.984375 14.5390625 13.140625 11.8671875 10.921875 7.6640625 5.03125 5.0234375 5.7421875 6.6484375 5.3828125 5 5 5 5 5 5 5 5 5 5 5 5 5 5 5 5 5 5.046875 6.0234375 7.4453125 8.0625 8.515625 9.125 9.6328125 10.1328125 10.6328125 11.1328125 11.6328125 12.140625 12.640625 13.140625 13.6328125 14.1171875 14.6015625 14.984375 15.140625 15.34375 15.78125 15.9921875 16.03125 15.859375 15.7265625 12.8671875 9.4765625 6.671875 5.3125 5.25 5.890625 6.7109375 7.65625 9.1015625 9.421875 9.765625 10.46875 10.625 8.7421875 7.671875 8.1328125 8.5859375 7.1015625 6.2890625 6.515625 5.609375 5.8828125 7.0078125 6.75 6.09375 5.5 5.359375 6.0859375 7.8828125 9.859375 11.4375 12.8125 14.3515625 15.1484375 14.9921875 14.0390625 13.1796875 14.1640625 14.9140625 14.9609375 15.1796875 12.6328125 10.0234375 9.75 10.078125 10.3828125 11.078125 13.4609375 15.6796875 14.7734375 12.9453125 13.203125 14.6875 14.09375 15.125 15.0703125 13.6484375 13.046875 14.1484375 14.28125 13.6484375 14.90625 16.1875 17.515625 17.265625 14.4375 13.765625 13.125 11.9921875 12.171875 11.8984375 11.578125 11.2265625 10.828125 10.78125 10.953125 10.6953125 10.5390625 10.515625 10.890625 10.875 11.6171875 11.6875 10.5390625 8.9375 8.03125 8.296875 8.2421875
8.9921875 8.28125 8.265625 8.3359375 8.0078125 7.59375 8.1484375 9.0546875 9.15625 9.109375 9.0703125 9.015625 8.8671875 9.6875 10.578125 9.8046875 9.6015625 10.4921875 12.53125 13.46875 12.6953125 12.046875 10.9453125 10.890625 11.8125 12.6953125 12.8046875 12.8671875 15.046875 16.140625 13.234375 10.3203125 8.7890625 8.0390625 8 8 8 8 8 8 8 8 8 8 8.0390625 9.03125 9.71875 9.8359375 10.46875 11.6328125 12.859375 13.828125 14.2890625 14.1328125 13.7890625 13.921875 13.578125 13.09375 13.609375 13.4140625 13.046875 13.2265625 13.796875 15.5546875 17.6875 17.125 16.1328125 15.109375 13.84375 12.2265625 13.484375 13.9765625 13.6171875 13.328125 13.875 15.6484375 17.28125 17.4296875 16.359375 14.9140625 13.4609375 12.078125 10.8125 8.171875 5.171875 5 5.28125 5.6171875 5.0078125 5 5 5 5 5 5 5 5 5 5 5 5 5 5 5 5 5.0234375 5.6953125 6.7890625 7.421875 7.8984375 8.4765625 8.984375 9.484375 9.984375 10.484375 10.984375 11.484375 11.9765625 12.46875 12.953125 13.4296875 13.90625 14.2890625 14.4453125 14.53125 14.625 15.125 15.6015625 15.6875 15.640625 15.984375 15.5703125 13.8203125 11.0859375 7.7109375 5.4921875 5.0078125 5.109375 5.5078125 6.265625 6.703125 7.140625 7.0546875 6.6328125 5.5703125 5.765625 6.3984375 6.984375 5.9609375 5.2421875 5.03125 5 5.03125 5.2578125 5.421875 5.78125 6.34375 7.2578125 8.859375 11.2265625 13.046875 14.1953125 14.828125 15.0078125 15.125 15.6328125 15.328125 14.25 13.5546875 14.140625 14.2890625 14.9140625 14.03125 10.328125 8.8359375 9.1171875 9.296875 9.4453125 11.8359375 14.140625 15.0625 13.921875 13.265625 13.0234375 12.7421875 13 13.6015625 13.1953125 12.6875 13.9375 14.9453125 14.328125 14.46875 16.6875 17.6328125 17.4609375 14.609375 12.5390625 13.2109375 12.6875 12.171875 11.421875 10.875 10.5625 10.296875 10.375 11.2265625 10.765625 10.234375 10.203125 10.734375 10.984375 11.0234375 10.6015625 10.40625 9.796875 8.78125 8.890625 9.5390625
10.015625 9.2421875 8.4375 8.6328125 8.1015625 6.984375 7.9921875 8.6953125 8.7109375 8.7109375 8.7265625 8.7421875 9.171875 9.390625 9.625 9.5390625 10.2578125 11.7265625 13.0703125 12.296875 11.1171875 10.609375 10.34375 11.0859375 11.7890625 12.7734375 13.546875 14.1328125 15.3515625 15.359375 12.15625 9.03125 8.1328125 8.015625 8 8 8 8 8 8 8 8 8 8 8 8.53125 10.203125 11.078125 12.4609375 12.96875 13.6875 14.0703125 13.765625 12.984375 12.734375 13.5625 13.6875 13.765625 14.609375 12.578125 11.7734375 12.6640625 13.421875 15.015625 16.8125 17 17.3671875 16.796875 15.234375 12.0234375 11.7734375 12.359375 12.5078125 12.796875 13.796875 15.6875 16.9609375 17.140625 16.21875 15.1640625 13.828125 12.3828125 11.0390625 9.15625 5.609375 5 5.046875 5.0703125 5 5 5 5 5 5 5 5 5 5 5 5 5 5 5 5 5 5.3125 6.1171875 6.765625 7.2734375 7.828125 8.328125 8.828125 9.328125 9.828125 10.328125 10.8203125 11.3046875 11.78125 12.2578125 12.734375 13.2109375 13.59375 13.75 13.8359375 13.921875 14.015625 14.1953125 15.046875 15.359375 15.3828125 15.7578125 16.109375 16.28125 14.4296875 11.3515625 8.921875 6.7265625 5.25 5 5.015625 5.0859375 5.2421875 5.6328125 5.8125 5.3203125 5.0078125 5.0859375 5.34375 5.1640625 5 5 5.484375 5.7109375 5.5234375 6.8828125 9.671875 11.4765625 12.40625 12.8125 13.75 14.09375 14.1875 14.7578125 14.9765625 15.125 15.4453125 16.265625 15.6640625 14.3203125 13.875 13.7109375 14.078125 14.5625 11.7265625 8.171875 8.015625 7.3359375 8.765625 11.828125 12.5703125 13.953125 14.109375 13.25 12.484375 11.5625 11.5078125 12.3125 12.2421875 12.125 13.1484375 14.0859375 14.1328125 14.0625 14.0546875 14.359375 15.046875 13.953125 11.9453125 11.546875 10.8515625 11.1875 11.796875 11.8671875 10.703125 10.28125 10.4765625 10.5859375 9.890625 9.9765625 10.2421875 11.078125 11.2421875 10.53125 9.953125 9.5625 9.6796875 9.4609375 9.296875 10.203125
10.609375 10.328125 9.2265625 8.515625 6.9140625 7.1328125 7.9140625 8.671875 9.1640625 9.28125 9.328125 9.5234375 11.8671875 11.6484375 9.640625 9.171875 10.3828125 12.6484375 12.75 11.4375 10.25 9.6953125 10.15625 10.875 11.9375 13.0546875 13.8125 14.390625 14.2734375 13.625 11.1015625 8.7109375 8 8 8 8 8 8 8 8 8 8 8 8 8 8.0625 9.6796875 12.9765625 13.4375 13.6015625 13.890625 13.453125 12.5078125 11.21875 11.0703125 12.59375 14.0703125 14.5703125 15.6328125 14.8359375 14.453125 15.7265625 14.671875 15.0625 16.6484375 16.5 17.3046875 17.3359375 16.078125 11.984375 10.9765625 11.7890625 12.2890625 12.625 13.8828125 15.671875 16.5546875 16.8515625 15.921875 14.921875 13.9140625 12.7109375 11.3125 9.7734375 6.1484375 5 5 5 5 5 5 5 5 5 5 5 5 5 5 5 5 5 5 5 5.015625 5.4375 6.09375 6.640625 7.171875 7.6796875 8.1796875 8.671875 9.1640625 9.6484375 10.1328125 10.609375 11.0859375 11.5625 12.0390625 12.515625 12.8984375 13.0546875 13.140625 13.2265625 13.3203125 13.40625 13.4921875 13.984375 14.953125 15.109375 15.765625 16.171875 16.09375 15.5625 14.3828125 13.0625 9.8359375 6.7265625 5.234375 5 5 5.0234375 5.3203125 5.421875 5.1015625 5 5.046875 5.40625 5.1484375 5.0078125 5 5.96875 7.5390625 8.8515625 12.8984375 14.046875 15.1015625 15.34375 14.5234375 14.078125 14.3125 14.2890625 14.6875 14.9140625 15.1171875 15.28125 16.203125 16.8515625 15.6953125 14.546875 13.8125 13.25 13.5703125 12.7734375 11.5625 11.859375 11.0078125 10.34375 12.453125 12.921875 13.359375 14.046875 13.2734375 12.4140625 11.546875 11.453125 12.171875 12.8671875 13.2109375 12.9296875 13.3125 14.2734375 13.6796875 12.28125 13.6796875 14.7578125 13.125 11.359375 10.6328125 9.2421875 9.828125 11.6953125 12.1796875 10.5703125 10.171875 10.21875 9.9609375 10.484375 10.8359375 11.0546875 11.953125 11.5703125 10.4296875 9.1953125 8.9609375 9.4375 9.25 8.5703125 8.9765625
10.1015625 11.25 10.609375 9.2421875 7.484375 7.5703125 7.609375 8.28125 9.1484375 9.8125 10.0703125 11.609375 15.1796875 13.9296875 10.765625 8.859375 10.109375 11.5234375 11.2734375 10.1015625 9.1484375 9 10.015625 10.96875 12.390625 13.4296875 14.2265625 14.9375 14.1796875 13.0234375 10.984375 8.6015625 8 8 8 8 8 8 8 8 8 8 8 8 8 8.21875 10.1015625 12.15625 13.1640625 13.5703125 13.078125 11.6875 10.078125 9.2578125 10.1484375 11.96875 13.8984375 15.2265625 16.2890625 17.1640625 17.4296875 17.1875 15.1015625 15.046875 16.0546875 17.15625 18.328125 17.6171875 16.6875 14.390625 12.6953125 12.6484375 12.0234375 12.5859375 13.9765625 15.4453125 16.2265625 16.5625 15.625 14.625 13.6328125 12.6328125 11.5390625 10.21875 6.859375 5 5 5 5 5 5 5 5 5 5 5 5 5 5 5 5 5 5 5 5.015625 5.421875 6 6.5234375 7.0234375 7.515625 8 8.4765625 8.953125 9.4375 9.9140625 10.390625 10.8671875 11.34375 11.8203125 12.203125 12.359375 12.4453125 12.53125 12.625 12.7109375 12.796875 12.8828125 12.9921875 13.9921875 15.0234375 15.8671875 15.6171875 14.8359375 13.8515625 13.2421875 13.96875 11.5859375 9.5078125 7.6171875 5.3203125 5 5 5.1015625 5.09375 5.0078125 5.0625 6.359375 7.5546875 6.7578125 5.9375 5.546875 9.1015625 11.9140625 12.25 14.4296875 15.2890625 15.5078125 14.671875 13.6484375 13.7578125 14.6875 14.5859375 14.5390625 14.8203125 15.046875 15.3046875 15.578125 17.296875 17.125 15.3984375 13.890625 13.234375 13.2265625 13.515625 14.6953125 15.7890625 15.0703125 12.4921875 12.6015625 13.2421875 13.546875 13.6875 13.28125 12.578125 12.0234375 12.0234375 12.6484375 13.265625 13.609375 13.875 14.1953125 14.1953125 13.984375 13.765625 14.140625 14.0546875 11.3046875 10.21875 10.3515625 9.8359375 9.4609375 10.4609375 12.296875 12.0546875 11.4609375 10.46875 10.453125 11.4453125 11.84375 11.9609375 12.6015625 11.8046875 10.671875 9.609375 9.046875 8.9765625 8.6328125 7.484375 6.7890625
8.890625 11.3828125 10.40625 8.640625 7.2109375 7.125 7.125 7.7421875 8.640625 9.5546875 10.40625 12.734375 15.6171875 13.3984375 10.6953125 8.875 9.3359375 10.1796875 10.0703125 10.0078125 9.1171875 9.4921875 10.9296875 11.875 12.8515625 13.703125 14.3671875 14.5859375 13.375 11.796875 10.03125 8.25 8 8 8 8 8 8 8 8 8 8 8 8 8 8.4296875 10.2421875 11.328125 12.3359375 11.5390625 9.6875 8.90625 8.5390625 9.4921875 11.1953125 12.5703125 13.984375 15.4375 17.21875 19.046875 17.375 15.53125 14.2109375 14.640625 15.7265625 17.7890625 18.1875 17.140625 15.859375 15.2890625 15.015625 12.7578125 10.8671875 11.7265625 13.7734375 15.0859375 15.9609375 16.2734375 15.328125 14.3359375 13.3359375 12.34375 11.34375 10.328125 7.8125 5.109375 5 5 5 5 5 5 5 5 5 5 5 5 5 5 5 5 5 5 5.0078125 5.3515625 5.859375 6.34375 6.828125 7.3046875 7.78125 8.265625 8.7421875 9.21875 9.6953125 10.171875 10.65625 11.1328125 11.515625 11.6640625 11.75 11.8359375 11.921875 12.015625 12.1015625 12.1875 12.28125 12.3671875 12.6875 14.1484375 15.296875 14.6171875 13.828125 13.171875 13.1484375 14.3671875 14.0546875 13.2265625 10.96875 6.9921875 5.2890625 6.046875 7.71875 7.1875 6.1328125 6.59375 12.2109375 12.4453125 8.9140625 7.7890625 6.59375 10 12.84375 13.5390625 14.03125 14.8359375 15.296875 14.6328125 13.984375 13.796875 14.5546875 14.609375 14.34375 14.5 14.9375 15.2734375 15.4453125 16.7421875 18.1640625 16.734375 14.578125 14.109375 14.203125 13.8359375 13.984375 12.75 11.1171875 10.625 11.34375 12.875 13.8515625 13.6015625 12.71875 12.34375 12.28125 12.21875 12.453125 12.9375 13.609375 15.0078125 14.265625 12.2734375 13.5703125 14.015625 13.296875 12.71875 11.171875 9.828125 9.328125 9.1171875 9.0078125 9.78125 12.109375 13.296875 12.734375 11.7734375 11.1484375 11.984375 12.828125 12.8359375 12.75 12.5859375 11.671875 10.4375 9.65625 8.71875 8.0234375 7.3203125 6.75
8.6484375 9.7890625 10.3828125 9.0078125 6.7890625 6.5859375 6.6328125 7.203125 8.09375 9.109375 9.84375 12.125 13.53125 10.9375 9.3984375 9.015625 8.96875 9.2109375 9.4765625 11.3046875 11.1484375 10.3125 11.359375 12.0703125 12.65625 13.2265625 13.734375 13.328125 12.1953125 10.6875 8.875 8.015625 8 8 8 8 8 8 8 8 8 8 8 8 8 8.703125 10.046875 10.5625 11.3203125 9.7734375 8.6796875 9 9.5234375 10.765625 11.75 12.46875 13.5234375 15.3203125 20.1640625 21.1953125 17.359375 14.4765625 12.234375 13.3828125 15.953125 17.109375 17.5625 16.65625 15.3515625 15.3984375 15.953125 14.46875 11.4453125 10.515625 12.6015625 14.734375 15.703125 15.984375 15.03125 14.0390625 13.046875 12.09375 11.375 10.9765625 9.90625 6.0859375 5.015625 5 5 5 5 5 5 5 5 5 5 5 5 5 5 5 5 5 5 5.1953125 5.65625 6.1328125 6.609375 7.09375 7.5703125 8.046875 8.5234375 9 9.4765625 9.9609375 10.4375 10.8125 10.96875 11.0546875 11.140625 11.2265625 11.3203125 11.40625 11.4921875 11.5859375 11.7109375 11.8828125 12.125 13.3671875 14.5625 13.8984375 13.2578125 13 14.0546875 15.265625 14.984375 14.03125 12.6640625 9.5078125 7.46875 8.953125 11.796875 12.921875 11.1328125 10.3984375 12.4296875 12.03125 10.546875 9.1328125 7.6015625 10.0625 12.875 13.359375 13.7109375 14.203125 14.9609375 14.6328125 14.484375 14.140625 14.4765625 14.578125 14.2734375 14.1171875 14.6015625 15.546875 15.1640625 15.40625 17.0859375 16.9609375 14.828125 14.5703125 14.78125 14.0078125 13.71875 11.8515625 9.4765625 9.578125 10.0703125 12.125 13.8515625 14.203125 12.8984375 12.7890625 13.34375 12.9375 12.2421875 12.5546875 13.5078125 14.3671875 13.8984375 11.6484375 12.046875 13.09375 12.65625 12.1875 11.5234375 10.5390625 10.3515625 9.484375 9.5390625 10.703125 12.0390625 12.9296875 12.9375 12.078125 11.3046875 12.5 14.15625 13.609375 12.8125 12.7890625 12.1015625 10.90625 10.4765625 9.4765625 8.484375 7.6796875 7.15625
8.125 9.3203125 9.484375 9.28125 6.7109375 6.484375 6.359375 6.4375 7.3671875 8.6171875 9.2265625 11.265625 11.1875 9.8671875 9.6015625 9.4140625 9.171875 8.8828125 8.7890625 10.3203125 11.7890625 11.53125 11.296875 10.8359375 11.484375 12.2421875 12.7890625 11.859375 10.6015625 9.3125 8.21875 8 8 8 8 8 8 8 8 8 8 8 8 8 8 8.8984375 9.5546875 9.8203125 10.046875 8.65625 8.7734375 9.21875 10.0703125 12.0078125 12.265625 11.9609375 12.2109375 14.390625 19.3046875 20.921875 16.9375 13.7734375 11.4296875 12.828125 16.1171875 15.109375 15.0234375 15.625 14.9765625 15.484375 16.1875 15.8828125 14.84375 13.5859375 13.546875 15.1484375 15.65625 15.7109375 14.765625 13.8515625 13.2109375 12.875 12.75 12.625 12.09375 9.03125 6.3046875 5.0703125 5 5 5 5 5 5 5 5 5 5 5 5 5 5 5 5 5 5.0546875 5.4375 5.9140625 6.3984375 6.875 7.3515625 7.828125 8.3046875 8.78125 9.265625 9.7421875 10.125 10.265625 10.359375 10.4453125 10.53125 10.625 10.7109375 10.8046875 10.9296875 11.109375 11.3203125 11.5390625 11.7578125 12.8359375 13.890625 13.359375 12.90625 13.765625 15.1484375 15.7890625 15.265625 12.9375 11.515625 11.21875 10.53125 11.390625 13.71875 14.953125 15.1171875 14.921875 15.0625 13.59375 11.859375 10.1953125 8.625 10.3046875 12.9140625 13.2109375 13.515625 13.6875 14.4765625 14.546875 14.8125 14.546875 14.5859375 14.6328125 14.1484375 14.0390625 14.6015625 15.7265625 15.03125 14.296875 14.5390625 15.6640625 14.2109375 14.4453125 13.890625 13.34375 14.0234375 14.1640625 11.0078125 10.171875 11.65625 14.140625 15.0625 14.765625 13.9296875 13.015625 12.640625 12.609375 12.421875 12.1015625 12.640625 12.9921875 12.875 12.15625 11.9921875 12.2890625 12.984375 13.0859375 12.3125 11.5546875 12.5625 12.328125 11.34375 11.171875 11.75 12.78125 12.921875 12.3671875 12.421875 13.5859375 14.4453125 13.3359375 11.96875 11.53125 11.8984375 11.578125 11.1796875 10.3515625 9.125 7.953125 7.5625
7.453125 8.4375 8.59375 9.375 7.3828125 7.5703125 8.1328125 7.1875 6.671875 7.5078125 9 10.3125 10.3125 10.125 9.953125 9.78125 9.6171875 9.4765625 9.3203125 9.4921875 10.5078125 11.0625 11.328125 11.921875 11.9609375 11.8125 12.2734375 10.921875 9.5234375 8.265625 8 8 8 8 8 8 8 8 8 8 8 8 8 8 8.0390625 8.8359375 8.9765625 9.0859375 8.8203125 8.5234375 8.9609375 9.4140625 10.328125 11.390625 11.21875 11.03125 11.1015625 11.5546875 15.3984375 18.2109375 16.875 15.0390625 12.546875 12.3203125 13.09375 13.0625 13.453125 13.859375 13.96875 14.1640625 15.34375 16.0234375 16.328125 17.1328125 16.625 16.4609375 16.078125 15.484375 14.9296875 14.6171875 14.453125 14.2890625 14.109375 13.9296875 13.6796875 11.5 8.390625 5.71875 5.0234375 5 5 5 5 5 5 5 5 5 5 5 5 5 5 5.03125 5.046875 5.0078125 5.2265625 5.703125 6.1796875 6.65625 7.1328125 7.609375 8.09375 8.5703125 9.046875 9.421875 9.5703125 9.6640625 9.75 9.8359375 9.9296875 10.0234375 10.1484375 10.3359375 10.546875 10.765625 10.984375 11.1953125 11.4140625 12.2734375 13.171875 12.90625 13.3984375 14.921875 15.6015625 15.390625 14.1015625 12.1484375 11.9921875 13.3203125 14.0546875 14.65625 15.28125 14.9765625 15.2890625 16.375 16.1875 14.6640625 12.953125 11.2578125 9.6484375 10.7109375 12.953125 13.1015625 13.328125 13.359375 13.8671875 14.375 14.9296875 14.9375 14.890625 14.78125 14.3828125 14.2890625 14.015625 14.734375 15.28125 14.4140625 13.3671875 14.203125 13.6015625 13.8203125 13.7890625 13.7890625 14.1328125 13.9921875 11.953125 11.3359375 11.828125 13.3828125 14.171875 13.5 13.8515625 12.984375 11.546875 12.6015625 12.96875 11.5078125 11.6640625 11.8828125 12.390625 12.9140625 12.8203125 13.0078125 13.09375 13.1796875 12.7890625 12.625 13.625 14.3515625 12.8203125 12.1171875 12.4609375 12.890625 12.9375 13.2578125 13.2734375 13.859375 14.234375 12.96875 11.4453125 10.9609375 11.421875 11.171875 10.0703125 9.7109375 7.9375 7.21875 8.1171875
5.984375 6.3984375 7.09375 8.2109375 6.765625 7.15625 8.625 9.2421875 7.515625 7.3828125 8.9375 9.953125 10.1171875 10.078125 10.0234375 9.9609375 9.8984375 9.84375 9.859375 10.234375 10.21875 10.7265625 12.1328125 13.3203125 13.78125 12.7890625 12.7109375 11.1953125 9.609375 8.2578125 8 8 8 8 8 8 8 8 8 8 8 8 8 8 8.1015625 8.4765625 8.3984375 8.3515625 8.3359375 8.7109375 9.15625 9.6015625 10.1640625 10.3125 10.375 10.5 10.421875 10.859375 14.46875 16.984375 16.28125 14.96875 13.59375 12.234375 10.125 10.6953125 12.609375 12.4375 11.6328125 12.6875 14.5078125 16.0859375 16.7421875 17.3203125 18.6015625 19.234375 18.140625 15.640625 14.75 14.59375 14.3515625 14.109375 13.875 13.84375 13.6484375 11.90625 9.1640625 6.734375 5.484375 5 5 5 5 5 5 5 5 5 5.03125 5.109375 5.21875 5.375 5.5703125 5.6796875 5.234375 5 5.078125 5.484375 5.9609375 6.4375 6.921875 7.3984375 7.875 8.3515625 8.734375 8.875 8.96875 9.0546875 9.140625 9.234375 9.375 9.5625 9.7734375 9.9921875 10.2109375 10.421875 10.640625 10.859375 11.078125 11.6171875 12.015625 12.296875 14.40625 15.546875 15.25 14.203125 13.390625 14.3671875 16.1796875 17.5703125 16.9765625 15.8046875 14.8203125 14.125 13.6953125 14.1953125 15.0546875 14.765625 13.796875 12.3125 10.6796875 11.25 12.9765625 13.03125 13.140625 13.15625 13.34375 14.0546875 15.046875 15.265625 15.421875 15.296875 14.5234375 14.265625 13.8046875 14.3359375 15.3515625 14.2265625 12.53125 13.453125 13.8359375 13.828125 13.4375 13.15625 13.7109375 14.6953125 12.9453125 11.859375 11.3125 11.9296875 12.9296875 13.1953125 13.59375 13.0078125 12.4453125 12.875 13.2578125 11.078125 10.8046875 10.984375 12.1171875 13.078125 12.8203125 12.40625 11.3125 11.0546875 12.0546875 13.1953125 13.84375 14.2734375 13.375 12.7734375 13.1796875 13.2421875 13.2421875 13.0234375 12.5546875 13.171875 13.3359375 12.8046875 11.3984375 10.0625 9.703125 9.21875 8.125 8.6328125 7.65625 6.296875 6.9140625
4.9140625 5.4140625 5.515625 5.1953125 4.7109375 5.6796875 8.015625 9.3125 8.2421875 7.6484375 8.84375 9.5703125 9.6875 9.7265625 9.6796875 9.6171875 9.5546875 9.5 9.6640625 10.34375 10.2578125 10.46875 11.90625 13.4609375 14.5 13.9375 13 11.4296875 9.6171875 8.1484375 8 8 8 8 8 8 8 8 8 8 8 8 8 8 8.0234375 8.046875 8.0234375 8.03125 8.359375 8.796875 9.234375 9.6640625 9.9453125 9.515625 9.3515625 9.8046875 9.9765625 10.4296875 13.5234375 15.328125 15.4453125 14.171875 13.1640625 12.6953125 10.515625 10.3203125 12.9921875 13.5625 12.6015625 12 13.609375 15.3125 16.5625 18.046875 20.4140625 21.3671875 18.984375 15.765625 13.8515625 13.8515625 13.7578125 13.5390625 13.640625 13.9765625 13.171875 11.4765625 9.4765625 7.515625 5.6953125 5 5 5 5 5.03125 5.109375 5.21875 5.375 5.5703125 5.8046875 6.0546875 6.296875 6.546875 6.6015625 6.03125 5.25 5 5.0078125 5.2734375 5.7421875 6.2265625 6.703125 7.1796875 7.65625 8.0390625 8.1796875 8.2734375 8.359375 8.453125 8.6015625 8.7890625 9 9.21875 9.4375 9.65625 9.8671875 10.0859375 10.3046875 10.53125 10.796875 11.109375 11.0078125 11.46875 14.296875 15.484375 14.765625 14.296875 15.2734375 16.484375 15.8671875 16.671875 15.890625 13.8828125 13.4375 13.9375 13.7421875 13.234375 13.921875 13.515625 13.015625 12.4765625 11.5625 11.953125 13 13.015625 13.0625 13.0234375 13.0859375 13.7734375 15.234375 14.828125 14.890625 15.6640625 15.0546875 14.578125 14.125 14.71875 15.6015625 14.421875 13.1796875 13.046875 13.921875 13.59375 12.640625 12.7265625 13.9921875 14.125 12.2109375 12.265625 12.5703125 12.0859375 12.28125 13.3125 14.140625 13.796875 13.3515625 13 12.984375 10.53125 10.34375 10.9921875 11.421875 13.1171875 13.2734375 11.9375 10.2890625 9.234375 10.8359375 13.09375 14.5390625 14.171875 13.3359375 12.65625 13.046875 12.9453125 13.453125 12.859375 12.1875 12.1796875 12.8671875 12.71875 11.359375 10.2421875 9.953125 9.5703125 8.6875 8.6796875 8.5703125 6.421875 6.3046875
4.34375 5.0625 5.5390625 4.0234375 3.2265625 5.109375 7.5 8.84375 8.8515625 7.984375 8.734375 9.140625 9.2265625 9.3125 9.328125 9.2734375 9.2109375 9.1640625 9.5234375 10.4609375 10.265625 10.40625 11.734375 13.2578125 14.03125 13.0625 12.453125 12.5390625 9.578125 8.03125 8 8 8 8 8 8 8 8 8 8 8 8 8 8 8 8 8 8.0390625 8.375 8.8046875 9.2265625 9.640625 10.0390625 10.015625 9.2265625 9.765625 9.6875 10.0390625 12.375 13.625 14.2421875 13.5 13.09375 13.4375 12.9140625 12.484375 14.2890625 15.75 15.4609375 13.2109375 13.015625 13.7109375 14.984375 17.5703125 20.203125 20.1796875 18.921875 16.4453125 14.453125 13.2265625 13.203125 13.5078125 14.0234375 13.8046875 12.5703125 10.90625 9.4765625 7.53125 5.5234375 5 5 5 5.078125 5.6953125 6.0546875 6.296875 6.546875 6.7890625 7.0390625 7.2890625 7.53125 7.5078125 6.875 6.046875 5.2578125 5 5 5.1015625 5.53125 6.0078125 6.484375 6.9609375 7.34375 7.484375 7.578125 7.671875 7.8203125 8.015625 8.234375 8.4453125 8.6640625 8.8828125 9.1015625 9.3359375 9.578125 9.828125 10.1015625 10.4765625 10.9296875 11.2890625 11.1953125 11.2421875 13.265625 14.8359375 14.2578125 15 15.953125 16.2578125 14.8828125 13.546875 13.453125 13.6171875 13.765625 14.3359375 15.1640625 13.7578125 12.8203125 12.3046875 11.7890625 11.2734375 10.84375 10.953125 12.21875 12.9375 13.21875 13.2421875 13.40625 13.828125 13.2109375 13.1171875 13.6875 15.34375 15.515625 14.4296875 13.71875 14.6796875 15.171875 14.4140625 13.8671875 13.2421875 13.84375 13.9921875 14.140625 14.5625 15.1015625 14.125 13.5078125 13.5234375 13.7578125 13.34375 12.1328125 12.71875 13.6875 13.640625 13.046875 12.5390625 12.09375 10.6015625 11.1640625 12.0546875 10.859375 11.7265625 12.546875 11.515625 10.28125 8.875 9.4296875 11.390625 13.5390625 13.4921875 12.875 13.0234375 13.28125 13.0234375 13.3359375 13.21875 12.8203125 12.46875 13.0390625 12.828125 11.6328125 10.96875 10.375 10.0703125 9.6015625 8.765625 8.0078125 6.6640625 6.3203125
3.765625 4.90625 5.6796875 4.3203125 3.7578125 4.7265625 6.9375 8.1484375 8.9765625 8.390625 8.5390625 8.6796875 8.7578125 8.8515625 8.9296875 8.9296875 8.8671875 8.8828125 9.453125 10.671875 10.3046875 10.40625 11.5546875 12.9296875 13.3125 12.4140625 12.1015625 10.6953125 8.390625 8 8 8 8 8 8 8 8 8 8 8 8 8 8 8 8 8 8 8.0390625 8.3828125 8.7890625 9.1953125 9.6015625 10.0078125 10.390625 10.171875 10.4140625 10.0234375 9.7265625 11.0234375 11.859375 12.8515625 13.640625 14.09375 14.59375 14.6875 13.875 13.96875 15.890625 15.15625 15.9296875 14.25 12.5546875 14 16.6171875 18.8828125 19.609375 19.78125 17.53125 16.515625 15.703125 14.6328125 14.390625 14.1953125 13.3203125 12 10.8046875 9.734375 7.7109375 6.1328125 5.40625 5.171875 5.0625 5.0078125 5.640625 7 7.53125 7.78125 8.0234375 8.2734375 8.5078125 8.40625 7.703125 6.8828125 6.125 5.7109375 5.1640625 5 5.015625 5.3125 5.7890625 6.265625 6.6484375 6.7890625 6.890625 7.046875 7.2421875 7.4609375 7.6796875 7.90625 8.140625 8.3828125 8.640625 8.8984375 9.1640625 9.4453125 9.8125 10.2578125 10.75 11.234375 11.671875 11.828125 11.296875 12.3359375 13.8671875 14.3984375 15.140625 15.84375 15.96875 14.4609375 12.7421875 13.25 14.484375 14.1875 14.4609375 14.828125 13.28125 12.171875 11.5625 11.046875 10.5390625 10.2578125 10.078125 10.4140625 11.4296875 12.078125 13.546875 14.078125 13.546875 12.4453125 12.171875 12.6640625 14.4921875 15.1640625 14.3828125 14.4765625 15.359375 15.0859375 14.3828125 14.2578125 13.234375 12.640625 13.0625 13.9921875 14.9453125 14.9921875 13.5546875 14.28125 13.515625 12.8828125 12.7578125 10.2578125 10.78125 12.03125 11.375 10.390625 11.484375 11.8671875 11.7890625 11.7890625 13.1953125 11.6875 11.2109375 11.3359375 10.390625 9.4375 8.765625 8.84375 10.7109375 11.4609375 11.6171875 11.765625 12.375 13.109375 13.578125 13.3359375 13.3203125 13.3828125 13.2734375 12.625 13.390625 12.4609375 11.2421875 9.96875 10.2421875 10.1953125 8.65625 6.8828125 5.8203125 6.953125
3.234375 4.890625 5.8828125 5.3125 5.1015625 4.609375 6.3125 7.4453125 8.546875 8.7734375 8.2890625 8.2109375 8.2890625 8.3828125 8.4765625 8.546875 8.5234375 8.59375 9.484375 10.8828125 10.3984375 10.4140625 11.3984375 12.3671875 12.5859375 12.2265625 12.9375 10.1171875 8.03125 8 8 8 8 8 8 8 8 8 8 8 8 8 8 8 8 8 8 8.03125 8.328125 8.7421875 9.1484375 9.5546875 9.96875 10.375 10.6875 10.9765625 10.8828125 9.90625 9.25 10.09375 12.15625 13.9375 15.390625 16.0078125 15.8671875 13.21875 10.4140625 10.0234375 9.8671875 11.953125 17.21875 15.0078125 14.8828125 17.1328125 19.0390625 19.8203125 18.6953125 16.875 16.6484375 17.078125 16.8046875 15.203125 13.3671875 12.875 12.3828125 11.4296875 10.140625 8.5859375 7.53125 6.671875 6.09375 5.7578125 5.3984375 5.1015625 6.1796875 8.171875 8.984375 9.2578125 9.4765625 9.28125 8.5234375 7.9296875 7.796875 8.09375 8.6484375 8.109375 5.2265625 5 5.1328125 5.5703125 5.953125 6.1171875 6.265625 6.4765625 6.703125 6.9453125 7.1953125 7.453125 7.71875 7.984375 8.25 8.515625 8.796875 9.1484375 9.59375 10.078125 10.5546875 10.953125 11.2578125 11.484375 11.6875 11.15625 10.5703125 13.140625 14.5390625 15.0625 15.734375 15.6484375 13.84375 12.0234375 12.15625 13.46875 13.984375 14.359375 14.6015625 13.296875 11.625 10.9140625 10.4140625 9.96875 10.0234375 10.640625 10.234375 10.046875 10.34375 12.6015625 13.5546875 13.3515625 12.6171875 12.2578125 12.71875 13.9921875 14.25 14.0546875 14.8046875 14.6953125 12.734375 12.3671875 13.3046875 12.4140625 10.375 9.453125 10.75 11.5859375 11.734375 11.203125 12.2890625 11.828125 12.6875 12.328125 9.5859375 10.3828125 10.984375 10.03125 9.328125 11.203125 12.9140625 12.5078125 12.5 12.8828125 11.2734375 10.4609375 10.3125 9.703125 8.90625 9.1875 9.0390625 10.25 11.1015625 11.0546875 11.25 12.7109375 13.734375 14.3125 14.0234375 13.96875 13.796875 13.03125 11.3515625 12.328125 13.203125 13.296875 11.5 10.5390625 10.1640625 8.453125 7.296875 6.125 8.046875
3.0078125 4.96875 6.5703125 6.6328125 5.7890625 4.8046875 5.640625 6.75 7.859375 8.7265625 7.953125 7.7421875 7.8203125 7.9140625 8.0078125 8.1015625 8.1640625 8.3046875 9.6953125 11.078125 10.53125 10.4765625 11.171875 11.609375 12.1328125 13.3515625 14.1015625 10.1875 8 8 8 8 8 8 8 8 8 8 8 8 8 8 8 8 8 8 8 8.0078125 8.2578125 8.6640625 9.078125 9.484375 9.890625 10.3046875 10.5546875 10.5625 10.4921875 10.0859375 8.7421875 8.9765625 11.4609375 14.09375 15.5859375 16.3984375 16.265625 11.359375 8.3828125 8 8 8.03125 12.40625 16.2578125 15.8671875 17.546875 18.6484375 19.0546875 17.578125 16.421875 16.4765625 16.765625 16.46875 15.921875 14.46875 13.65625 13.75 13.0078125 11.1640625 9.90625 9.0234375 8.3671875 7.921875 7.0546875 6.1640625 5.0546875 5.015625 6.109375 9.0078125 10.3203125 10.1171875 9.84375 9.984375 10.5 11.078125 11.65625 12.2265625 12.796875 9.6484375 5.0859375 5.03125 5.2890625 5.5234375 5.75 6 6.265625 6.53125 6.796875 7.0625 7.328125 7.59375 7.859375 8.140625 8.484375 8.921875 9.40625 9.8359375 10.1875 10.4375 10.6484375 10.8515625 11.0546875 11.2890625 10.796875 9.4140625 11.8203125 14.8046875 15.53125 15.546875 14.9140625 13.15625 11.9921875 11.9375 12.1953125 13.015625 14.4453125 14.984375 13.609375 11.1015625 10.296875 9.8515625 9.4140625 9.875 11.1953125 10.1796875 9.703125 10.890625 11.9765625 12.4453125 12.7890625 12.5625 12.296875 13.1484375 14.171875 14.4453125 14.0390625 13.4296875 12.484375 11.078125 11.4140625 12.734375 11.734375 9.8515625 8.9609375 9.953125 10.46875 10.4296875 9.8984375 10.0703125 10.6484375 12.1796875 12.0390625 11.65625 12.84375 13.234375 11.6015625 10.8828125 12.1953125 13.21875 13.296875 13.578125 13.9921875 12.671875 10.1953125 9.265625 8.9609375 9.1953125 10.125 9.6484375 10.2890625 10.328125 10.7265625 11.7109375 13.53125 13.53125 13.5078125 13.4375 14.03125 14.125 12.65625 11.1328125 11.7578125 13.5859375 14.3671875 11.9765625 9.4765625 9.40625 9.0859375 7.546875 7.2578125 8.1796875
3.8515625 3.6875 6 6.484375 4.2890625 4.453125 5.4609375 6.578125 7.6640625 8.4609375 8.25 7.6171875 7.515625 7.5390625 7.6328125 7.7265625 7.8125 8.015625 8.96875 10.2421875 10.1015625 10.78125 11.203125 11.2421875 12 13.65625 14.0546875 10.15625 8.15625 8 8 8 8 8 8 8 8 8 8 8 8 8 8 8 8 8 8 8 8.1875 8.5859375 9 9.40625 9.8125 10.125 9.8203125 9.8828125 10.0703125 10.9453125 10.3125 10.1015625 13 15.046875 15.28125 15.0390625 13.96875 9.546875 8 8 8 8.0234375 9.046875 14.28125 15.6640625 16.6875 17.40625 17.9609375 17.625 17.65625 17.546875 16.3046875 15.6875 17.2109375 17.3984375 15.375 14.265625 13.78125 12.5234375 10.9140625 10.4921875 10.21875 9.9296875 8.8359375 7.390625 5.296875 5 5 6.65625 8.7109375 8.7578125 9.328125 9.96875 10.671875 11.4609375 12.328125 13.21875 13.796875 13.7578125 8.421875 5 5.09375 5.34375 5.609375 5.875 6.1484375 6.4140625 6.6796875 6.9453125 7.2109375 7.484375 7.8203125 8.25 8.7109375 9.09375 9.3828125 9.6015625 9.8046875 10.015625 10.234375 10.4453125 10.640625 10.703125 9.65625 9.375 11.3828125 14.8359375 16.1875 15.2109375 14.125 13.5 12.6015625 12.3125 12.3984375 12.6953125 13.15625 12.96875 12.8828125 11.2578125 9.8984375 9.0703125 8.6953125 9.5 10.421875 9.9296875 10.34375 11.203125 11.8984375 11.859375 11.484375 11.734375 12.453125 13.453125 14.015625 14.0390625 13.4296875 13.0390625 13.078125 12.5078125 12.1796875 11.828125 11.21875 10.7890625 11.171875 12.8671875 11.5859375 11.3046875 10.78125 8.84375 9.7890625 11.65625 12.546875 13.75 14.6484375 13.40625 11.9375 11.9765625 12.78125 13.515625 13.71875 13.640625 13.796875 12.3359375 9.6640625 8.828125 9.2265625 9.1015625 8.9140625 9.1328125 10.1484375 11.203125 12.1953125 12.828125 12.9296875 12.875 12.953125 13.0703125 13.1171875 13.125 12.0625 11.0234375 11.625 13.1171875 12.6015625 10.7265625 8.9140625 8.7421875 8.7890625 8.203125 7.5859375 7.640625
5.234375 4.0078125 3.7890625 5.296875 4.421875 4.6953125 5.7734375 6.796875 7.53125 7.921875 8.265625 8.171875 7.6953125 7.4375 7.3515625 7.4453125 7.59375 7.8828125 8.25 9.15625 10.7421875 11.4609375 11.6171875 11.5390625 12.09375 12.671875 12.59375 9.7734375 8.125 8 8 8 8 8 8 8 8 8 8 8 8 8 8 8 8 8 8 8 8.1328125 8.5078125 8.9140625 9.328125 9.7265625 9.328125 9.046875 9.7890625 10.4453125 12.34375 12.375 12.2109375 13.7109375 15.4765625 14.5859375 12.3046875 10.7421875 8.171875 8 8.0078125 8 8.2734375 9.3359375 11.9375 13.5625 14.3125 14.984375 16.40625 17.578125 18.5703125 17.2890625 15.7109375 16.40625 18.3203125 17.9921875 16.921875 15.6796875 14.6796875 13.03125 10.890625 10.8828125 11.734375 11.8671875 11.4375 10.6328125 7.2734375 5.1484375 5 5.2109375 5.6875 6.421875 7.4765625 8.609375 9.7890625 10.921875 11.6875 11.9453125 11.9375 11.9140625 11.4296875 6.8203125 5.0234375 5.2265625 5.4921875 5.7578125 6.0234375 6.2890625 6.5625 6.828125 7.15625 7.5703125 7.984375 8.3203125 8.5546875 8.765625 8.9921875 9.2265625 9.453125 9.671875 9.859375 10.0390625 10.21875 10.3203125 9.6328125 10.4296875 11.9296875 14.65625 16.5078125 15.9375 14.890625 13.2265625 11.671875 11.390625 12.3359375 13.53125 13.0078125 11.28125 13.0546875 12.5234375 10.78125 9.4609375 8.921875 10.2734375 10.8984375 10.1875 9.9765625 10.2890625 11.6328125 12.1484375 11.0078125 11.6484375 12.140625 12.1640625 11.921875 11.7734375 12.65625 14.5390625 15.8203125 14.5390625 13.5546875 12.734375 12.859375 12.109375 11.3671875 12.359375 11.703125 11.4453125 9.9140625 8.5546875 11.25 12.3203125 12.84375 13.3125 13.296875 11.6875 11.15625 11.59375 12.4921875 13.3671875 13.4609375 13.2890625 13.3671875 11.4765625 8.203125 9.4375 10.078125 8.6796875 8.796875 10.2421875 11.03125 11.9765625 12.84375 12.9921875 12.40625 12.1875 12.6171875 13.140625 12.4375 11.1484375 11.2265625 10.7109375 11.0625 11.9140625 11.2109375 10.5546875 9.765625 8.890625 8.9921875 9.0859375 8.28125 8.0078125
5.5 5.0703125 4.015625 3.8828125 4.2734375 4.9296875 5.890625 6.5703125 6.953125 7.296875 7.6328125 7.9765625 8.0546875 7.8046875 7.4140625 7.234375 7.6640625 8.359375 9.109375 9.796875 10.921875 11.703125 12.21875 12.0703125 12 12.015625 11.546875 9.71875 8.0546875 8 8 8 8 8 8 8 8 8 8 8 8 8 8 8 8 8 8 8 8.0859375 8.4375 8.8359375 9.25 9.171875 8.21875 9.1875 11.046875 11.28125 12.15625 12.4765625 12.96875 13.9765625 14.953125 12.890625 9.6015625 8.4765625 8.0078125 8.3203125 9.0625 8.5859375 8.8984375 10.3515625 11.75 14.140625 14.6640625 13.65625 15.734375 17.140625 17.265625 16.3984375 15.7265625 16.8359375 18.2578125 17.796875 17 16.46875 15.375 12.53125 10.7109375 11.3203125 12.5703125 12.8515625 12.75 12.4296875 9.96875 6.609375 5.09375 5 5.375 6.5078125 7.703125 8.84375 9.6484375 9.9453125 9.9453125 9.921875 9.8984375 9.875 9.8515625 9.1953125 5.7578125 5.1171875 5.375 5.640625 5.90625 6.1796875 6.5 6.875 7.234375 7.5078125 7.7421875 7.9765625 8.2265625 8.4765625 8.703125 8.90625 9.078125 9.2578125 9.4375 9.609375 9.7890625 9.9453125 9.7734375 10.828125 12.0390625 13.7734375 15.953125 15.8828125 15.1484375 13.75 11.1953125 11.203125 12.875 13.640625 12.390625 11.8515625 13.28125 13.578125 12.6953125 12.015625 11.8515625 12.5703125 11.8984375 10.3828125 9.4765625 9.9921875 11.6796875 13.078125 12.2265625 11.5390625 11.21875 11.0703125 11.0078125 11.7890625 12.0234375 13.2421875 13.9140625 14.265625 14.46875 12.5703125 11.625 10.4375 8.7734375 7.953125 9.6796875 9.609375 9.1640625 9.78125 12.2890625 12.5546875 12.265625 11.7421875 11.6015625 11.5078125 10.6484375 11.375 12.2890625 12.625 12.8671875 12.90625 13.3671875 13.375 10.734375 11.7578125 10.6875 8.953125 9.59375 11.1328125 11.8203125 12.453125 14.1796875 14.828125 12.890625 12.1015625 12.203125 12.8828125 12.0625 10.3359375 10.5234375 10.1796875 10.703125 11.0625 10.6875 10.9921875 12.109375 10.4296875 9.9921875 9.859375 8.65625 8.15625
5.40625 5.1328125 4.75 4.046875 4.1171875 4.953125 5.609375 5.984375 6.3203125 6.6640625 7.0078125 7.3515625 7.6953125 7.921875 7.8515625 7.6875 8.359375 8.8359375 9.171875 9.4609375 9.625 10.96875 11.8984375 11.8984375 11.1953125 11.96875 12.984375 10.2421875 8.0234375 8 8 8 8 8 8 8 8 8 8 8 8 8 8 8 8 8 8 8 8.0546875 8.375 8.765625 9.0078125 7.8359375 8.359375 10.3671875 12.4375 13.078125 12.4765625 12.7421875 13.3359375 13.828125 13.1015625 10.3125 8.7109375 8.125 8.609375 9.9296875 11.2421875 10.9140625 11.359375 12.6953125 14.765625 22.765625 26.6875 17.828125 15.71875 16.125 16.25 16.46875 16.015625 16.421875 17.4609375 17.8125 17.1171875 16.625 14.9375 12.453125 11.4375 12.625 13.3359375 12.5546875 12.2265625 11.453125 10.1953125 7.96875 5.5703125 5.0078125 5.6171875 6.7578125 7.6015625 7.9375 7.953125 7.9296875 7.90625 7.8828125 7.859375 7.8359375 7.8125 7.7890625 7.15625 5.234375 5.2578125 5.5234375 5.8203125 6.1484375 6.4609375 6.71875 6.96875 7.234375 7.5 7.734375 7.9375 8.125 8.296875 8.4765625 8.65625 8.828125 9 9.1796875 9.359375 9.5390625 9.8984375 11.0390625 12.1796875 13.40625 15.1328125 15.0703125 14.7890625 14.734375 13 12.2890625 13.1953125 13.4765625 12.515625 13.2109375 13.1171875 13.6796875 13.78125 14.8046875 15.0234375 13.1640625 11.7421875 10.59375 10.4765625 10.8046875 12.03125 12.6796875 12.0390625 10.890625 10.296875 10.4453125 11.609375 12.4453125 11.5859375 10.21875 9.6015625 12.109375 12 10.40625 10.0859375 9.765625 8.7890625 6.9453125 6.7421875 7.1875 8.234375 10.46875 13.09375 13.46875 11.5546875 10.6484375 10.6015625 11.375 11.2578125 12.0078125 12.890625 12.90625 12.8671875 12.78125 13.625 14.875 13.7109375 12.609375 10.9921875 9.53125 10.3203125 11.6875 12.0546875 13.1484375 15.296875 15.8046875 12.9453125 12.484375 12.3359375 12.4921875 11.734375 10.8203125 10.828125 10.84375 11.203125 11 10.7578125 11.484375 11.7421875 11.234375 11.6328125 10.5 9.2734375 8.7890625
5.40625 5.078125 4.75 4.375 4.1640625 4.65625 5.0390625 5.3984375 5.765625 6.140625 6.515625 6.9296875 7.421875 7.78125 7.875 8.109375 8.4453125 8.6796875 8.921875 9.125 9.3515625 10.28125 11.2734375 11.7578125 10.8125 10.90625 9.6484375 8.046875 8 8 8 8 8 8 8 8 8 8 8 8 8 8 8 8 8 8 8 8 7.984375 7.8828125 7.7734375 7.296875 7.34375 9.546875 11.6640625 13.734375 14.90625 14.265625 13.9140625 13.5703125 12.8359375 11.0234375 9.7109375 8.953125 8.3046875 9.84375 11.8515625 13.3515625 13.6875 14.2890625 14.6953125 17.1484375 24.734375 24.7734375 18.4921875 15.3671875 15.8671875 16.2890625 16.6640625 16.890625 17.2265625 17.7578125 18.3046875 17.59375 16.25 13.96875 12.640625 12.859375 14.0859375 13.3828125 12.28125 11.5859375 10.7578125 10.171875 8.7578125 5.890625 5.0390625 5.5546875 5.9375 5.96875 5.953125 5.9296875 5.9140625 5.890625 5.875 5.8515625 5.8359375 5.8125 5.796875 5.78125 5.40625 5.1484375 5.421875 5.7109375 5.9765625 6.25 6.5234375 6.765625 6.9765625 7.1640625 7.34375 7.515625 7.6953125 7.875 8.0625 8.25 8.4375 8.6328125 8.8359375 9.0390625 9.1875 8.921875 10.140625 11.8203125 13.3046875 14.5234375 14.625 14.609375 14.71875 14.7109375 13.5390625 13.015625 12.9765625 13.3984375 13.8515625 13.2578125 13.1875 13.171875 15.4375 15.2109375 11.734375 10.1875 10.234375 10.859375 10.90625 10.875 11.0546875 10.78125 9.75 9.6875 10.1953125 12.421875 13.1015625 12.8203125 11.1015625 10.2578125 11.1015625 10.609375 10.8125 14.21875 12.4453125 10.7421875 8.8515625 4.796875 6.3203125 7.3515625 9.3203125 14.046875 14.53125 11.84375 10.546875 11.046875 11.4765625 11.9296875 13.2421875 14.421875 14.2734375 13.8046875 13.28125 13.3203125 14.890625 13.609375 10.96875 11.1796875 11.203125 12.5390625 12.7421875 11.953125 13.15625 14.578125 13.6875 12.0859375 12.5390625 12.5625 12.5 12.2421875 10.8359375 10.6171875 10.8125 11.3359375 11.0546875 10.9140625 11.3125 11.046875 11.1640625 11.4453125 10.484375 9.8671875 9.5078125
5.4140625 5.078125 4.7109375 4.359375 4.1171875 4.421875 4.828125 5.234375 5.6953125 6.234375 6.8671875 7.5234375 7.75 7.578125 7.671875 8.1328125 8.75 9.25 9.515625 9.765625 10.234375 10.8828125 11.734375 11.65625 9.953125 8.578125 8.1328125 8 8 8 8 8 8 8 8 8 8 8 8 8 8 8 8 8 8 8 8 8 7.8828125 7.3359375 6.734375 6.25 6.96875 9.703125 12.4921875 14.984375 16.390625 15.859375 14.8984375 13.6953125 12.4609375 10.859375 9.4140625 8.8125 8.15625 9.0390625 12.203125 15.03125 15.921875 15.15625 13.390625 15.4765625 19.4921875 17.8046875 14.421875 14.1171875 15.3984375 16.28125 16.703125 16.7265625 17.0078125 17.703125 18.4375 17.546875 15.1953125 13.5703125 12.90625 13.3046875 14.2265625 13.8828125 12.578125 11.265625 10.5625 10.046875 9.203125 6.1328125 5.0390625 5.0703125 5.0859375 5.1015625 5.1171875 5.140625 5.1640625 5.1796875 5.203125 5.234375 5.2578125 5.28125 5.3125 5.34375 5.34375 5.109375 5.265625 5.5390625 5.7890625 6.015625 6.2109375 6.390625 6.5859375 6.78125 6.9765625 7.171875 7.375 7.5859375 7.796875 8.0078125 8.2109375 8.421875 8.6328125 8.84375 8.7734375 7.7890625 7.7109375 9.515625 11.984375 14.78125 15.4921875 15.453125 15.140625 15.3984375 14.171875 13.25 13.3203125 13.46875 13.3515625 12.953125 11.6875 11.7109375 13.25 13.1328125 11.4921875 10.515625 10.7734375 11.03125 11.375 11.828125 11.6484375 10.7421875 9.9921875 9.9609375 10.0546875 11.0703125 12.890625 12.7890625 11.3359375 11.0546875 10.9921875 10.6171875 12.390625 14.90625 12.765625 11.390625 9.921875 6.890625 6.640625 7.390625 8.796875 13.2265625 14.0859375 11.71875 10.265625 10.765625 10.9609375 11.09375 11.9296875 13.9375 13.9140625 13.2421875 12.9140625 13.2109375 14.3359375 12.4375 10.140625 12.0390625 14.421875 15.3359375 13.171875 11.9765625 12.0859375 12.5 11.9609375 11.6796875 11.96875 11.953125 11.84375 11.6796875 10.1953125 10.078125 10.6484375 11.046875 10.7890625 10.28125 11.1171875 10.9453125 10.15625 9.78125 8.984375 8.625 8.390625
5.4140625 5.0859375 4.7109375 4.34375 4.1171875 4.5 5.0859375 5.703125 6.4375 7.21875 7.71875 7.6484375 7.3515625 7.25 7.5703125 8.078125 8.6953125 9.359375 9.9921875 10.5546875 10.7421875 10.625 11.25 10.7890625 9.4375 8.546875 8.2578125 8.0234375 8 8 8 8 8 8 8 8 8 8 8 8 8 8 8 8 8 8 8 8 7.7890625 7.203125 6.609375 6.359375 6.578125 8.7578125 11.7265625 14.6953125 16.1015625 15.40625 14.4140625 13.1796875 11.9375 10.59375 9.078125 8.546875 8.0859375 8.0234375 9.3203125 14.1484375 15.1328125 13.609375 11.4921875 12.953125 15.78125 14.3671875 12.3515625 13.1953125 14.328125 15.9453125 16.5546875 15.859375 16.046875 16.921875 17.8046875 16.4140625 14.4296875 13.796875 13.3125 13.46875 14.0859375 13.9296875 12.8125 11.53125 11.390625 10.71875 9.4296875 7.0703125 5.4296875 5.546875 5.59375 5.625 5.65625 5.6875 5.71875 5.75 5.78125 5.8125 5.84375 5.875 5.90625 5.9375 5.8359375 5.28125 5.1171875 5.3125 5.515625 5.71875 5.9296875 6.140625 6.34375 6.5546875 6.765625 6.96875 7.1796875 7.390625 7.6015625 7.8125 8.015625 8.2265625 8.4375 8.6328125 8.1796875 7.046875 6.1328125 7.90625 11.3046875 14.6328125 15.6796875 15.484375 15.4921875 15.0859375 14.375 13.578125 13.4453125 12.6953125 12.296875 12.1015625 11.765625 11.3515625 11.3203125 11.7109375 12.2421875 13.140625 12.203125 12.296875 12.765625 13.3125 13.25 11.9609375 10.5859375 10.046875 10.125 10.2734375 11.3515625 11.4296875 10.5 10.359375 10.125 10.8203125 13.1953125 14.671875 12.484375 10.25 8.796875 6.4765625 6.765625 7.8671875 8.9140625 12.265625 13.515625 11.5859375 10.0078125 10.453125 10.2734375 10.46875 10.796875 11.5859375 11.859375 11.8203125 12.15625 12.53125 12.921875 12.90625 12.4140625 14.3125 16.5546875 13.84375 11.671875 11.8203125 11.9296875 11.484375 11.125 11.6875 11.25 10.953125 10.8203125 10.734375 10.1953125 10.1484375 10.828125 11.09375 11.171875 10.5859375 10.6015625 10.3359375 9.7578125 9.0390625 7.78125 7.3515625 7.0625
5.421875 5.0859375 4.71875 4.3984375 4.625 5.28125 6.015625 6.84375 7.578125 7.734375 7.4765625 7.171875 6.9296875 7.0703125 7.53125 8.03125 8.6171875 9.28125 9.9375 10.609375 10.734375 10.203125 10.28125 9.59375 8.578125 8.4140625 8.3125 8.0546875 8 8 8 8 8 8 8 8 8 8 8 8 8 8 8 8 8 8 8 7.9921875 7.671875 7.0625 6.609375 6.546875 6.5546875 7.8515625 10.765625 13.734375 15.171875 14.5234375 13.7578125 12.6796875 11.4296875 10.1875 8.8125 8.203125 8.0078125 8 8.9140625 11.9609375 12.5546875 12.03125 11.4140625 12.28125 12.5 11.3125 11.1953125 12.2734375 13.3515625 14.78125 16.390625 16.0078125 16.8359375 18.0546875 17.90625 17.0859375 15.96875 14.53125 13.3359375 13.3359375 13.6015625 13.8203125 12.5234375 12.0703125 12.8359375 12.4140625 10.5703125 8.078125 6.0703125 6.046875 6.171875 6.21875 6.25 6.28125 6.3125 6.34375 6.375 6.40625 6.4375 6.46875 6.5 6.53125 6.2421875 5.6484375 5.109375 5.109375 5.3125 5.5234375 5.734375 5.9375 6.1484375 6.359375 6.5703125 6.78125 6.984375 7.1953125 7.40625 7.609375 7.8203125 8.03125 8.2421875 8.3125 7.4609375 6.3125 5.8046875 7.484375 10.8203125 14.2265625 15.59375 14.9375 14.34375 14.0234375 13.65625 12.9609375 11.2734375 11.1875 11.4140625 11.28125 12.0625 12.390625 12 11.828125 12.40625 13.8125 12.546875 12.59375 13.2109375 13.765625 13.5859375 12.046875 10.484375 10.09375 10.21875 10.3359375 10.4296875 10.4609375 9.8515625 9.625 9.75 11.40625 13.6484375 14.1640625 12.3984375 9.7265625 7.34375 6.1953125 7.234375 8.4375 9.5 11.5546875 12.84375 11.34375 9.75 9.921875 9.5234375 9.8359375 10.1640625 10.515625 10.8671875 11.265625 11.6875 12.0546875 12.3984375 12.4296875 11.9453125 13.171875 14.2421875 11.75 10.1953125 10.7890625 11.6171875 11.6875 11.59375 11.625 10.84375 10.28125 10.1796875 10.265625 11.046875 11.140625 11 11.0390625 11.1953125 10.8515625 10.890625 10.71875 10.6484375 10.109375 8.859375 7.8359375 7.1015625
5.421875 5.09375 4.7890625 4.9921875 5.6015625 6.4609375 7.328125 7.75 7.609375 7.3046875 6.9921875 6.6953125 6.625 6.9921875 7.4921875 7.984375 8.546875 9.203125 9.8671875 10.53125 10.9765625 10.28125 10.265625 10.1796875 9.59375 9.1796875 8.640625 8.0859375 8 8 8 8 8 8 8 8 8 8 8 8 8 8 8 8 8 8 8 7.96875 7.53125 6.953125 6.734375 6.7265625 6.7265625 7.2421875 9.8125 12.78125 14.21875 13.6171875 12.90625 12.0859375 10.9453125 9.6796875 8.46875 8.0234375 8 8 8.15625 9.1328125 10.2109375 11.71875 11.6875 10.84375 9.8671875 9.5390625 10.5703125 11.7890625 12.796875 13.4609375 16.0625 17 18.203125 18.09375 17.84375 17.8984375 17.5859375 15.328125 12.6640625 11.859375 12.3203125 13.3828125 12.6796875 13.2265625 13.765625 12.8984375 10.9765625 8.8359375 6.890625 6.5234375 6.671875 6.796875 6.84375 6.875 6.90625 6.9375 6.96875 7 7.03125 7.0625 7.09375 7.0703125 6.6015625 6.0390625 5.25 5.0078125 5.125 5.328125 5.5390625 5.75 5.953125 6.1640625 6.375 6.578125 6.7890625 7 7.2109375 7.421875 7.625 7.8359375 8.046875 7.8046875 6.7265625 5.7890625 6.1328125 7.3359375 10.34375 13.765625 15.5703125 14.984375 14.3203125 13.6484375 13.0078125 12.4609375 11.4140625 11.6328125 11.3046875 10.6015625 10.9609375 11.7734375 12.71875 12.890625 12.921875 13.3125 12.53125 12.609375 13 12.4375 11.2578125 11.59375 10.453125 9.9765625 10.015625 10.15625 10.078125 9.5859375 9.1875 8.9765625 10.0625 11.8828125 13.8828125 13.6015625 12.171875 9.703125 6.7578125 6.6015625 7.8046875 9 10.1015625 11.1015625 12.1640625 10.9765625 9.4921875 9.1953125 8.875 9.203125 9.5625 10.09375 10.7734375 11.0703125 11.3203125 11.7265625 12.265625 11.90625 11.2109375 11.4296875 11.8203125 10.609375 10.078125 10.8984375 11.7421875 12.1875 12.1796875 11.5390625 10.71875 10.0234375 10.4921875 10.3359375 10.015625 10.890625 11 11 11.0546875 10.96875 11.5078125 12.1015625 11.7421875 11.15625 9.265625 7.6171875 6.890625
5.4296875 5.171875 5.40625 6.1171875 6.9921875 7.6484375 7.71875 7.4296875 7.125 6.8203125 6.515625 6.28125 6.4765625 6.953125 7.453125 7.953125 8.484375 9.125 9.7890625 10.4609375 11.1796875 10.609375 10.15625 10.1328125 9.9375 9.3359375 8.5859375 8.0546875 8 8 8 8 8 8 8 8 8 8 8 8 8 8 8 8 8 8 8 7.90625 7.390625 6.96875 6.921875 6.9140625 6.90625 7 8.8515625 11.8125 13.265625 12.6796875 12.0078125 11.296875 10.390625 9.2109375 8.1640625 8 8 8 8 8.296875 9.3671875 11.203125 11.03125 9.90625 9.03125 9.2890625 11.46875 11.828125 11.578125 11.5 14.0390625 15.875 17.703125 18.0625 18 17.71875 17.65625 16.125 14.203125 12.2890625 11.9375 12.8828125 12.8125 14.0625 13.765625 12.75 11.078125 9.3046875 7.859375 7.046875 7.1484375 7.296875 7.421875 7.46875 7.5 7.53125 7.5625 7.59375 7.625 7.65625 7.6875 7.53125 6.9765625 6.390625 5.484375 5 5.015625 5.1328125 5.34375 5.546875 5.7578125 5.96875 6.1796875 6.390625 6.59375 6.8046875 7.015625 7.21875 7.4296875 7.640625 7.796875 7.1328125 6.015625 5.8125 6.5859375 7.4765625 9.859375 13.28125 15.4921875 15.0390625 14.3671875 13.6953125 13.09375 13.03125 13.4375 12.609375 10.59375 9.5703125 10.40625 11.65625 13.0234375 13.1328125 12.921875 12.0703125 11.2734375 11.5859375 11.7578125 10.703125 11.1953125 12.6640625 11.6953125 10.3984375 10.3671875 10.25 10.21875 9.515625 8.6171875 8.84375 10.5546875 12.359375 13.8828125 13.0390625 11.75 9.671875 7.3203125 7.6953125 8.3984375 9.5703125 10.6953125 10.9375 11.484375 10.484375 9.203125 8.3046875 8.2421875 8.65625 9.421875 10.5546875 10.796875 10.4609375 10.9765625 11.671875 12.3046875 11.5859375 10.8828125 11.109375 10.515625 9.421875 9.3984375 10.1171875 10.4921875 11.5546875 12.5859375 12.4296875 11.875 11.125 10.203125 9.265625 8.5390625 10.09375 10.9453125 11 10.9921875 11.0546875 11.5546875 11.671875 11.3828125 11.0859375 9.609375 7.6484375 7.125
5.5234375 5.8515625 6.65625 7.4453125 7.8125 7.5625 7.2578125 6.953125 6.6484375 6.34375 6.0390625 6 6.421875 6.921875 7.4140625 7.90625 8.421875 9.046875 9.71875 10.3828125 11.171875 11.1640625 10.1484375 10.046875 10.03125 10.109375 9.96875 8.8203125 8.125 8 8 8 8 8 8 8 8 8 8 8 8 8 8 8 8 8 8 7.828125 7.296875 7.109375 7.109375 7.1015625 7.09375 7.0859375 8.0390625 10.859375 12.3125 11.71875 11.09375 10.40625 9.6484375 8.6875 8.0234375 8 8 8 8 8.0390625 8.390625 9.421875 10.03125 9.046875 8.734375 9.8671875 11.7578125 11.484375 11.734375 12.40625 13.6484375 15.1484375 16.609375 17.9296875 17.9140625 17.8984375 18.1640625 17.3515625 16.921875 15 13.578125 14.3125 14.4375 14.90625 13.7109375 12.5390625 11.1015625 9.546875 8.7578125 7.59375 7.625 7.7734375 7.921875 8.046875 8.09375 8.125 8.15625 8.1875 8.21875 8.25 8.265625 7.9375 7.3515625 6.734375 5.78125 5 5 5.015625 5.1484375 5.3515625 5.5625 5.7734375 5.984375 6.1875 6.3984375 6.609375 6.8125 7.0234375 7.234375 7.4453125 7.390625 6.3984375 5.6640625 6.2265625 7.0390625 7.859375 9.5078125 12.796875 15.359375 15.09375 14.421875 13.75 13.3359375 13.4453125 13.609375 13.4296875 10.734375 10.7265625 12.71875 13.296875 13.7421875 13.4921875 11.8125 10.7890625 10.140625 10.1015625 10.3203125 10.9453125 12.0078125 12.0625 12.2734375 12.5078125 11.8359375 11.4296875 11.828125 10.609375 9.203125 8.8984375 10.9140625 12.8359375 13.6484375 12.484375 11.2109375 10.125 9.3046875 10.34375 10.34375 10.3828125 11.28125 11 10.78125 9.8671875 8.6015625 7.3984375 7.875 8.8828125 10.0859375 11.140625 10.4765625 9.984375 10.7734375 11.578125 12.3125 11.8125 11.1015625 11.0390625 9.578125 7.8046875 7.8828125 8.9453125 10.1875 11.03125 11.9296875 12.7890625 12.2578125 10.8125 9.359375 8.84375 9.0703125 9.96875 10.578125 10.8515625 10.5703125 10.8515625 11.1015625 10.6953125 10.390625 10.25 9.90625 9.109375 9.015625
6.4140625 7.1171875 7.6171875 7.8515625 7.796875 7.125 6.78125 6.46875 6.1640625 5.859375 5.6328125 5.890625 6.3828125 6.8828125 7.375 7.875 8.375 8.9765625 9.640625 10.3125 11.109375 11.65625 10.4296875 10.015625 10.078125 10.484375 10.859375 9.8359375 9.734375 8.625 8.015625 8 8 8 8 8 8 8 8 8 8 8 8 8 8 8 8 7.71875 7.328125 7.296875 7.2890625 7.2890625 7.28125 7.2734375 7.578125 9.8984375 11.3671875 10.7578125 10.15625 9.4921875 8.8046875 8.15625 8 8 8 8 8 8 8.0078125 8.1796875 8.7578125 8.5234375 9.5 11.1015625 12.0859375 11.984375 12.703125 13.5703125 13.4375 14.5078125 15.953125 17.9453125 19.1171875 19.1171875 18.25 17.5234375 18.03125 16.515625 15.7421875 16.7265625 16.2109375 15.5 13.6171875 12.2890625 11.0234375 9.7578125 9.5078125 8.15625 8.1015625 8.25 8.3984375 8.546875 8.671875 8.71875 8.75 8.78125 8.8125 8.84375 8.7890625 8.3046875 7.703125 7.078125 6.1484375 5.015625 5 5 5.015625 5.15625 5.3671875 5.578125 5.78125 5.9921875 6.203125 6.4140625 6.625 6.828125 7.0390625 7.234375 6.796875 5.765625 5.875 6.6796875 7.5 8.3125 9.421875 12.3125 15.1640625 15.140625 14.46875 13.8046875 13.7265625 13.8828125 13.9140625 14.1171875 12.046875 11.5 13.546875 13.921875 13.375 13.03125 11.1875 10.2421875 10.171875 9.625 10.0234375 12.2265625 11.828125 11.3125 11.546875 12.5078125 12.3046875 12.1953125 12.9140625 13.1796875 11.03125 9.25 10.4453125 12.65625 13.1875 11.90625 11.2109375 11.609375 11.46875 12.640625 13.515625 12.8359375 12.40625 11.5234375 10.2109375 9.25 7.765625 7.2421875 8.40625 9.6171875 10.828125 11.484375 11.0546875 11.28125 11.84375 12.2734375 12.5078125 11.9609375 10.859375 9.9765625 8.8203125 7.46875 7.2890625 8.5390625 10.5703125 11.640625 11.1640625 12.078125 11.7578125 9.5234375 8.0234375 7.7109375 8.4140625 9.0234375 9.421875 10.2578125 10.0859375 10.3125 10.296875 9.484375 9.9921875 10.1328125 9.3046875 9.125 9.0390625
7.328125 7.546875 7.8125 8.15625 8.1640625 6.90625 6.296875 5.9921875 5.6875 5.3828125 5.3984375 5.8515625 6.34375 6.84375 7.3359375 7.8359375 8.328125 8.90625 9.5625 10.2421875 11.046875 11.8515625 11.6953125 11.6875 10.4375 10.8203125 11.25 10.7890625 11.6875 11.078125 8.6640625 8.1796875 8 8 8 8 8 8 8 8 8 8 8 8 8 8 7.9765625 7.640625 7.484375 7.484375 7.4765625 7.46875 7.46875 7.4609375 7.484375 8.96875 10.421875 9.8046875 9.1953125 8.5859375 8.1171875 8 8 8 8 8 8 8 8 8 8.0390625 8.65625 9.7265625 10.375 10.875 11.2734375 11.5859375 12.0625 12.53125 13.75 15.84375 18.125 19.53125 19.0234375 18.046875 17.6484375 17.375 16.6484375 16.96875 17.2890625 17.25 15.8671875 13.46875 12.0390625 10.8515625 9.984375 10.09375 8.859375 8.578125 8.7265625 8.875 9.0234375 9.171875 9.296875 9.34375 9.375 9.40625 9.4375 9.2421875 8.671875 8.046875 7.421875 6.578125 5.1171875 5 5 5 5.0234375 5.171875 5.3828125 5.59375 5.796875 6.0078125 6.21875 6.421875 6.6328125 6.84375 6.921875 6.0859375 5.6171875 6.3203125 7.140625 7.953125 8.765625 9.6171875 11.84375 14.9140625 15.1953125 14.5234375 13.9375 14.25 14.328125 14.3515625 14.4296875 13.65625 12.109375 12.5703125 12.8125 12.453125 12.1953125 11.109375 9.9609375 10.2734375 9.6015625 9.5078125 10.484375 9.375 9.328125 10.890625 10.1640625 10.734375 11.5546875 12.484375 13.9765625 13.5390625 10.6875 10.3359375 11.375 11.828125 11.6484375 12.203125 12.6796875 12.671875 13.5078125 14.125 14.1953125 14.078125 12.6640625 10.4296875 8.9609375 7.4453125 8.0625 9.3203125 10.5390625 11.640625 12.109375 12.296875 12.5546875 13.3046875 14.0625 12.6015625 11.3515625 10.5078125 9.7265625 8.7578125 7.640625 7.0859375 7.7109375 9.8515625 11.140625 10.828125 10.7421875 10.1484375 8.734375 7.890625 7.6328125 8.015625 8.359375 8.6484375 9.6328125 9.015625 8.6484375 9.15625 8.9609375 9.9765625 10.7109375 10.25 9.2890625 8.5390625
7.6640625 8.046875 8.4921875 8.9453125 8.953125 7.203125 5.9140625 5.5078125 5.203125 5 5.3125 5.8125 6.3046875 6.8046875 7.296875 7.796875 8.2890625 8.8359375 9.484375 10.1796875 10.9921875 11.828125 12.453125 12.734375 11.359375 11.4453125 12.2265625 12.234375 12.0546875 11.8046875 10.6015625 9.453125 8.359375 8 8 8 8 8 8 8 8 8 8 8 8 8 7.9375 7.6953125 7.671875 7.6640625 7.6640625 7.65625 7.6484375 7.6484375 7.640625 8.2890625 9.4765625 8.8515625 8.2890625 8.0390625 8 8 8 8 8 8 8 8 8 8 8 8.265625 8.78125 9.3125 9.84375 10.3671875 10.4609375 11.25 12.5234375 13.9375 15.75 17.8828125 19.1875 18.6328125 17.859375 17.453125 17.078125 16.9375 16.4453125 16.6171875 17.3515625 16.1171875 13.4453125 11.796875 10.578125 10.140625 10.453125 9.6640625 9.046875 9.1953125 9.3515625 9.5 9.6484375 9.796875 9.921875 9.96875 10 10.0078125 9.6328125 9.015625 8.390625 7.765625 6.984375 5.296875 5 5 5 5 5.03125 5.1875 5.390625 5.6015625 5.8125 6.0234375 6.234375 6.4375 6.6484375 6.421875 5.5859375 5.9609375 6.78125 7.59375 8.40625 9.21875 10.0390625 11.546875 14.6015625 15.25 14.578125 14.2890625 14.7421875 14.765625 14.796875 14.8203125 14.484375 12.8203125 12.1328125 11.84375 11.7265625 11.703125 11.6875 10.984375 10.3046875 9.46875 9 9.5078125 9.5546875 7.4375 9.1171875 8.8359375 9.53125 12.2265625 12.90625 13.3515625 13.4140625 12.7578125 11.8203125 11.4453125 11.2734375 11.2734375 11.8125 12.359375 13.2578125 13.828125 14.1953125 14.3671875 13.8125 12.203125 10.53125 10.40625 8.421875 9.6171875 10.7265625 11.859375 12.125 12.1484375 12.453125 12.5234375 13.3125 13.2734375 11.75 11.0078125 10.71875 10.03125 8.9140625 7.8203125 7.078125 6.953125 7.5390625 9.8203125 9.734375 9.078125 8.609375 9.125 9.390625 8.453125 8.3125 8.375 8.7109375 9.3046875 8.1796875 6.84375 8.125 9.1953125 9.421875 10.1015625 10.390625 9.0390625 7.828125
7.953125 8.796875 9.3984375 9.859375 9.875 8 5.96875 5.0390625 4.734375 4.796875 5.2734375 5.7734375 6.265625 6.765625 7.265625 7.7578125 8.25 8.7734375 9.3984375 10.109375 10.953125 11.921875 12.578125 12.1796875 11.3671875 12.21875 13.1796875 12.03125 11.5703125 11.7890625 11.046875 9.703125 8.46875 8 8 8 8 8 8 8 8 8 8 8 8 8 7.9375 7.8671875 7.859375 7.8515625 7.84375 7.84375 7.8359375 7.828125 7.828125 7.96875 8.5390625 8.125 8 8 8 8 8 8 8 8 8 8 8 8 8 8.015625 8.2578125 8.78125 9.3203125 9.71875 10 11.8984375 13.8515625 15.328125 16.625 18.0078125 18.65625 18.1171875 17.796875 17.484375 17.1875 16.7265625 16.3828125 16.734375 17.2421875 16.484375 14.2421875 12.2265625 10.53125 10.2421875 10.6484375 10.390625 9.5234375 9.671875 9.8203125 9.9765625 10.125 10.2734375 10.421875 10.546875 10.59375 10.5078125 9.984375 9.359375 8.734375 8.109375 7.3984375 5.5625 5 5 5 5 5 5.03125 5.1953125 5.40625 5.6171875 5.828125 6.03125 6.2421875 6.40625 5.796875 5.640625 6.421875 7.234375 8.046875 8.859375 9.671875 10.4921875 11.5234375 14.234375 15.296875 14.625 14.7734375 15.1875 15.2109375 15.234375 15.140625 14.1640625 12.9609375 12.328125 11.890625 12.2109375 12.7265625 12.7109375 12.25 11.0390625 9.6796875 8.203125 10.140625 12.3203125 9.15625 8.90625 9.5859375 10.6640625 12.25 12.484375 11.8671875 11.6875 12.9765625 12.796875 11.359375 10.9140625 10.6953125 11.109375 11.59375 13.046875 13.8828125 13.890625 13.296875 12.5546875 11.2734375 10.9921875 12.1796875 12.5546875 12.703125 12.265625 12.546875 11.8046875 11.6953125 11.390625 11.046875 11.421875 12.1328125 11.5 10.25 9.9453125 10.0703125 9.171875 7.8828125 7.546875 7.078125 6.5546875 8.1484375 8.09375 7.5 5.9375 8.015625 9.734375 9.234375 8.7421875 8.4765625 8.625 8.28125 7.65625 6.765625 8.359375 10.125 9.6953125 10.0859375 9.6015625 8.6875 8.09375
6.484375 7.234375 8.4453125 9.796875 10.625 8.8828125 6.6796875 4.84375 4.375 4.7421875 5.234375 5.734375 6.234375 6.7265625 7.21875 7.71875 8.21875 8.71875 9.3203125 10.0625 11.2421875 12.0546875 12.90625 12.671875 11.890625 12.125 13.078125 13.125 12.6953125 12.5078125 12 10.59375 9.0625 8.046875 8 8 8 8 8 8 8 8 8 8 8 8 7.9921875 7.9921875 7.9921875 7.984375 7.984375 7.984375 7.984375 7.9765625 7.9765625 7.9765625 8.0234375 8 8 8 8 8 8 8 8 8 8 8 8 8 8 8 8.015625 8.2890625 8.8046875 9.0390625 9.859375 12.53125 14.53125 15.953125 16.953125 17.203125 18.09375 18.546875 18.25 17.828125 17.640625 17.59375 17.65625 18.234375 18.6796875 17.953125 15.515625 11.8046875 10.3515625 11.2734375 11.5546875 11.2265625 10.03125 10.1640625 10.3046875 10.453125 10.6015625 10.75 10.8984375 11.046875 11.1640625 10.9375 10.328125 9.703125 9.078125 8.453125 7.78125 5.9140625 5 5 5 5 5 5 5.0390625 5.2109375 5.421875 5.625 5.8359375 6.046875 6 5.46875 6.0625 6.875 7.6875 8.5 9.3125 10.1328125 10.9453125 11.7734375 13.8359375 15.3203125 14.734375 15.40625 15.625 15.6484375 15.515625 14.4921875 13.171875 12.9765625 12.0859375 11.96875 12.796875 13.7109375 13.5234375 12.796875 12.1484375 11.0234375 8.1953125 9.28125 12.453125 11.8984375 12.1796875 11.1796875 10.9296875 10.140625 9.8828125 9.2578125 9.234375 11.0078125 11.8984375 11.3046875 10.6875 10.328125 10.609375 11.1953125 12.3828125 13.5546875 12.78125 12.21875 11.6875 11.7421875 12.484375 13.9453125 14.7734375 14.3203125 12.7734375 12.7109375 12.84375 12.125 11.234375 11.3125 12.1328125 12.546875 11.203125 9.8515625 8.78125 9.28125 9.5 7.734375 6.640625 6.703125 6.6015625 8.1171875 9.0234375 8.046875 7.1640625 7.7109375 8.5078125 8.5546875 8.328125 9.21875 9.7265625 8.1171875 7.328125 6.8671875 8.140625 9.890625 9.984375 10.3515625 9.9453125 9.6640625 9.6796875
5.34375 5.8828125 6.484375 7.1328125 8.171875 7.3125 6.1328125 4.8125 4.34375 4.7421875 5.21875 5.703125 6.1953125 6.6875 7.1875 7.6796875 8.1796875 8.671875 9.2421875 10.4453125 11.484375 12.3125 13.234375 13.0234375 12.5390625 12.4609375 12.859375 13.109375 13.3046875 13.140625 12.8984375 11.6640625 9.8984375 8.21875 8 8 8 8 8 8 8 8 8 8 8 8 8 8 8 8 8 8 8 8 8 8 8 8 8 8 8 8 8 8 8 8 8 8 8 8 8 8 8 8.0234375 8.25 8.421875 9.859375 13.0625 15.0078125 15.546875 15.484375 15.3984375 17.265625 19.2421875 19.046875 19.0078125 19.1171875 19.1875 19.2578125 19.9765625 19.828125 18.4375 16.2421875 13.5078125 11.8359375 11.65625 12.8671875 12.9296875 10.90625 10.359375 10.390625 10.4375 10.515625 10.578125 10.6328125 10.671875 10.9140625 11.21875 10.671875 10.046875 9.421875 8.796875 8.15625 6.34375 5.0078125 5 5 5 5 5 5 5.046875 5.2265625 5.4375 5.640625 5.84375 5.53125 5.703125 6.515625 7.328125 8.140625 8.953125 9.7734375 10.5859375 11.3984375 12.2109375 13.59375 15.28125 15.140625 16.03125 16.0703125 15.875 14.7578125 13.234375 12.1953125 12.1640625 10.96875 11.4140625 12.828125 13.53125 12.8828125 11.9609375 11.3515625 10.984375 9.2109375 9.5390625 11.265625 11.3359375 12.046875 11.359375 8.8828125 7.6953125 7.2734375 6.734375 6.6953125 8.84375 9.6484375 11.0859375 10.5078125 9.90625 10.453125 10.875 11.5234375 12.4453125 11.8828125 12.1640625 13.015625 15.3671875 17.3125 15.875 14.3984375 13.2890625 12.375 13.2265625 13.8515625 13.1171875 12.296875 13.6796875 15.5234375 14.609375 12.203125 9.8515625 8.1484375 8.375 8.8125 6.171875 6.3515625 6.875 6.4375 8.359375 9.875 7.9375 6.40625 7.234375 7.8671875 7.953125 7.0859375 8.3515625 10.046875 9.1015625 7.78125 7.265625 8.125 9.0703125 9.5703125 9.921875 10.15625 10.4453125 10.6484375
4.2109375 4.75 5.3515625 6.8046875 7.9296875 6.8203125 5.8984375 5.2578125 5.0234375 5.0546875 5.40625 5.859375 6.3125 6.7734375 7.234375 7.703125 8.1796875 8.65625 9.515625 10.9921875 11.4453125 12.8046875 13.5234375 13.21875 12.9296875 13.1875 13.0703125 12.796875 13.375 13.765625 13.6640625 12.8125 10.9609375 8.34375 8 8 8 8 8 8 8 8 8 8 8 8 8 8 8 8 8 8 8 8 8 8 8 8 8 8 8 8 8 8 8 8 8 8 8 8 8 8 8 8 8 8.0234375 8.59375 12.796875 13.9296875 13.6875 13.609375 13.7421875 16 18.2578125 19.796875 20.3828125 20.578125 20.7265625 20.8359375 20.9609375 20.0546875 18.359375 16.921875 15.6640625 14.3359375 11.96875 12.2265625 13.4453125 10.6953125 8.984375 9.015625 9.078125 9.1171875 9.1171875 9.109375 9.3125 10.046875 10.96875 11.140625 10.390625 9.765625 9.140625 8.5234375 6.8515625 5.0703125 5 5 5 5 5 5 5 5.0546875 5.234375 5.4453125 5.5390625 5.4375 6.15625 6.96875 7.78125 8.59375 9.4140625 10.2265625 11.0390625 11.8515625 12.671875 13.6328125 15.1796875 15.7265625 16.484375 16.2265625 15.0234375 13.4375 12.0390625 10.6875 10.953125 10.625 11.140625 11.7890625 11.3203125 10.796875 10.53125 10.390625 9.625 8.3203125 8.5 8.625 9.5703125 10.0234375 9.796875 7.2578125 6.3203125 6.5078125 6.078125 5.59375 7.7890625 9.3671875 11.640625 10.0390625 9.046875 9.8359375 10.1015625 11.21875 13.1328125 13.5078125 13.5859375 15.640625 18.703125 19.9765625 16.1640625 13.125 12.3203125 12.34375 13.015625 13.484375 13.171875 13.375 13.6328125 14.421875 13.8125 12.6484375 10.9609375 8.8359375 7.828125 6.265625 4.703125 7.328125 8.1953125 6.7734375 7.6328125 7.9765625 7.3359375 7.421875 8.28125 7.6875 7.5 6.7265625 7.3203125 9.328125 9.28125 8.53125 7.4765625 7.8671875 8.0859375 8.765625 9.5859375 9.8203125 10.5078125 10.9453125
3.125 3.609375 4.71875 7.8203125 8.015625 7.140625 6.7578125 5.9609375 5.90625 5.96875 5.75 6.125 6.578125 7.03125 7.4765625 7.8671875 8.1640625 8.6640625 10.4609375 10.9609375 11.7734375 13.3046875 13.4375 12.5078125 12.390625 12.6796875 12.6796875 12.3671875 13.390625 14.125 14.25 14.453125 11.8203125 8.390625 8 8 8 8 8 8 8 8 8 8 8 8 8 8 8 8 8 8 8 8 8 8 8 8 8 8 8 8 8 8 8 8 8 8 8 8 8 8 8 8 8 8 8 11.109375 12.3203125 11.3671875 11.46875 12.171875 14.5078125 16.9375 19.3203125 21.21875 21.75 21.3828125 20.8203125 21.0703125 20.0546875 18.796875 18.234375 16.953125 15.46875 12.796875 11.8359375 12.1015625 9.890625 8.984375 7.8828125 7.5234375 7.5078125 7.4921875 7.6875 8.421875 9.296875 10.1796875 11.2578125 10.9921875 10.09375 9.484375 8.8671875 7.359375 5.2265625 5 5 5 5 5 5 5 5 5.0625 5.25 5.3046875 5.796875 6.609375 7.421875 8.234375 9.0546875 9.8671875 10.6796875 11.4921875 12.3125 13.125 13.9453125 15.1015625 16.453125 16.5703125 15.2890625 13.65625 12.25 11.203125 10.1796875 10.46875 10.984375 11.4609375 10.609375 9.90625 9.4140625 10.7265625 11.609375 9.8046875 8.0234375 8.1484375 9.4375 11.3828125 11.0625 8.453125 6.953125 7.2265625 7.4921875 7.5234375 6.640625 7.84375 9.9609375 10.8359375 9.34375 9.421875 10.3515625 11.0703125 13.5390625 15.8515625 15.4609375 14.75 17.1328125 19.1328125 17.359375 15.3984375 13.4375 12.046875 11.7421875 12.328125 12.9453125 13.6875 13.7890625 12.3203125 11.71875 12.0625 11.1796875 9.921875 9 8.4765625 5.6484375 4.71875 7.875 7.25 5.0546875 3.8828125 6.671875 8.203125 9.703125 9.2421875 7.53125 6.7890625 6.640625 5.984375 7.0625 7.0078125 7.9609375 7.859375 7.859375 7.6171875 8.0625 8.953125 9.09375 9.828125 10.328125
2.5078125 2.71875 5.703125 8.890625 7.9140625 7.7265625 7.5078125 6.6328125 6.7578125 6.921875 6.828125 6.421875 6.765625 7.0546875 7.2578125 7.390625 7.6640625 9.4375 11.859375 11.9921875 12.625 13.7265625 13.34375 12.28125 12.7578125 12.6953125 12.578125 12.8125 13.265625 14.765625 15.5234375 15.265625 13.15625 8.8203125 8 8 8 8 8 8 8 8 8 8 8 8 8 8 8 8 8 8 8 8 8 8 8 8 8 8 8 8 8 8 8 8 8 8 8 8 8 8 8 8 8 8 8 9.734375 10.8984375 9.6640625 8.90625 10.859375 13.1484375 15.5 17.8828125 20.46875 21.1015625 19.609375 19.1484375 19.8359375 19.828125 19.9609375 18.5390625 17.265625 16.609375 13.9765625 11.390625 10.8359375 10.8828125 11.359375 8.5390625 6.265625 5.90625 6.0625 6.7890625 7.6640625 8.5390625 9.4140625 10.453125 11.5546875 10.8046875 9.8046875 9.2109375 7.765625 5.375 5 5 5 5 5 5 5 5 5 5.0703125 5.4609375 6.25 7.0625 7.875 8.6953125 9.5078125 10.3203125 11.1328125 11.953125 12.765625 13.578125 14.390625 15.515625 16.84375 14.9921875 12.7421875 11.7890625 11.8671875 12.109375 10.4375 9.9375 10.53125 10.390625 9.515625 9.625 9.2109375 10.2265625 11.25 10.0859375 9.203125 9.8515625 10.328125 10.0625 7.8125 7.6015625 7.796875 7.875 8.0078125 8.96875 7.796875 8.3828125 10.0859375 10.390625 9.453125 10.125 11.5859375 12.984375 15.109375 17.3671875 17.203125 15.453125 15.1796875 15.671875 15.703125 16.3203125 14.4609375 11.4609375 10.8671875 11.5625 12.4296875 14.015625 14.3046875 12.6015625 11.421875 11.59375 10.0390625 8.390625 8.28125 9.0078125 7.359375 6.234375 7.7265625 7.3359375 5.2734375 3.6796875 7.6875 8.2421875 7.5234375 7.4375 6.3125 6.65625 7.4140625 6.6796875 6.6953125 5.828125 6.265625 6.984375 6.84375 6.6484375 7.3671875 8.1796875 8.4453125 9.296875 9.921875
3.9765625 3.2109375 6.0234375 9.59375 9.9765625 8.8203125 7.9453125 7.078125 7.2265625 7.375 7.671875 7.1015625 7.1015625 7.2265625 7.34375 7.453125 8.2109375 10.6953125 12.703125 12.9140625 12.4765625 13.2421875 13.0859375 12.1328125 12.40625 13.015625 13.2734375 13.2109375 13.1796875 14.3984375 15.0234375 15.015625 14.2578125 10.65625 8.015625 8 8 8 8 8 8 8 8 8 8 8 8 8 8 8 8 8 8 8 8 8 8 8 8 8 8 8 8 8 8 8 8 8 8 8 8 8 8 8 8 8 8 8.78125 9.46875 8.3984375 8.6953125 10.328125 10.9140625 12.71875 15.078125 18.09375 19.8125 19.40625 19.0703125 18.5703125 19.0703125 19.7265625 18.0859375 17.1953125 17.484375 15.3125 12.0703125 11.3359375 12.65625 12.703125 8.890625 5.8125 5.21875 5.328125 6.1640625 7.0390625 7.921875 8.75 10.0390625 11.7421875 11.7109375 10.515625 10.546875 9.046875 7.1015625 6.7578125 5.8203125 5.6171875 5.359375 5.2421875 5.03125 5 5 5 5.046875 5.6328125 6.4453125 7.265625 8.0859375 8.90625 9.71875 10.5390625 11.359375 12.171875 12.9921875 13.8125 14.625 15.46875 16.7578125 14.3671875 11.2109375 11.25 11.21875 11.984375 10.9140625 9.7578125 10.0390625 9.9375 8.6015625 9.359375 9.3125 9.203125 9.4921875 9.3515625 9.34375 9.375 7.75 6.1640625 7.015625 9.234375 7.6328125 6.3046875 7.3359375 9.3984375 8.6015625 9.2421875 10.1875 10.2734375 9.9296875 10.9921875 12.28125 13.7421875 14.6796875 15.203125 15.8046875 14.4375 13.28125 14.609375 16.21875 16.8359375 14.328125 10.9609375 10.5078125 11.0390625 12.3203125 14.5 15.3828125 12.125 10.71875 11.265625 10.6796875 9.59375 8.203125 8.8671875 9.0703125 7.8671875 7.03125 7.078125 7.5859375 5.6484375 6.390625 7.0234375 6.4453125 6.71875 6.2109375 6.7109375 7.7890625 7.65625 6.4375 4.390625 4.5078125 5.9140625 5.921875 6.125 6.6953125 7.546875 7.796875 8.421875 9.03125
6.53125 5.453125 5.9921875 8.7734375 10.6328125 9.765625 8.046875 7.078125 7.21875 7.4140625 8.15625 8.15625 8.0703125 8.21875 8.34375 8.4453125 9.4765625 11.6640625 13.0234375 13.0234375 12.2265625 12.1328125 12.1640625 12.2734375 12.6796875 13.8046875 14.09375 14.0703125 13.984375 14.484375 14.7265625 15.53125 14.984375 13.2578125 8.6953125 8 8 8 8 8 8 8 8 8 8 8 8 8 8 8 8 8 8 8 8 8 8 8 8 8 8 8 8 8 8 8 8 8 8 8 8 8 8 8 8 8 8 8.171875 8.28125 8.015625 8.515625 8.8359375 9.0234375 9.796875 12.15625 15.0078125 17.71875 19.359375 19.109375 18.2109375 18.4296875 18.9609375 18.3125 17.5546875 17.9375 17.203125 15.4609375 14.8359375 14.5390625 14.015625 9.6796875 6.6015625 5.3046875 5.0625 5.6875 6.5625 7.3515625 7.8046875 10.65625 12.0859375 11.8359375 11.25 10.984375 12.40625 10.90625 8.1875 7.1953125 6.6484375 6.171875 5.984375 5.5234375 5.140625 5.0078125 5 5.0390625 5.6015625 6.4140625 7.234375 8.0546875 8.875 9.6875 10.5078125 11.328125 12.1484375 12.9765625 13.7734375 14.46875 15.109375 16.1953125 16.046875 12.3515625 10.7578125 10.890625 10.8359375 10.375 9.796875 10.375 10.6796875 9.0546875 9.1328125 9.0703125 8.796875 8.6171875 8.65625 9.21875 9.375 8.21875 8.09375 9.7109375 10.5390625 6.7578125 5.21875 7.28125 9.21875 8.9921875 9.984375 10.5859375 10.796875 10.6875 11.84375 12.3671875 13.1640625 13.8125 13.40625 13.2578125 12.5859375 12.3046875 15.296875 15.75 15.25 14.25 12.25 11.0859375 11.0859375 12.1328125 14.59375 15.3671875 11.671875 10.6328125 12.2890625 11.671875 10.9375 9.5703125 8.2421875 8.671875 8.921875 7.7421875 5.703125 6.96875 6.1484375 5.671875 6.1171875 7.2578125 7.5234375 7.0234375 6.625 7.203125 6.9140625 6.078125 4.953125 4.890625 5.1875 5.9453125 6.5234375 6.3671875 7.046875 7.2421875 7.6796875 7.6875
7.2734375 7.296875 7.1484375 9.171875 11.1484375 10.1875 8.2265625 7.1015625 7.2109375 7.5078125 8.4453125 9.1484375 9.015625 9.1796875 9.3359375 9.46875 10.65625 12.2109375 13.328125 13.0234375 12.1015625 11.6015625 11.71875 13.046875 13.953125 14.5390625 14.9453125 15.078125 15.1171875 15.1875 15.625 16.9765625 16.6484375 14.296875 9.9765625 8.0078125 8 8 8 8 8 8 8 8 8 8 8 8 8 8 8 8 8 8 8 8 8 8 8 8 8 8 8 8 8 8 8 8 8 8 8 8 8 8 8 8 8 8 8 8 8.0078125 8.015625 8.0390625 8.1875 9.984375 12.5703125 15.0703125 17.3515625 17.671875 17.171875 17.3671875 17.7421875 17.9375 16.3984375 17.0703125 17.3203125 17.3828125 17.125 16.125 15.5625 12.703125 8.34375 5.5859375 5 5.265625 5.9375 6.140625 7.390625 11.6953125 12.109375 11.765625 11.421875 11.1953125 12.65625 10.921875 8.7890625 8.125 7.5390625 7.0078125 6.7734375 6.328125 5.8203125 5.3359375 5.0546875 5.0234375 5.5625 6.3828125 7.203125 8.0234375 8.84375 9.6640625 10.484375 11.3125 12.1484375 12.921875 13.5859375 14.21875 14.8515625 15.53125 16.5 14.1875 10.9140625 10.53125 10.609375 10.34375 10.2421875 10.5546875 11.328125 11.4140625 9.9140625 8.984375 8.1796875 7.4453125 7.8515625 8.765625 9.1484375 9.5234375 8.3203125 6.4296875 6.5625 4.640625 5.34375 7.8125 9.1171875 9.609375 10.4609375 10.90625 11.25 11.4296875 12.5078125 12.6171875 12.6171875 13.0234375 12.6171875 12.4375 12.1328125 13.703125 16.296875 14.8125 14.046875 13.34375 12.546875 11.828125 11.3828125 12.5546875 14.515625 14.203125 11.1953125 11.3984375 12.7578125 11.9921875 11.1640625 11.015625 9.4375 9 9.6015625 8.4609375 5.4453125 4.9453125 4.7578125 5.0234375 6.34375 7.875 7 7.171875 7.2578125 6.9609375 5.1796875 5.0703125 5.6328125 5.6640625 5.375 6.875 6.984375 6.28125 6.5 6.65625 6.53125 6.3046875
8.0703125 7.6796875 8.046875 9.359375 11.546875 10.3828125 8.390625 7.1171875 7.2265625 7.65625 8.6328125 9.9296875 9.9609375 10.125 10.2890625 10.3515625 11.0625 12.625 13.5703125 13.015625 11.9921875 11.09375 11.296875 13.0703125 13.9765625 14.5078125 15.078125 15.4296875 15.5078125 15.1484375 14.8515625 17.0390625 18.3671875 15.6484375 11.1953125 8.4609375 8.03125 8 8 8 8 8 8 8 8 8 8 8 8 8 8 8 8 8 8 8 8 8 8 8 8 8 8 8 8 8 8 8 8 8 8 8 8 8.03125 8.1328125 8.234375 8.2421875 8.25 8.265625 8.2734375 8.28125 8.296875 8.3046875 8.3828125 9.640625 12.6328125 14.828125 16.328125 16.8515625 16.2890625 16.5078125 17.2890625 17.3671875 15.4453125 15.7421875 17.2578125 18.6484375 19.5546875 18.5546875 18.859375 15.90625 11.3046875 7.203125 5.2265625 5.0234375 5.0859375 5.1953125 7.3359375 11.609375 11.640625 11.28125 10.9140625 10.78125 11.125 10.3984375 9.6015625 9.015625 8.4375 7.8671875 7.5625 7.1328125 6.625 6.109375 5.6015625 5.1484375 5.5390625 6.359375 7.1796875 8 8.828125 9.65625 10.4921875 11.3125 12.0546875 12.703125 13.3359375 13.96875 14.6015625 15.234375 16.1796875 15.6171875 12.1875 10.28125 10.3203125 10.390625 10.4296875 10.515625 11.015625 11.765625 10.640625 10 9.7421875 8.4296875 8.5 8.65625 9.1640625 10.0859375 9.1796875 6.7890625 6.1484375 4.328125 5.8359375 7.9609375 9.4921875 10.1796875 10.7734375 11.21875 11.640625 12.1328125 12.9765625 12.96875 12.203125 12.25 12.203125 12.3515625 12.2421875 14.09375 15.4765625 13.734375 12.546875 11.9609375 12.015625 12.6953125 11.8359375 12.59375 13.8984375 12.7109375 11.0625 11.390625 12.3046875 12.171875 11.5078125 10.9765625 9.53125 8.671875 9.4296875 9.046875 6.484375 4.34375 4.46875 5.4921875 6.5625 6.46875 5.8359375 6.5546875 8.09375 6.9375 4.0859375 4.1328125 5.1640625 5.75 6.765625 7.9765625 7.140625 6.296875 6.875 7.8203125 7.0703125 6.390625
8.875 8.46875 8.046875 8.921875 10.8984375 9.8359375 8.546875 7.1640625 7.3125 7.8203125 8.8203125 10.4765625 10.921875 11.0703125 11.2890625 10.671875 9.703125 12.015625 13.4140625 13.09375 11.8046875 11.640625 12.453125 13.96875 14.234375 13.9921875 13.9921875 13.6484375 14.375 14.6640625 14.8359375 16.25 17.046875 15.1171875 13.4765625 11.671875 9.8984375 8.171875 8 8 8 8 8 8 8 8 8 8 8 8 8 8 8 8 8 8 8 8 8 8 8 8 8 8 8 8 8 8 8 8 8.0078125 8.0703125 8.2109375 8.40625 8.609375 8.7421875 8.75 8.765625 8.7734375 8.78125 8.796875 8.8046875 8.8203125 9.09375 9.0859375 11.9140625 16.234375 19.8125 22.125 21.6015625 19.203125 19.5234375 17.671875 14.9609375 16.0546875 18.0859375 18.9765625 19.6171875 19.3125 19.46875 19.1953125 16.7421875 11.359375 7.0625 5.015625 6.640625 7.5234375 6.6640625 9.953125 10.4140625 10.046875 9.6796875 10.0234375 10.921875 10.875 10.4765625 9.90625 9.328125 8.75 8.359375 7.9453125 7.4296875 6.921875 6.1015625 5.109375 5.515625 6.3359375 7.1640625 7.9921875 8.8359375 9.6640625 10.46875 11.1796875 11.8203125 12.453125 13.078125 13.7109375 14.34375 14.9765625 15.6328125 16.2890625 13.8125 10.6640625 10.0546875 10.125 10.3359375 10.4765625 10.4296875 10.5703125 11.1171875 13.046875 11.96875 9.8984375 8.984375 7.9765625 8.640625 10.90625 10.53125 9.8515625 8.6484375 6.8984375 7.3671875 8.6875 10.1953125 10.6328125 11.0859375 11.5234375 11.96875 12.5859375 13.3046875 13.3203125 11.9609375 11.921875 12.3359375 12.3125 12.09375 12.53125 13.2421875 12.28125 11.0859375 10.265625 9.65625 11.375 12.328125 12.8125 12.515625 11.015625 11.5703125 11.8359375 12.03125 11.671875 10.90625 10.4765625 9.7734375 8.5078125 8.515625 9.3671875 8.1640625 7.0859375 6.4609375 6.7890625 7.0390625 5.734375 4.703125 5.6328125 8.3125 7.4453125 6.3125 4.9765625 5.125 5.796875 6.96875 7.125 6.15625 6.609375 7.4140625 8.4921875 8.4609375 7.8984375
9.671875 9.265625 8.8203125 8.375 8.9375 8.03125 7.71875 7.2109375 7.453125 7.984375 9.0078125 10.7890625 11.84375 12.1328125 12.3671875 11.359375 11.4296875 12.875 12.9296875 12.6875 12.28125 12.8515625 14.203125 14.8125 14.6328125 14.9609375 14.890625 13.953125 14.4609375 14.25 14.390625 15.078125 15.546875 16.1953125 17.765625 16.6328125 12.546875 8.3046875 8 8 8 8 8 8 8 8 8 8 8 8 8 8 8 8 8 8 8 8 8 8 8 8 8 8 8 8 8 8 8.03125 8.125 8.296875 8.5 8.7109375 8.9140625 9.125 9.25 9.265625 9.2734375 9.2890625 9.296875 9.3046875 9.3203125 9.4453125 9.921875 9.484375 10.1875 14.1171875 18.5234375 22.921875 26.9140625 28.1875 25.75 20.0859375 16.125 17.2265625 18.3046875 18.296875 19.078125 19.078125 19.1484375 19.3125 18.7734375 17.328125 14.515625 9.015625 10.625 10.3046875 7.1953125 8.09375 9.1328125 8.78125 8.5390625 9.28125 10.296875 10.890625 11.0390625 10.7421875 10.21875 9.640625 9.1796875 8.75 8.234375 7.28125 5.4765625 5.015625 5.5 6.3359375 7.171875 8.015625 8.8359375 9.609375 10.296875 10.9296875 11.5625 12.1953125 12.828125 13.4609375 14.09375 14.71875 15.3515625 16.1796875 15.2109375 11.8984375 9.8671875 9.859375 10.203125 9.9453125 9.9921875 10.6484375 12.1953125 12.8984375 11.0859375 8.4453125 8.953125 8.203125 8.6171875 10.7734375 10.328125 10.5625 10.5859375 9.4140625 9.71875 10.375 10.78125 11.265625 11.8671875 12.3125 12.34375 12.1875 12.8671875 12.8515625 11.8515625 11.8984375 12.359375 12.421875 11.7265625 10.6484375 10.8671875 10.453125 10.484375 11.1875 8.6171875 7.8671875 9.828125 11.453125 10.734375 10.1640625 11.515625 12.203125 12.1640625 11.3671875 10.578125 9.953125 9.03125 7.9609375 8.25 8.8125 7.296875 6.9296875 7.15625 8.1015625 7.75 6.609375 5.4453125 5.8671875 8.0078125 8.28125 8.0703125 5.4296875 5.3046875 5.796875 6.46875 6.640625 5.703125 6.71875 8.1875 8.3828125 8.703125 8.7578125
10.3828125 9.875 9.25 8.578125 7.96875 7.015625 6.5390625 7.046875 7.546875 8.1640625 9.109375 10.71875 12.4375 13.40625 13.625 13.2421875 13.515625 13.6953125 13.1328125 12.640625 13.3203125 14.5 16.3359375 16.125 15.7265625 15.7421875 15.484375 14.8515625 14.828125 13.84375 13.140625 13.7265625 14.0546875 16.5546875 20.734375 19.0234375 11.3046875 8.078125 8 8 8 8 8 8 8 8 8 8 8 8 8 8 8 8 8 8 8 8 8 8 8 8 8 8 8 8.0078125 8.0703125 8.1953125 8.390625 8.6015625 8.8046875 9.015625 9.2265625 9.4296875 9.640625 9.765625 9.7734375 9.7890625 9.796875 9.8046875 9.8203125 9.828125 10.2421875 10.7421875 10.2109375 9.75 11.9765625 16.3359375 20.734375 25.140625 29.25 28.7734375 24.1015625 19.09375 17.296875 17.078125 16.6796875 18.3203125 18.7109375 18.390625 18.171875 18.6015625 19.328125 19.03125 17.0859375 14.40625 12.3984375 8.765625 6.7734375 7.8046875 7.5078125 7.5390625 8.4609375 9.625 10.640625 11.203125 11.109375 10.9296875 10.5234375 10.0078125 9.546875 8.453125 6.1875 5.0234375 5.015625 5.515625 6.3515625 7.1875 7.9921875 8.75 9.4140625 10.046875 10.6796875 11.3125 11.9375 12.5703125 13.203125 13.8359375 14.46875 15.1015625 15.7421875 16.0390625 13.390625 10.3359375 9.59375 9.8359375 9.3046875 9.6328125 10.5390625 11.4140625 11.5234375 9.1953125 6.4453125 7.734375 8.96875 9.7265625 10.0625 10.5078125 11.1171875 11.7265625 11.6015625 11.4609375 11.3828125 11.71875 12.6796875 12.7890625 12.2578125 11.6015625 12.015625 13.3203125 12.5390625 11.4296875 11.2578125 10.75 10.6171875 10.40625 10.5546875 11.265625 12.109375 12.7109375 13.3359375 10.7421875 7.6328125 8.9765625 9.9921875 9.390625 9.9375 10.5625 11.2578125 12.1015625 12.28125 12.03125 9.8515625 7.875 7.5234375 8.140625 8.109375 7.2265625 7.5703125 7.609375 8.5390625 8.40625 7.4453125 6.3828125 6.609375 7.59375 8.84375 8.9140625 5.5703125 4.078125 5.375 7.09375 6.8671875 5.296875 6.125 8.6953125 8.7734375 8.78125 8.6796875
10.4296875 9.7890625 9.0703125 8.484375 8.2578125 7.5078125 7.015625 7.4453125 8.8203125 9.734375 9.8359375 11.078125 12.671875 14.1484375 14.53125 13.96875 14.109375 14.09375 12.6328125 12.234375 13.4375 15.40625 17.2265625 16.8359375 15.828125 15.46875 15.5078125 15.25 15.0390625 14.4609375 12.5625 11.9375 12.4765625 14.4140625 18.234375 16.203125 10.0546875 8.5625 8.015625 8 8 8 8 8 8 8 8 8 8 8 8 8 8 8 8 8 8 8 8 8 8 8 8 8.0078125 8.1015625 8.28125 8.484375 8.6953125 8.90625 9.109375 9.3203125 9.53125 9.7421875 9.9453125 10.15625 10.2734375 10.2890625 10.296875 10.3125 10.3203125 10.328125 10.421875 11.203125 11.5234375 10.9375 10.3359375 10.5625 14.1484375 18.546875 22.953125 27.2265625 28.4140625 25.6953125 20.9609375 18.296875 19.234375 17.3515625 16.9453125 17.921875 18.3515625 18.453125 19.203125 20.1640625 20.515625 19.0078125 16.9375 14.28125 10.5390625 6.625 6.4375 6.2734375 6.578125 7.671875 8.90625 10.234375 11.3046875 11.25 11.15625 11.046875 10.7890625 9.796875 7.390625 5.25 5 5.015625 5.53125 6.3515625 7.140625 7.875 8.5234375 9.15625 9.7890625 10.421875 11.0546875 11.6875 12.3203125 12.953125 13.578125 14.2109375 14.84375 15.4765625 16.1484375 14.8125 11.5234375 9.4609375 9.28125 8.859375 9.109375 9.8359375 10.1875 11.03125 10.2578125 8.1171875 7.828125 10.015625 10.5390625 10.2578125 11.0546875 11.71875 12.359375 12.78125 12.84375 12.765625 12.5703125 12.3671875 11.9765625 10.9453125 11.0625 12.375 13.984375 13.6953125 11.3671875 10.46875 9.5625 9.890625 10.5234375 10.65625 12.359375 15.140625 15.265625 14.078125 12.5859375 10.390625 10.296875 9.4609375 9.203125 10.1796875 10.5859375 10.7265625 12.1171875 13.3359375 13.984375 10.875 8.5 7.859375 7.828125 8.078125 8.9765625 8.7734375 8.1015625 8.078125 7.453125 7.5703125 6.828125 5.8515625 6.515625 8.4765625 8.234375 5.7421875 4.03125 6.640625 9.015625 7.8203125 5.609375 6.34375 8.6484375 8.859375 8.65625 8.421875
10.1875 9.546875 8.890625 8.6328125 8.5546875 7.9921875 7.8203125 8.90625 9.921875 10.9140625 11.8515625 12.8046875 13.703125 13.890625 13.96875 13.6640625 13.5390625 12.25 11.3828125 12.25 13.078125 14.875 16.2578125 16.546875 15.5546875 14.7421875 14.6875 14.7578125 15.03125 15.1875 13.515625 12.9453125 14.53125 15.2734375 15.109375 12.703125 10.4140625 8.6796875 8.03125 8 8 8 8 8 8 8 8 8 8 8 8 8 8 8 8 8 8 8 8 8 8 8 8.03125 8.171875 8.4765625 8.78125 9 9.2109375 9.421875 9.625 9.8359375 10.046875 10.2578125 10.4609375 10.671875 10.7890625 10.796875 10.8125 10.8203125 10.828125 10.84375 11.1796875 12.171875 12.265625 11.6640625 11.0625 10.5 12.09375 16.359375 20.765625 25.1328125 26.6484375 26.1796875 22.3359375 18.859375 20.6484375 18.4453125 16.3125 17.4921875 17.7265625 18.4296875 19.53125 20.40625 21.2265625 21.1796875 17.6953125 15.4609375 13.203125 7.6171875 5.4140625 5.203125 5.734375 6.96875 8.2109375 9.703125 11.234375 11.359375 11.25 11.140625 11.0703125 11.3828125 11.1171875 7.1171875 5 5.015625 5.5078125 6.2890625 7 7.640625 8.2734375 8.90625 9.5390625 10.171875 10.796875 11.4296875 12.0625 12.6953125 13.328125 13.9609375 14.59375 15.2265625 15.859375 15.8046875 12.9765625 9.9296875 8.8359375 8.28125 7.9765625 9.15625 9.7890625 10.7734375 11.65625 11.1640625 10.1171875 10.265625 10.3828125 10.75 11.2109375 11.9375 12.71875 13.2109375 13.078125 12.671875 12.328125 12.25 11.09375 10.078125 11.25 12.875 14.5703125 14.9765625 12.515625 11.15625 11.8203125 12.359375 11.8984375 10.5625 12.875 15.6640625 14.65625 13.578125 13.0703125 12.03125 10.75 8.8515625 9.625 11.1953125 10.921875 10.5234375 12.5859375 13.328125 13.4921875 11.375 8.078125 7.9140625 8.6328125 10.2421875 11.2109375 9.953125 8.421875 8.2109375 8.078125 7.7890625 7.765625 6.46875 5.921875 7.421875 6.609375 4.4765625 5.0703125 10.0390625 10.9296875 9.1484375 7.6484375 7.2578125 8.7890625 8.765625 8.390625 8.15625
9.9453125 9.328125 8.9609375 8.8828125 8.8203125 8.515625 9.3203125 11.109375 11.7578125 12.3203125 12.8515625 13.4609375 13.8203125 13.484375 13.4453125 13.734375 13.046875 11.5 11.578125 13.1875 14.671875 15.1875 14.9921875 15.4140625 15.2890625 14.2421875 13.34375 13.6171875 14.40625 15.421875 14.4375 14.4765625 15.9609375 15.7890625 13.8359375 13.125 11.28125 8.6171875 8 8 8 8 8 8 8 8 8 8 8 8 8 8 8 8 8 8 8 8 8 8 8 8.078125 8.28125 8.5390625 8.8984375 9.2265625 9.515625 9.7265625 9.9375 10.140625 10.3515625 10.5625 10.765625 10.9765625 11.1875 11.296875 11.3125 11.3203125 11.3359375 11.34375 11.40625 12.1171875 13.1015625 12.9921875 12.390625 11.7890625 11.1875 11.0546875 14.171875 18.5703125 22.9765625 24.953125 24.65625 23.578125 19.65625 20.2890625 19.1875 16.671875 17.5859375 17.59375 18.46875 19.328125 19.609375 20.2265625 19.859375 17.25 17.2890625 16.9375 14.0234375 10.2578125 5.34375 5.328125 6.4765625 7.5078125 8.9375 10.46875 11.2109375 11.2578125 11.140625 11.078125 11.7421875 12.6484375 11.1640625 6.9921875 5.1484375 5.4375 6.1171875 6.7578125 7.3828125 8.015625 8.6484375 9.28125 9.9140625 10.546875 11.1796875 11.8125 12.4375 13.0703125 13.703125 14.3359375 14.96875 15.6015625 16.140625 14.40625 10.7265625 8.875 8.5546875 8.953125 11.1484375 12.3203125 11.671875 12.0546875 12.4765625 11.671875 10.265625 10.4140625 10.96875 11.5078125 12.0625 11.546875 11.046875 11.5546875 11.265625 11.1796875 11.1015625 10.5 10.5625 11.984375 13.8125 14.90625 15.1796875 13.40625 13.3125 14.578125 13.921875 13.0703125 12.78125 14.875 15.3515625 13.796875 14.3984375 14.3671875 12.640625 11.234375 10.6171875 10 10.7109375 9.84375 9.515625 11.359375 11.8671875 11.3984375 9.546875 6.6328125 7.0078125 8.9375 11.328125 11.71875 10.078125 8.3671875 7.8515625 8.0390625 8 8.2890625 8.625 8.296875 7.734375 6.6328125 5.4765625 7.6015625 12.2109375 13.1171875 11.75 10.25 8.9140625 8.859375 8.5390625 8.140625 7.8984375
9.7109375 9.296875 9.1953125 9.1328125 9.1875 9.5859375 11.671875 13.0625 13.453125 13.84375 14.1484375 14.0546875 13.5390625 13.1953125 13.46875 14.078125 12.5390625 11.09375 12.1015625 13.6875 15.3203125 15.0078125 14.3125 14.53125 15.421875 14.5546875 13.109375 12.78125 14.8515625 16.375 15.609375 15.0859375 15.7109375 16.015625 15.09375 14.5078125 12.4375 8.8828125 8.015625 8 8 8 8 8 8 8 8 8 8 8 8 8 8 8 8 8 8 8 8 8.0234375 8.15625 8.390625 8.640625 8.9609375 9.34375 9.6484375 9.9921875 10.2421875 10.453125 10.65625 10.8671875 11.078125 11.28125 11.4921875 11.703125 11.8125 11.8203125 11.8359375 11.84375 11.8515625 12.1328125 13.1171875 14 13.7109375 13.1171875 12.515625 11.9140625 11.3125 12.3046875 16.3828125 20.7890625 23.3359375 22.28125 23.2734375 20.765625 20.03125 20.4296875 18 18.1484375 18.5859375 19.8984375 19.640625 18.6328125 18.515625 17.359375 17.5625 19.1171875 19.203125 18.03125 15.109375 9.109375 5.2109375 5.7421875 6.5625 7.90625 9.2734375 10.3671875 11.0546875 11.1484375 11.0703125 11.71875 12.609375 13.3671875 12.4453125 8.734375 8.0703125 8.3359375 8.71875 9.125 9.53125 9.9296875 10.34375 10.796875 11.25 11.6953125 12.171875 12.6875 13.2109375 13.7265625 14.265625 14.8515625 15.4375 16.0234375 15.5625 12.34375 11.265625 11.5703125 11.6796875 12.7578125 13.9140625 12.4140625 12.6015625 12.2890625 10.1796875 9.8515625 10.7421875 11.53125 12.2109375 12.671875 10.578125 9.5 10.484375 11.265625 11.6328125 11.6953125 11.5390625 11.4140625 13.328125 15.140625 14.0390625 13.0703125 12.3359375 13.296875 14.6171875 14.328125 14.375 14.78125 15.3515625 15.1796875 14.8359375 15.1875 15.0703125 12.65625 10.7578125 10.6015625 9.5859375 9.4921875 9.3125 9.3203125 10.2890625 10.421875 9.984375 9.1953125 7.703125 6.734375 7.640625 9.7265625 10.5 9.65625 8.4609375 7.7734375 8.09375 8.2421875 8.4921875 8.90625 8.6796875 8.0625 7.671875 8.5 11.6640625 15.125 15.015625 13.15625 11.234375 9.3828125 8.875 8.796875 8.7578125 8.65625
9.625 9.5234375 9.640625 9.890625 10.2109375 11.2734375 13.5078125 14.2734375 14.6484375 14.9453125 14.7265625 14.2578125 13.6640625 14.375 15.140625 14.828125 13.3125 12.296875 13.1484375 14.703125 14.7890625 13.8203125 13.28125 13.90625 15.703125 15.109375 13.734375 13.6015625 15.78125 15.671875 14.6171875 15.1328125 15.8515625 15.875 15.390625 14.375 12.6328125 10.0390625 8 8 8 8 8 8 8 8 8 8 8 8 8 8 8 8 8 8 8 8 8.0625 8.2578125 8.5078125 8.7578125 9 9.4140625 9.7421875 10.0703125 10.421875 10.7421875 10.96875 11.171875 11.3828125 11.59375 11.796875 12.0078125 12.21875 12.328125 12.3359375 12.34375 12.359375 12.3984375 13.0390625 14.109375 14.859375 14.4375 13.8359375 13.2421875 12.640625 12.0390625 11.65625 14.2109375 18.6015625 21.6328125 20.546875 20.75 21.4375 20.3125 20.4609375 19.1015625 18.1796875 19.03125 20.890625 20.6171875 17.84375 16.9765625 16.3515625 18.2265625 20.2265625 19.71875 17.71875 15.8671875 14.3359375 8.140625 5.0859375 5.5703125 6.65625 8.0703125 9.2578125 10.15625 10.8828125 11.0625 11.65625 12.46875 13.234375 14.0234375 14.2109375 11.671875 9.953125 10.1796875 10.546875 10.90625 11.2734375 11.640625 12 12.3671875 12.734375 13.1015625 13.4609375 13.828125 14.1953125 14.5625 14.921875 15.2890625 15.65625 16.1171875 15.1171875 13.3046875 12.3203125 11.7734375 12.4140625 13.109375 12.765625 13.953125 12.4140625 10.21875 9.9140625 10.5 11.625 12.734375 13.5 12 10.1953125 11.3359375 12.71875 12.6484375 12.2265625 11.9921875 12.3203125 14.0078125 14.1484375 12.515625 11.203125 11.4765625 13.4609375 14.6875 14.578125 14.890625 14.90625 14.6171875 14.578125 15.1015625 16.21875 15.3046875 12.46875 9.953125 9.328125 9.046875 8.7109375 8.6015625 9.484375 9.7109375 9.1484375 8.953125 10.046875 9.453125 7.6328125 6.6328125 8.0234375 9.375 9.640625 10.2421875 10.4375 9.2109375 8.7109375 8.765625 9.4921875 9.484375 8.7265625 7.8359375 8.40625 10.546875 12.5078125 13.421875 12.0390625 10.0234375 8.5390625 8.75 8.6171875 8.5546875 8.625
9.9140625 10.0078125 10.125 10.140625 10.2890625 11.796875 13.546875 13.9765625 14.0703125 14.125 13.8203125 13.8671875 13.3828125 14.6953125 15.359375 14.28125 13.5546875 13.1015625 14.0234375 14.5234375 13.6484375 12.5703125 12.3046875 12.8984375 14.671875 15 13.9140625 14.5078125 16.5390625 15.046875 13.765625 14.546875 14.875 14.25 13.4453125 13.484375 11.9453125 10.1015625 8.375 8.015625 8 8 8 8 8 8 8 8 8 8 8 8 8 8 8 8 8.015625 8.140625 8.3671875 8.6171875 8.8671875 9.1171875 9.3671875 9.8828125 10.140625 10.484375 10.84375 11.1875 11.4765625 11.6875 11.8984375 12.109375 12.3125 12.5234375 12.734375 12.8359375 12.84375 12.859375 12.8671875 13.0859375 14.03125 15.109375 15.6796875 15.1640625 14.5625 13.9609375 13.3671875 12.765625 12.1640625 12.6171875 16.4140625 19.859375 19.1171875 17.9609375 20.078125 21.25 20.9375 19.6953125 19.03125 18.796875 18.8828125 18.171875 16.6328125 16.46875 16.8984375 18.7734375 20.1484375 20.0703125 20.7890625 21.2734375 19.9609375 13.171875 6.015625 5.09375 5.4453125 6.8671875 8.1484375 9.0390625 9.96875 10.7109375 11.28125 12.1796875 13.25 14.4609375 14.7421875 13.9375 11.546875 9.5078125 9.59375 9.953125 10.3203125 10.6875 11.0546875 11.421875 11.78125 12.1484375 12.515625 12.875 13.2421875 13.609375 13.9765625 14.3359375 14.7734375 15.59375 16.5625 15.765625 13.6484375 11.8984375 11.171875 10.9921875 12.015625 14.8828125 13.5703125 11.3125 10.84375 10.640625 11.0390625 12.109375 13.2578125 13.140625 11.3828125 11.375 12.7890625 13.1171875 12.3359375 12.515625 12.59375 12.515625 12.3671875 11.46875 11.4453125 12.734375 14.171875 15.21875 14.3359375 14.359375 14.4765625 13.9765625 13.859375 14.375 15.4453125 13.71875 10.1875 8.3828125 8.25 8.265625 7.9453125 8.5078125 9.53125 9.3515625 8.875 8.625 9.8515625 10.09375 9.34375 7.765625 7.4453125 8.546875 9.625 9.8203125 9.8515625 9.9609375 9.515625 9.125 9.90625 10.0625 8.828125 8.0859375 8.5625 9.2890625 9.2265625 10.3515625 10.671875 8.7265625 8.0234375 8.6171875 8.59375 8.328125 8.203125
11.6640625 11.4296875 11.15625 10.8046875 10.640625 11.734375 13.140625 13.5703125 13.0390625 12.953125 13.1484375 13.1328125 13.0625 13.90625 14.6171875 14.015625 13.8046875 13.125 12.8046875 12.7265625 12.1796875 11.375 11.5625 12.34375 13.1875 13.7890625 14.34375 15.0234375 15.359375 14.46875 14.0703125 14.671875 14.2109375 13.2109375 12.84375 13.3125 13.171875 13.1640625 14.8671875 10.6640625 8.015625 8 8.0078125 8 8 8 8 8 8 8 8 8 8 8 8 8.0546875 8.234375 8.484375 8.734375 8.984375 9.234375 9.4765625 9.7421875 10.3671875 10.546875 10.90625 11.2578125 11.609375 11.953125 12.203125 12.4140625 12.625 12.828125 13.0390625 13.2421875 13.3515625 13.359375 13.3671875 13.3984375 13.9609375 15.03125 16.109375 16.46875 15.890625 15.2890625 14.6875 14.0859375 13.4921875 12.890625 12.359375 14.2890625 17.9921875 17.6953125 16.0234375 17.3203125 21 20.5078125 19.9453125 19.421875 18.0546875 16.25 15.6953125 15.3984375 15.7734375 16.671875 17.6171875 18.125 20.3359375 22.765625 22.90625 20.765625 16.609375 11.859375 5.7421875 5.0078125 5.8046875 7.4296875 8.703125 9.546875 10.078125 11.6015625 12.9609375 14.328125 15.015625 14.375 13.765625 13.109375 11.296875 9.125 9.0078125 9.375 9.734375 10.1015625 10.46875 10.8359375 11.203125 11.5625 11.9296875 12.296875 12.65625 13.0234375 13.3828125 14.0703125 14.9921875 15.8359375 15.1875 14.2265625 13.1953125 12.390625 12.65625 13.265625 13.6171875 14.046875 12.4765625 11.8984375 11.6328125 11.390625 11.625 12.4609375 13.171875 12.5 11.3671875 11.8828125 12.2265625 12.4921875 13.2421875 12.3515625 11.6875 11.8515625 11.2421875 12.3046875 13.5859375 13.28125 13.84375 13.46875 13.9140625 14.15625 13.4609375 13.2421875 13.5859375 13.7578125 11.53125 9.328125 8.75 8.5546875 7.71875 8.140625 8.7890625 9.3046875 8.9140625 8.671875 8.859375 9.8203125 9.9765625 9.671875 8.859375 7.890625 8.8046875 9.2734375 8.5703125 8.4921875 9.7109375 10.296875 9.515625 9 9.015625 8.7890625 8.6015625 8.9765625 8.6953125 6.734375 6.9140625 8.6171875 7.625 7.7578125 8.4375 8.5859375 8.3203125 8.15625
13.0546875 12.9296875 12.6953125 12.4296875 11.921875 11.8203125 12.6953125 13.6875 13.203125 12.1640625 12.59375 12.6953125 13.4375 14.484375 15.046875 15.0234375 14.8203125 14.1171875 14.0625 15.25 15.015625 12.140625 11.75 12.7421875 13.78125 13.7265625 14.1875 15.2421875 15.421875 14.8359375 14.78125 15.40625 14.5625 13.046875 13.0546875 13.1875 13.9765625 16.4765625 17.796875 13.8359375 8.71875 8.703125 8.8203125 8.3046875 8.046875 8 8 8 8 8 8 8 8 8.015625 8.1171875 8.34375 8.59375 8.84375 9.09375 9.34375 9.59375 9.84375 10.1796875 10.84375 10.953125 11.328125 11.6796875 12.03125 12.3828125 12.703125 12.9296875 13.140625 13.34375 13.5546875 13.7578125 13.859375 13.8671875 13.8828125 14.046875 14.9453125 16.03125 17.0859375 17.21875 16.6171875 16.015625 15.4140625 14.8125 14.21875 13.6171875 13.015625 13.0390625 16.046875 16.2421875 14.8515625 16.8046875 18.8359375 19.0625 18.8515625 18.3203125 17.1953125 15.7578125 16.390625 16.8125 16.6953125 17.0390625 15.8984375 16.359375 18.8359375 19.6015625 19.3828125 19.28125 18.4609375 15.09375 7.5078125 5.09375 5.125 6.5 8.53125 9.3515625 10.1953125 12.71875 14.1484375 15.2265625 14.71875 13.9765625 13.3828125 12.7890625 12.1953125 10.890625 8.7734375 8.421875 8.7890625 9.15625 9.515625 9.8828125 10.25 10.609375 10.9765625 11.34375 11.7109375 12.0390625 12.578125 13.4765625 14.3984375 15.1796875 14.765625 14.3984375 14.046875 13.7734375 14.4921875 14.5078125 13.359375 13.28125 13.234375 12.7265625 12.1953125 11.6015625 11.2890625 11.703125 12.609375 12.9921875 11.7265625 12.0078125 12.3515625 12.8125 12.8125 11.6640625 11.1796875 11.8515625 12.09375 12.1640625 11.859375 11.453125 12.0859375 12.4453125 12.6015625 13.5546875 12.359375 13.2734375 14.578125 13.640625 11.3203125 10.4453125 10.375 9.25 8.5078125 8.4921875 8.9375 8.9609375 8.78125 8.78125 9.0859375 9.734375 9.8359375 9.78125 10.0546875 9.9609375 9.875 9.59375 9.2421875 8.734375 8.25 9.515625 10.3125 9.6953125 9.0625 9.1640625 8.421875 8.421875 7.5625 6.3046875 5.625 6.6015625 6.9765625 7.5234375 8.21875 8.5546875 8.3125 8.15625
13.1640625 13.2890625 13.2578125 13.03125 12.75 12.6015625 12.7109375 13.34375 12.78125 11.953125 12.171875 12.6484375 13.6953125 14.7421875 15.75 16.125 15.625 14.6484375 15.578125 17.484375 17.5234375 14.203125 13.1953125 13.421875 13.828125 13.640625 12.5546875 12.46875 13.515625 13.9375 14.3671875 14.5 13.8046875 13.53125 14.234375 13.8046875 14.0546875 14.5859375 15.078125 13.8125 10.1484375 10.703125 10.5625 9.671875 8.796875 8.3671875 8.1796875 8.25 8.2578125 8.2578125 8.21875 8.1171875 8.09375 8.25 8.4609375 8.7109375 8.9609375 9.2109375 9.453125 9.703125 9.953125 10.203125 10.6875 11.296875 11.375 11.7421875 12.09375 12.4453125 12.796875 13.15625 13.4375 13.6484375 13.859375 14.0703125 14.2734375 14.375 14.3828125 14.3984375 14.890625 15.9453125 17.0234375 18.0234375 17.9453125 17.34375 16.7421875 16.140625 15.5390625 14.9375 14.34375 13.7421875 13.1484375 14.2421875 14.8515625 14.953125 16.4921875 16.875 16.8671875 17.0078125 16.9765625 16.453125 16.609375 18.5390625 18.640625 17.0390625 17.4375 15.96875 16.5078125 18.90625 19.1875 18.640625 18.03125 19.03125 16.609375 12.46875 6.5546875 5.0078125 5.2109375 7.21875 9.3828125 10.3125 13.7265625 15.265625 15.2109375 14.25 13.5859375 12.9921875 12.3984375 11.8125 11.21875 10.2890625 8.421875 7.8515625 8.203125 8.5703125 8.9375 9.296875 9.6640625 10.03125 10.390625 10.7265625 11.1171875 11.9609375 12.8828125 13.8046875 14.578125 14.265625 14 13.6171875 13.4296875 14.7421875 14.03125 12.2421875 11.9453125 12.296875 12.71875 11.9140625 11.578125 12.1328125 12.40625 12.171875 12.5625 12.203125 12.3359375 12.640625 12.890625 11.84375 10.078125 10.6875 11.453125 12.328125 12.5 12 11.5234375 12.328125 12.1328125 11.4375 12.3984375 12.2734375 14.0703125 15.3984375 12.9921875 10.953125 10.234375 9.7421875 8.9921875 8.3984375 8.03125 8.90625 8.921875 8.84375 8.9921875 9.359375 9.7734375 9.7265625 9.7421875 9.640625 9.625 9.78125 9.8203125 9.78125 8.5390625 6.9921875 7.8046875 10.21875 11.34375 10.8203125 10.234375 8.953125 7.921875 7.7578125 7.421875 6.3125 7.484375 8.203125 7.765625 7.9921875 8.4765625 8.3125 8.1484375
13.1796875 13.3671875 13.4609375 13.6875 14.0078125 14.0390625 13.8046875 12.9296875 12.328125 13.2265625 13.1796875 12.921875 13.34375 14.1953125 15.6953125 16.0859375 15.5859375 13.9609375 12.9453125 13.5546875 14.5703125 14.78125 14.390625 14.3046875 13.9765625 12.8984375 11.6796875 11.078125 12.3515625 14.1640625 14.1953125 13.6484375 13.5625 15.140625 15.515625 14.2265625 14.5625 15.0234375 14.3515625 12.2734375 11.8984375 12.6484375 11.9296875 10.4296875 9.8828125 10.0078125 9.7265625 9.7578125 9.734375 9.484375 9.0546875 8.90625 8.8359375 9.0234375 8.8515625 9.0703125 9.3203125 9.5703125 9.8203125 10.0703125 10.3203125 10.5703125 11.25 11.7109375 11.8046875 12.1640625 12.515625 12.8671875 13.21875 13.5703125 13.9140625 14.1640625 14.375 14.5859375 14.7890625 14.8828125 14.890625 15.0234375 15.8671875 16.9453125 18.0234375 18.9296875 18.671875 18.0703125 17.46875 16.8671875 16.265625 15.6640625 15.0625 14.46875 13.8671875 13.5 13.5546875 14.4453125 15.0546875 15.5703125 15.953125 16.0859375 15.8125 15.7578125 17.7421875 19.7890625 19.9921875 17.6171875 17.7109375 19.5546875 21.5078125 20.4609375 19.5546875 18.7109375 18.546875 18.9375 17.03125 15.03125 9.6015625 5.1953125 5 5.9609375 8.28125 10.1796875 14.6171875 15.671875 14.6640625 13.8203125 13.1953125 12.609375 12.015625 11.421875 10.828125 10.2421875 9.53125 8.0234375 7.296875 7.6171875 7.984375 8.34375 8.7109375 9.078125 9.4296875 9.7109375 10.4453125 11.3671875 12.2890625 13.28125 14.3359375 14.296875 13.6953125 12.9375 12.9453125 13.828125 13.6875 12.125 11.5546875 11.4453125 12.453125 12.8671875 13.8671875 14.234375 14.046875 13.546875 13.25 12.921875 12.6328125 13.2734375 13.046875 10.3984375 9.34375 10.3203125 11.25 12.140625 13.21875 13.65625 12.609375 12.15625 11.5 11.296875 12.4140625 13.6484375 14.765625 16.1171875 13.2421875 10.8515625 9.828125 9.296875 9.7734375 9.078125 7.9765625 9.2734375 9.421875 8.9609375 9.234375 9.4453125 9.5234375 9.2734375 8.8125 8.4140625 8.296875 8.515625 8.78125 9.6796875 8.8203125 7.109375 7.96875 10.90625 12.25 10.875 10.09375 9.3515625 8.2890625 8.5078125 8.9609375 9.8359375 10.1796875 10.125 9.4609375 8.65625 8.4609375 8.3046875 8.1484375
13.578125 13.3203125 13.265625 13.8828125 14.203125 14.0390625 13.453125 12.75 13.15625 14.765625 14.28125 13.3828125 13.6171875 13.8828125 15.28125 16.46875 15.6328125 12.5859375 10.8828125 12.28125 13.8203125 14.375 14.65625 14.5078125 13.765625 12.2890625 11.7265625 12 14.1640625 14.296875 13.6484375 13.2734375 14.671875 16.53125 16.5234375 15 15.0859375 16.328125 15.2265625 13.3203125 12.3671875 12.90625 12.203125 10.9921875 11.046875 11.71875 11.5859375 11.3359375 10.8359375 10.1875 9.9140625 9.859375 9.84375 10.203125 9.7578125 9.4375 9.6875 9.9296875 10.1796875 10.4296875 10.6796875 10.953125 11.8515625 12.078125 12.2265625 12.578125 12.9296875 13.28125 13.640625 13.9921875 14.34375 14.6640625 14.890625 15.1015625 15.3046875 15.3984375 15.40625 15.8203125 16.859375 17.9375 19.0234375 19.796875 19.3984375 18.796875 18.1953125 17.59375 16.9921875 16.390625 15.7890625 15.1875 14.5078125 13.3359375 12.328125 14.4921875 15.5078125 15.5625 15.625 15.796875 15.921875 15.90625 17.3359375 19.140625 20.21875 20.03125 20.828125 23.9375 25.0859375 22.171875 19.8828125 19.8359375 19.6796875 19.1640625 18.71875 18.203125 15.59375 6.90625 5 5.0234375 5.359375 9.3984375 15.078125 15.1953125 14.1796875 13.4140625 12.8125 12.21875 11.625 11.0390625 10.4453125 9.8515625 9.2578125 8.6484375 7.515625 6.765625 7.03125 7.3984375 7.765625 8.125 8.359375 8.9296875 9.8515625 10.84375 12.046875 13.4140625 14.2265625 13.5546875 12.6171875 12.4375 12.5546875 12.8984375 13.9296875 13.421875 12.984375 12.1484375 13.4921875 14.75 15.078125 15.1015625 15.1953125 14.921875 14.234375 13.6796875 12.6796875 12.328125 11.9375 10.2265625 9.7265625 10.265625 11.7734375 12.4765625 12.40625 12.5859375 12.34375 11.5234375 11.1953125 11.25 12.203125 13.453125 14.296875 14.984375 13.5859375 12.5078125 11.5859375 10.8828125 10.2890625 9.1875 8.09375 9.015625 10.390625 9.0546875 9.0625 9.03125 9.1328125 8.7578125 7.6328125 7.1796875 6.984375 7.1796875 7.8203125 9.4453125 9.421875 7.328125 7.5859375 9.4296875 11.6953125 10.6328125 9.8046875 9.4453125 8.671875 8.9296875 9.40625 10.359375 10.6015625 11.5625 10.671875 9.4375 8.4921875 8.359375 8.234375
13.328125 12.984375 12.9140625 12.6953125 12.0390625 11.6796875 11.609375 11.3828125 11.7421875 12.4921875 12.2734375 12.6171875 13.8828125 14.8984375 15.578125 16.4921875 15.4453125 11.6875 11.640625 13.8125 14.7734375 13.7421875 14.6328125 14.1796875 12.5859375 11.6796875 12.25 14.8828125 15.8203125 13.734375 13.1171875 13.8828125 15.5390625 16.859375 17.4140625 16.3125 16.2734375 17.8828125 17.0625 14.5546875 12.671875 11.7265625 11.1953125 11.375 12.0859375 12.859375 12.734375 12.0703125 11.3828125 10.90625 10.8671875 10.8125 10.8671875 11.2734375 11.265625 10.171875 10.046875 10.296875 10.546875 10.796875 11.046875 11.3984375 12.4296875 12.4296875 12.6484375 13 13.3515625 13.703125 14.0546875 14.40625 14.7578125 15.1171875 15.40625 15.6171875 15.8203125 15.90625 16 16.78125 17.859375 18.9375 20.015625 20.625 20.1171875 19.5234375 18.921875 18.3203125 17.71875 17.1171875 16.5 15.5859375 14.15625 13.453125 13.34375 14.328125 16.03125 16.1640625 16.2265625 16.28125 16.3671875 16.4296875 16.96875 18.3359375 19.390625 20.171875 21.8046875 22.8125 22.828125 21.9140625 20.7734375 20.4609375 19.8203125 19.015625 18.8046875 19.34375 17.8828125 8.734375 5.0625 5 5.0078125 8.0546875 14.953125 13.78125 13.7265625 13.015625 12.421875 11.828125 11.2421875 10.6484375 10.0546875 9.4609375 8.875 8.28125 7.6875 6.8515625 6.2265625 6.4453125 6.8125 7.0546875 7.4453125 8.390625 9.5546875 10.8828125 12.203125 13.3046875 13.4140625 12.7109375 12.1875 12.3203125 12.46875 12.453125 13.375 13.7578125 13.2109375 12.8515625 13.375 14.625 16.296875 16.734375 15.453125 13.296875 12.6953125 13.5625 12.8984375 11.953125 11.1953125 10.625 10.4375 11.015625 12.078125 12.3515625 12.1875 11.3203125 11.5546875 11.7265625 11.3984375 11.3515625 12.078125 13.1484375 13.84375 13.3359375 12.40625 13 12 11.5390625 9.7578125 8.6953125 8.453125 8.7890625 8.9765625 8.7265625 9.015625 9.1640625 9.5234375 9.546875 7.296875 5.984375 5.6796875 5.9609375 7.296875 9.0859375 8.71875 6.921875 6.84375 5.6484375 8.375 10.3125 9.5546875 9.328125 9.0625 9.375 9.828125 10.046875 9.9609375 11.4375 10.65625 9.046875 8.8671875 8.7265625 8.484375
12.796875 12.2734375 11.34375 9.4375 9.265625 10.4296875 11.0390625 11.03125 11.2734375 11.40625 11.7421875 13.2578125 14.9140625 15.875 15.890625 15.75 14.703125 11.9609375 12.8359375 15.03125 15.03125 13.3515625 13.078125 12.6328125 11.9296875 12.203125 13.8359375 17.25 17.03125 13.5859375 13.1796875 14.515625 15.8203125 17.125 18.109375 17.96875 17.7734375 17.15625 16.0703125 14.625 14.3671875 11.875 10.3984375 10.734375 12.5234375 13.5078125 13.21875 12.6015625 11.984375 11.8203125 11.8203125 11.7578125 11.90625 12.359375 12.6640625 11.765625 10.6328125 10.65625 10.90625 11.15625 11.40625 11.9140625 12.96875 12.7890625 13.0625 13.4140625 13.765625 14.125 14.4765625 14.828125 15.1796875 15.53125 15.875 16.1328125 16.3359375 16.421875 16.765625 17.78125 18.859375 19.9375 21.015625 21.4140625 20.84375 20.2421875 19.6484375 19.046875 18.4453125 17.703125 16.53125 15.140625 14.8671875 14.2265625 15.1015625 15.015625 16.375 16.7578125 16.8203125 16.8984375 17.0234375 17.234375 17.0234375 16.6171875 17.0859375 18.3359375 21.1171875 20.8359375 19.6328125 20.875 21.0390625 20.8125 19.9921875 18.578125 18.21875 18.640625 18.1953125 12.7578125 6.390625 5 5 5.421875 10.5 10.9609375 12.96875 12.625 12.0390625 11.4453125 10.8515625 10.2578125 9.671875 9.078125 8.484375 7.890625 7.3046875 6.7109375 6.046875 5.6171875 5.7734375 6.046875 7.0546875 8.3359375 9.640625 10.9453125 12.203125 12.6484375 12.484375 12.4140625 12.578125 12.75 12.8125 12.859375 13.3203125 12.4921875 11.828125 11.984375 12.671875 14.0625 15.7578125 16.140625 14.546875 12.0859375 11.75 12.2421875 12.546875 12.0859375 12.625 12.875 11.75 12.796875 12.46875 12.234375 12.7890625 12.359375 12.1953125 12.4765625 10.5703125 10.078125 11.4609375 12.65625 13.46875 12.1875 11.84375 12.1640625 10.1484375 10.7265625 10.0859375 9.7109375 9.0703125 8.5 7.515625 7.7890625 9.453125 9.53125 10.078125 10.453125 8.4140625 5.6328125 4.4296875 5.2109375 7.0390625 8.6015625 7.6953125 7.34375 8.4921875 4.6796875 4.53125 7.4453125 9.09375 9.03125 9.4296875 9.78125 9.515625 9.625 9.609375 9.6953125 9.875 10.015625 9.90625 9.484375 9.25
12.84375 11.0234375 9.3203125 8.8515625 9.7578125 11.625 11.71875 11.7578125 12.015625 12.0390625 12.8671875 14.2734375 15.53125 15.7421875 15.65625 14.390625 12.640625 11.53125 13.2265625 16.015625 15.4140625 13.046875 11.8125 11.09375 10.375 12.09375 13.96875 16.890625 16.828125 13.5546875 13.7421875 15.046875 16.2890625 17.5390625 18.5859375 18.4453125 17.7421875 17.046875 15.4453125 14.6171875 14.6953125 11.8203125 11.1640625 11.9296875 13.8203125 14.4921875 13.7265625 13.1328125 12.7890625 12.7734375 12.78125 12.71875 12.9765625 13.4375 13.8125 13.546875 12.0625 11.140625 11.2734375 11.5234375 11.7734375 12.4921875 13.453125 13.15625 13.484375 13.8359375 14.1875 14.5390625 14.890625 15.2421875 15.59375 15.953125 16.3046875 16.625 16.8515625 16.984375 17.6953125 18.7734375 19.859375 20.9375 22 22.171875 21.5703125 20.96875 20.3671875 19.7265625 18.75 17.3984375 16.203125 16.4453125 16.21875 16.28125 16.1171875 16.2265625 16.8046875 17.3515625 17.4453125 17.5546875 17.7109375 17.6875 17.0234375 15.5234375 15.25 15.5234375 18.296875 19.8515625 18.75 19.390625 19.046875 21.1328125 21.9375 19.2734375 17.9296875 17.4453125 16.4765625 14.359375 9.2109375 5.234375 5 5.0390625 7.8125 9.9296875 11.8515625 12.140625 11.5546875 10.9609375 10.3671875 9.78125 9.1875 8.6015625 8.0078125 7.421875 6.828125 6.25 5.6875 5.1875 5.03125 5.6484375 7.0625 8.390625 9.6875 10.9921875 11.8125 11.7890625 11.859375 12.21875 12.6875 12.828125 12.84375 12.90625 13.0859375 12.34375 11.3046875 11.9296875 12.3046875 12.890625 13.84375 14.1015625 12.2734375 12.4765625 13.2734375 13.390625 13.6875 13.3046875 14.03125 14.3359375 13 13.3359375 13 12.59375 13.1171875 13.3125 12.59375 11.2578125 10.109375 10.5078125 10.8828125 11.2421875 11.3203125 10.8125 11.609375 11.9765625 8.9921875 9.4609375 9.5390625 9.015625 8.7734375 7.390625 6.578125 7.5390625 9.75 10.1015625 10.6640625 10.515625 8.453125 5.6796875 4.3125 5.2265625 6.953125 7.734375 7.328125 8.6875 12.734375 10.3515625 6.953125 7.3671875 8.890625 8.7734375 9.578125 9.3359375 8.53125 9.1015625 9.09375 9.6328125 10.9296875 11.71875 10.7421875 9.9765625 9.734375
10.8359375 9.3671875 7.9296875 8.90625 9.9140625 11.515625 11.96875 12.1875 12.546875 12.3984375 12.78125 14.21875 15.203125 15.0078125 14.921875 13.5078125 11.859375 11.34375 14.1953125 17.46875 16.25 11.765625 10.875 10.4453125 10.1796875 12.6484375 14.2578125 16.0546875 16.7421875 14.296875 14.78125 16.1484375 17.40625 18.40625 18.5234375 17.46875 16.7109375 16.1796875 16.109375 16.5 15.3125 12.59375 12.3671875 13.6640625 15.6953125 16.0234375 14.9765625 14.09375 13.8125 13.75 13.734375 13.703125 14.0546875 14.5234375 14.8984375 15.0703125 13.9296875 12.3828125 11.6875 11.8828125 12.1640625 13.125 13.890625 13.5390625 13.8984375 14.25 14.609375 14.9609375 15.3125 15.6640625 16.015625 16.3671875 16.71875 17.078125 17.359375 17.7109375 18.6953125 19.7734375 20.8515625 21.9296875 22.9453125 22.8984375 22.296875 21.6875 20.8828125 19.671875 18.2734375 17.265625 18.0234375 18.1484375 18.5234375 19.640625 19.625 18.4921875 18.0625 17.953125 17.9375 18.0390625 17.890625 17.5859375 17.3046875 15.75 15.2421875 15.9609375 17.03125 19.0625 19.0546875 18.2890625 16.078125 18.2578125 21.8046875 19.5859375 16.8125 15.84375 14.8515625 13.734375 12.3046875 7.9765625 5.3828125 5.046875 5.7578125 7.203125 11.0390625 11.9375 10.9296875 10.34375 9.75 9.15625 8.5703125 7.984375 7.4296875 6.8828125 6.359375 5.8515625 5.359375 5.0234375 5 5.2265625 6.6484375 8.28125 9.7265625 10.859375 11.1328125 11.2734375 11.4609375 11.8125 12.140625 12.3984375 12.578125 12.578125 12.609375 12.8515625 12.9609375 13.5859375 13.6484375 12.3671875 13.3984375 13.1953125 11.765625 12.7578125 13.9765625 14.734375 14.9609375 15.0078125 14.34375 13.3359375 12.1171875 11.8515625 11.6875 11.609375 11.6171875 11.6484375 11.546875 11.671875 11.734375 11.7890625 10.6171875 9.3125 8.765625 9.3359375 10.5859375 11.625 10.90625 10.90625 9.875 8.609375 8.7890625 8.015625 6.2890625 6.671875 8.109375 9.90625 10.8515625 9.046875 6.890625 6.109375 5.9453125 6.546875 7.6484375 7.3984375 7.75 10.7265625 12.3515625 11.4453125 9.2265625 7.953125 8.1328125 8.28125 9.4765625 8.8984375 8.28125 9.1328125 9.6171875 10.21875 11.7578125 12.328125 11.015625 9.890625 9.71875
9.0625 8.0390625 7.625 9.015625 9.90625 11.6875 12.28125 12.578125 12.8359375 12.8125 13.3125 14.5078125 15.5 15.421875 14.109375 12.8203125 11.859375 12.1015625 16.2578125 19.203125 18.375 12.9375 11.0546875 11.6796875 12.5234375 13.984375 14.1015625 15.390625 17.234375 15.6171875 15.8125 17.0234375 18.1171875 18.640625 17.9453125 16.59375 15.9140625 14.7109375 14.8359375 16.1171875 15.875 14.7578125 14.265625 14.0234375 15.1953125 16.65625 16.578125 16.1875 15.453125 14.921875 14.421875 15.0390625 15.4765625 15.671875 15.9921875 16.34375 15.7734375 14.2109375 12.7265625 12.265625 12.625 13.7890625 14.2890625 13.921875 14.3203125 14.671875 15.0234375 15.375 15.7265625 16.078125 16.4375 16.7890625 17.140625 17.6328125 18.6328125 18.921875 19.703125 20.7734375 21.8515625 22.9296875 23.8515625 23.625 22.9453125 21.9140625 20.5546875 19.15625 18.453125 19.671875 20.234375 20.3984375 19.921875 19.3125 19.328125 18.6015625 18.59375 18.7578125 18.671875 18.4453125 18.1328125 18.0703125 17.5234375 15.90625 15.6640625 16.84375 17.265625 18.28125 19.9296875 20.3125 17.21875 17 18.90625 18.328125 16.0390625 15.3203125 15.625 15.2734375 13.8828125 11.8125 7.296875 5.0234375 5.015625 6.5546875 11.359375 12.1875 10.3203125 9.71875 9.15625 8.609375 8.0859375 7.578125 7.078125 6.578125 6.078125 5.578125 5.125 5 5 5.015625 5.90625 7.6875 9.4609375 10.40625 10.5625 10.703125 10.9921875 11.3359375 11.6171875 11.890625 12.15625 12.328125 12.3515625 12.4609375 12.8359375 13.3984375 13.84375 13.140625 14.3515625 13.703125 12.734375 13.125 13.65625 13.59375 13.3515625 13.515625 12.8515625 12.1171875 10.9609375 10.0703125 10.6796875 10.8125 10.828125 11.0859375 11.4296875 11.5703125 11.984375 11.6328125 10.6875 9.2578125 8.7421875 8.7734375 9.171875 10.078125 11.046875 11.046875 10.390625 9.7578125 9.90625 10.2265625 10.171875 9.25 8.5 10.1875 10.921875 8.4140625 8.109375 7.9765625 7.8046875 8.1796875 8.4765625 7.71875 7.546875 9.6796875 9.28125 8.34375 7.1796875 6.7734375 6.40625 7 8.5 9.3984375 9.8515625 9.65625 9.921875 10.0625 10.5078125 10.8359375 10.2421875 9.828125 9.7109375
8.640625 7.75 8.03125 8.6015625 9.5546875 11.9765625 12.6484375 12.9453125 13.265625 13.421875 14.296875 15.578125 16.6796875 16.0703125 13.671875 12.515625 13.546875 15.1171875 16.828125 18.46875 18.1015625 15.9140625 14.5546875 14.609375 15.28125 16.4375 15.7734375 16.109375 17.296875 16.7890625 16.0625 16.4140625 16.90625 17.2421875 16.2578125 16.1171875 14.9921875 13.6328125 12.8984375 13.8984375 15.140625 14.9453125 14.1171875 13.0625 13.7421875 16.6640625 17.7890625 16.921875 15.921875 13.75 13.421875 16.1875 18.4609375 17.4453125 16.8203125 17.1875 17.265625 15.609375 13.984375 12.9609375 13.1484375 14.4296875 14.6328125 14.3203125 14.734375 15.09375 15.4453125 15.796875 16.1171875 16.3828125 16.609375 17.4453125 18.28125 18.234375 19.8515625 21.046875 21.6328125 22.453125 23.1640625 23.984375 24.7109375 24.078125 22.8359375 21.4375 20.046875 19.6015625 21.265625 21.484375 20.6953125 19.3359375 18.3515625 19.0078125 19.203125 18.3671875 19.1015625 19.765625 18.8828125 18.734375 18.515625 18.5703125 17.59375 15.8203125 15.9609375 16.9375 16.8515625 18.5546875 20.21875 20.5234375 18.984375 18.2578125 18.375 17.78125 15.8515625 15.40625 16.265625 16.734375 15.1171875 13.4140625 9.328125 5.1875 5 5.6953125 9.359375 10.75 9.4921875 9.5546875 8.921875 8.328125 7.796875 7.296875 6.8046875 6.3046875 5.8046875 5.3046875 5.015625 5 5 5 5.3828125 7.109375 8.640625 9.4296875 9.96875 10.0234375 9.921875 10.109375 10.5703125 11.0390625 11.4453125 11.828125 12.1015625 12.8359375 13.6015625 13.171875 12.5859375 12.390625 13.7578125 13.875 12.59375 12.1328125 12.453125 12.28125 12.015625 11.6875 11.7265625 11.375 9.90625 8.7265625 9.703125 10.8515625 11.4921875 12.5078125 12.828125 11.59375 11.6796875 11.7109375 10.7109375 9.765625 9.4453125 8.90625 9.4765625 9.7734375 9.609375 9.9609375 11.171875 11.0859375 10.6484375 10.4453125 11.40625 11.6015625 10.3515625 10.3984375 10.3203125 9.1171875 9.90625 9.671875 9.7265625 9.3671875 8.859375 8.3515625 8.1484375 9.1015625 8.515625 6.890625 5.84375 4.625 4.6640625 5.78125 7.125 8.59375 10.34375 10.3828125 9.9765625 10.5078125 10.9609375 10.875 10.3125 9.7421875 9.6328125
8.8828125 7.984375 8 8.171875 8.3359375 10.9453125 12.734375 14.0234375 14.8671875 14.0703125 14.65625 15.765625 16.7421875 16.140625 13.8671875 14.1015625 15.765625 15.7734375 15.4765625 16.15625 17.3125 17.203125 16.8828125 17.5625 16.1953125 16.078125 14.8125 15.71875 16.1796875 15.6875 15.28125 14.78125 15.1796875 14.8828125 13.953125 14.109375 13.484375 12.703125 11.4765625 11.9609375 14.296875 15.234375 14.53125 13.46875 14.03125 15.921875 16.9453125 17.0859375 15.5625 14.046875 12.5703125 14.4921875 17.90625 18.25 17.7265625 17.8203125 18.6875 17.03125 14.34375 13.0078125 13.7890625 14.8359375 14.90625 14.71875 15.0859375 15.3203125 15.484375 15.5859375 15.671875 16.5625 18.734375 20.21875 19.78125 19.09375 18.7421875 20.0390625 20.4140625 22 23.8203125 25.1015625 24.21875 21.4296875 19.453125 19.1875 19.0625 20.65625 21.4375 20.5078125 19.265625 18.4921875 19.609375 20.453125 19.1015625 18.375 19.9453125 20.015625 18.765625 18.6953125 19.25 18.7421875 17.984375 16.5625 17.1015625 17.9296875 18.1953125 20.375 20.2890625 18.9921875 18.6953125 19.328125 18.53125 17.875 16.9765625 16.4609375 16.15625 16.8046875 16.1015625 13.25 7.8515625 5.3203125 5 5.0390625 5.1484375 6.3671875 7.5078125 9.5078125 9.96875 9.171875 8.328125 7.5390625 6.8203125 6.1640625 5.5625 5.1015625 5 5 5 5 5.171875 6.4921875 7.421875 8.1484375 8.8671875 9.515625 9.8046875 10.1484375 10.9453125 11.640625 12.09375 12.46875 12.8046875 13.7421875 14.09375 13.234375 12.421875 12.078125 12.8203125 12.9609375 10.96875 10.390625 10.734375 10.84375 11.0546875 10.984375 10.828125 10.671875 9.6015625 8.671875 9.1328125 10.2890625 11.5078125 12.375 12.8203125 11.1796875 11.0859375 11.7421875 10.8828125 10.1796875 9.265625 8.640625 10.46875 10.2109375 8.8828125 7.546875 8.109375 9.9296875 10.046875 9.328125 10.671875 11.2734375 10.078125 9.0390625 8.828125 9.640625 10.0625 10.1953125 10.4375 9.4140625 8.28125 8.3984375 8.984375 8.828125 7.984375 7.4375 6.3359375 4.7890625 4.0546875 5.1640625 6.625 8.8203125 10.140625 10.140625 10.1171875 11.3359375 12.6171875 12.9296875 11.2734375 9.875 9.7578125
8.8203125 7.984375 8.375 9.0703125 9.203125 9.9921875 11.46875 13.0546875 14.71875 13.6796875 14.265625 15.3828125 16.5 16.1640625 14.8359375 15.7890625 16.0546875 15.8046875 14 12.96875 14.7578125 16.296875 15.7734375 15.9296875 15.453125 14.8203125 14.265625 14.6796875 14.7734375 14.2578125 13.8203125 13.7578125 14.625 14.390625 12.53125 11.7421875 12.390625 11.734375 10.5 10.9921875 13.78125 15.7421875 14.8203125 13.3515625 14.1796875 14.9453125 15.9375 17.4453125 16.625 15.6796875 13.703125 14.203125 15.6484375 16.7734375 16.6015625 17.3671875 18.6875 18.125 15.5859375 14.75 14.3828125 14.140625 14.4921875 14.8515625 14.7890625 14.5234375 14.5234375 15.53125 18.046875 21.21875 22.3203125 21.625 20.96875 20.40625 19.265625 19.078125 19.1640625 19.4453125 21.7578125 23.8671875 22.3984375 19.8359375 17.640625 18.15625 17.8046875 18.4296875 18.546875 18.5390625 18.4921875 20.15625 21.5078125 20.5 18.2109375 18.03125 19.609375 19 18.5234375 19.3359375 19.59375 18.53125 19.734375 18.859375 18.7734375 20.1015625 20.40625 21.2265625 20.3046875 19.265625 19.953125 20.9765625 20.0625 18.7421875 17.359375 17.0546875 17.6484375 18.4375 17.484375 13.6484375 10.1953125 6.6171875 5.015625 5 5 5.1328125 6.203125 8.0078125 9.9296875 10.6484375 9.9453125 9.0625 8.2265625 7.703125 8.046875 5.953125 5 5 5 5 5.0703125 6 6.90625 7.7890625 8.6796875 9.59375 10.515625 11.3359375 12.03125 12.8515625 13.6484375 14.2421875 14.0859375 13.03125 12.03125 12.5234375 12.8125 11.9921875 11.6171875 11.1640625 9.1171875 8.5859375 8.984375 9.2578125 9.640625 10.1015625 10.046875 9.96875 9.6875 9.234375 9.296875 10.09375 11.4296875 11.3984375 12.3125 11.390625 11.390625 11.90625 11.0078125 10.0078125 8.265625 8.8828125 11.3359375 10.390625 8.5390625 6.6875 4.2734375 5.921875 7.7890625 7.7578125 10.109375 9.90625 8.875 8.34375 8.9453125 9.5546875 9.859375 9.625 9.890625 8.640625 7.7265625 7.5078125 8.9296875 8.2109375 7.59375 7.46875 6.484375 5.34375 4.5 5.2109375 6.9453125 8.9609375 9.703125 9.8125 10.7890625 11.390625 11.90625 12.265625 11.0546875 9.6953125 9.5078125
8.875 7.9609375 8.7421875 9.3984375 9.7734375 11.328125 12.796875 13.796875 14.34375 13.5390625 13.578125 14.5 15.3046875 14.8671875 14.796875 15.8984375 16.5 16.859375 13.8046875 12.6796875 14.84375 16.3203125 14.34375 13.390625 14.6328125 14.390625 14.2734375 14.34375 14.984375 14.4375 13.671875 13.765625 14.8125 14.7890625 12.6328125 12.3203125 12.03125 11.21875 10.1171875 10.5 12.3828125 13.84375 13.3515625 12.65625 13.4375 13.2109375 14.9609375 16.78125 17.21875 17.0078125 16.3046875 15.796875 15.796875 15.90625 15.640625 15.71875 15.9921875 17.0703125 16.71875 16.140625 15.59375 14 13.671875 14.453125 14.9765625 14.1640625 14.1171875 18.71875 23.5390625 24.34375 23.5234375 22.7421875 22.171875 21.625 20.75 19.28125 18.8828125 18.7890625 20.9765625 23.171875 22.1796875 18.2734375 17.34375 18.3515625 17.171875 17.125 17.5234375 18.5703125 18.8359375 20.3515625 21.015625 19.3046875 16.671875 16.5703125 17.2421875 17.390625 18.8828125 19.8828125 19.4140625 20.3515625 22.15625 21.5 21.4296875 22.1796875 21.203125 19.296875 18.1640625 18.765625 19.7421875 19.84375 19.546875 18.515625 17.125 16.9921875 17.84375 19.1328125 19.140625 16.6484375 13.5625 9.734375 5.7421875 5 5 5 5.2734375 6.7578125 8.6328125 10.4765625 11.3671875 11.015625 10.7890625 10.4609375 9.2265625 6.125 5 5 5 5 5 6.7421875 8.625 9.59375 10.5546875 11.515625 12.5078125 13.3515625 14.015625 14.3671875 14.3125 13.8984375 13.25 12.4765625 11.3046875 11.84375 12.3671875 11.515625 10.625 9.9296875 8.453125 7.34375 7.4609375 8.0546875 8.8671875 9.8984375 10.21875 9.9375 9.078125 9.140625 9.1171875 9.7890625 10.78125 10.890625 11.7421875 11.6484375 12.2265625 12.578125 11.359375 10.03125 7.453125 9.3125 11.828125 10.65625 8.5859375 7.1875 7.1484375 8.3515625 8.140625 7.828125 9.375 8.7109375 7.9609375 8.234375 8.65625 9.1953125 9.8359375 10 9.90625 8.7109375 8.5 10.2265625 10.375 8.0546875 7.609375 7.53125 6.578125 6.1328125 6.3125 5.6796875 6.2734375 6.7265625 7.9375 8.78125 10.0078125 10.2109375 10.1015625 9.8359375 9.0390625 8.421875 8.7109375
9.015625 7.78125 8.9921875 9.28125 9.359375 11.875 14.5234375 16.390625 16.2109375 14.5703125 13.578125 13.15625 13.09375 13.28125 13.390625 14.2578125 15.3359375 15.5859375 13.1328125 12.6015625 15.1796875 16.28125 14.390625 13.0078125 12.6484375 11.9375 12.8125 13.78125 15.1484375 14.9375 14.359375 14.3203125 14.3828125 13.8125 12.953125 13.46875 13.0703125 11.609375 10.9609375 11.8125 12.2109375 12.140625 12.3984375 12.65625 12.7109375 12.2421875 14.453125 15.640625 15.4765625 14.40625 14.328125 16.484375 17.0390625 16.1171875 16.8984375 16.234375 14.75 15.65625 16.4453125 15.328125 15.953125 14.9765625 14.296875 14.625 14.296875 14.2734375 14.84375 20.2109375 24.2734375 25.015625 24.578125 23.9296875 23.3828125 22.84375 22.1796875 21.65625 22.078125 20.875 21.421875 24.2578125 21.703125 16.0546875 16.09375 18.9921875 20.265625 19.4375 19.2890625 18.875 18.1171875 19.9765625 19.6171875 17.9453125 16.5 16.421875 15.6328125 14.6171875 18.21875 18.921875 18.4609375 21.0703125 22.875 23.0390625 22.0859375 21.0546875 20.9921875 19.171875 18.453125 18.7734375 17.8046875 17.59375 18.7265625 19.625 19.3984375 18.671875 17.7421875 18.15625 19.1171875 18.796875 16.6484375 13.3515625 8.3203125 5.140625 5 5 5.015625 5.7890625 7.4921875 9.5859375 11.7421875 11.5546875 10.9765625 9.3359375 7.390625 6 5.3203125 5.0390625 5 5 5 6.125 10.4375 11.578125 12.546875 13.5234375 14.171875 14.265625 13.9765625 13.484375 13.0390625 12.65625 12.2109375 12.7421875 12.203125 11.1875 11.3828125 11.1796875 10.4296875 10.046875 9.1328125 8.46875 8 8.0625 8.875 9.921875 10.8671875 10.921875 9.8359375 9.390625 8.984375 9.3671875 9.453125 9.640625 9.890625 7.9765625 10.1328125 12.28125 12.015625 10.6796875 8.4296875 8.71875 11.09375 11.28125 10.265625 10.3203125 10.0234375 10.203125 9.1484375 7.90625 8.5234375 7.6484375 7.4453125 7.7265625 8.265625 8.8359375 9.421875 10.2109375 9.7734375 8.78125 8.2109375 9.0859375 10.8359375 8.96875 8.4375 9.0859375 8.34375 8.78125 8.609375 7.484375 6.453125 6.8359375 7.4375 8.0078125 8.4296875 8.5390625 8.671875 8.7890625 8.65625 8.3203125 8.203125
8.96875 7.765625 9.328125 8.734375 8.390625 10.640625 13.7265625 16.34375 16.09375 14.625 12.5859375 10.59375 11.1640625 12 12.2890625 12.2265625 12.421875 12.2578125 11.65625 11.859375 14.3515625 16.5234375 15.2265625 13.5625 12.8125 13.046875 13.625 13.6484375 13.6328125 13.7421875 13.3046875 13.28125 13.4375 13.140625 13.40625 13.9765625 13.484375 12.4609375 12.3515625 13.421875 13.4453125 13.046875 13.0078125 13.6015625 13.03125 12.5234375 13.421875 13.3828125 12.8359375 12.9921875 14.421875 17.3125 16.7421875 16.015625 17.53125 18.28125 16.9375 15.328125 14.4609375 13.4765625 15.1171875 15.046875 15.234375 15.9140625 15.21875 16.5703125 18.5 20.3671875 21.4375 22.7890625 24.828125 24.3515625 23.109375 22.2421875 21.8671875 22.8203125 23.4765625 23.3828125 22.859375 22.484375 19.1640625 14.859375 15.375 18.484375 20.34375 19.1796875 18.1015625 17.84375 17.46875 18.3515625 18.3984375 18.046875 18.421875 17.7890625 15.7734375 14.921875 16.953125 17 17.140625 19.6953125 21.5703125 22.3828125 21.1015625 18.203125 18.7734375 19.296875 18.2890625 17.8828125 17.3828125 17.609375 19.203125 20.796875 20.9140625 20.2890625 18.9453125 18.8046875 18.3515625 18.703125 18.5234375 16.4296875 13.0078125 7.2734375 5.03125 5 5 5.2890625 6.859375 10.203125 11.25 10.96875 10.8203125 9.7421875 8.671875 7.53125 6.71875 5.9375 5.328125 5.0390625 5 5.0625 10.0703125 13.53125 14.0859375 14.1953125 14.203125 14.203125 13.921875 13.640625 13.34375 12.9609375 12.34375 12.4140625 12.28125 10.3046875 11.5078125 11.359375 9.96875 9.546875 10.203125 10.125 8.6796875 8.34375 8.984375 9.921875 10.7421875 10.6953125 10.875 10.46875 9.78125 9.5859375 9.328125 9.21875 9.171875 6.875 8.5703125 11.3125 11.421875 11.0234375 9.3828125 9.09375 9.7265625 10.390625 10.515625 10.078125 8.7734375 8.46875 8.9296875 7.96875 7.28125 6.671875 6.8515625 7.40625 7.9921875 8.578125 9.171875 9.671875 8.890625 8.6640625 7.8125 7.7265625 9.671875 9.6640625 9.7265625 10.34375 10.2265625 10.9375 10.3515625 8.328125 6.8125 6.453125 6.640625 7.734375 8.078125 8.171875 8.265625 8.3671875 8.7109375 9.390625 9.421875
9.3671875 8.0390625 9.59375 9.6484375 8.71875 10.234375 12.84375 14.640625 13.546875 12.5625 12.1640625 11.6875 11.203125 11.578125 11.9609375 10.8203125 9.9296875 9.828125 11.625 12.3359375 13.71875 15.15625 14.875 13.8046875 14.578125 13.8203125 12.7265625 12.28125 11.578125 11.5 11.015625 11.671875 12.6171875 13.59375 14.2734375 14.5625 13.8359375 13.296875 13.7578125 14.203125 13.8203125 12.875 13.09375 14.5390625 13.5859375 12.6484375 12.4609375 11.4765625 10.59375 12.078125 13.1484375 13.578125 14.1328125 15.2578125 17.078125 17.9375 16.4765625 14.515625 13.5859375 13.4609375 13.765625 13.875 15.3671875 16.671875 16.9453125 18.59375 19.9765625 19.234375 19.0859375 19.84375 22.28125 25.0703125 22.6953125 19.6875 21.3046875 22.1875 22.8046875 24.09375 23.8984375 22.21875 18.453125 14.625 15.5625 18.2734375 19.46875 17.96875 16.5546875 17.3359375 18.1640625 18.5 18.375 18.6015625 19.6484375 18.0625 16.4765625 16.9609375 16.34375 16.4375 17.28125 18.0390625 18.2734375 19.75 19.40625 16.6484375 16.203125 17.0625 17.234375 17.609375 18.703125 18.1328125 17.765625 18.1328125 19.7578125 20.65625 19.9765625 19.3984375 18.765625 18.7109375 18.9453125 18.140625 16.421875 11.40625 6.234375 5.0078125 5 5.15625 6.3359375 9.109375 9.6015625 10.0546875 12.3984375 11.4765625 10.203125 9.109375 8.3125 7.5234375 6.7265625 5.9453125 5.328125 5.0390625 7.9921875 13.7265625 14.9765625 15.78125 16.8515625 16.9453125 16.359375 16.109375 15.4609375 13.984375 14.203125 13.5 10.671875 9.546875 11.96875 12.015625 9.890625 9.6328125 10.296875 10.1015625 9.2109375 8.8203125 9.328125 9.875 10.25 10.6640625 10.6484375 10.4296875 10.171875 9.8203125 9.5 9.25 9.2421875 7.703125 8.2890625 10.359375 11.0078125 10.640625 9.3203125 8.9296875 8.859375 8.2265625 6.34375 4.8125 4.96875 5.53125 7.28125 7.8671875 8.03125 8.6484375 8.7734375 9.046875 9.3671875 9.765625 10.203125 10.0625 9.0546875 9.0234375 8.71875 8.6328125 9.34375 9.671875 9.3203125 10.4296875 10.25 9.78125 9.40625 8.0625 5.5 5 5.9375 7.96875 8.0703125 8.1640625 8.2734375 8.59375 9.234375 9.90625 10.109375
9.84375 8.484375 9.1328125 10.1015625 11.015625 10.8046875 12.109375 12.3828125 11.7109375 11.8984375 12.0625 12.1171875 12.3515625 12.28125 12.1171875 10.109375 8.609375 8.7109375 11.3984375 12.53125 13.703125 13.875 13.3671875 12.828125 13.9375 13.7421875 11.5625 10.8671875 10.9921875 12.2578125 13.40625 13.796875 13.6328125 14.1875 14.5703125 14.125 13.9765625 14.0546875 14.34375 13.8671875 13.265625 12.859375 13.03125 13.7421875 12.6796875 12.3046875 12.5546875 12.6640625 12.171875 12.3359375 11.203125 10.96875 12.5703125 14.328125 16.265625 16.6484375 15.4453125 13.421875 12.4453125 12.71875 13.0859375 13.3203125 13.9765625 14.09375 16 19.28125 19.7109375 17.125 17.0625 18.4609375 18.9765625 20.5390625 19.5 18.1015625 21.7109375 22.2578125 22.2890625 23.3984375 23.203125 21.2109375 17.6953125 13.8671875 14.8671875 18.0625 19.125 16.7265625 15.765625 17.4609375 18.96875 19.4140625 19.328125 18.5390625 18.6640625 17.296875 16.140625 15.7109375 15.671875 17.328125 17.8359375 18.0625 18.5390625 20.53125 20.234375 17.3203125 17.328125 17.7890625 17.6484375 18.0546875 18.671875 18.2578125 18.4921875 18.0625 19.9296875 21.96875 22.3515625 21.4453125 19.84375 18.7734375 18.28125 17.9765625 16.75 13.671875 9.265625 6.8984375 5.1796875 5.328125 5.8828125 6.7890625 7.828125 10.1796875 14.1953125 13.140625 11.6171875 10.703125 9.90625 9.1171875 8.3203125 7.53125 6.5859375 5.515625 5.671875 9.53125 14.3828125 17.3515625 18.4140625 18.96875 19.0390625 18.1171875 15.6953125 14.9296875 15.8984375 13.8359375 11.015625 11.328125 13.0390625 12.78125 11.125 10.671875 10.515625 10.90625 10.5078125 9.640625 9.84375 10.296875 10.453125 10.5859375 10.3671875 9.953125 9.4140625 9.15625 9.28125 9.359375 9.3984375 8.6875 8.640625 9.7578125 10.78125 10.4453125 9.5 8.875 7.921875 6.3671875 4.7578125 3.8671875 4.1796875 6.2421875 7.375 8.4140625 10.546875 12.375 12.140625 11.75 11.375 11.015625 10.7421875 10.296875 8.953125 9.015625 9.34375 9.46875 9.828125 9.390625 8.8203125 10.265625 10.234375 9.6875 10.15625 9.1171875 6.5 4.921875 6.2109375 8.2109375 8.0625 8.1796875 8.515625 9.109375 9.9140625 10.5625 10.78125
10.21875 8.859375 8.515625 9.7109375 12 11.5859375 11.0625 10.9765625 11.3046875 11.625 11.8984375 11.96875 12.3515625 12.7890625 13.0390625 11.9921875 9.71875 9.1328125 11.2265625 12.53125 14.078125 15.7578125 14.625 13.125 12.3125 13.078125 12.1328125 11.578125 12.5078125 14.734375 17.078125 16.28125 14.9453125 14.8984375 14.9296875 13.4765625 14.125 14.4609375 14.0234375 14.65625 14.25 13.59375 13.0625 12.1328125 12.265625 12.21875 12.375 12.6640625 13.1328125 12.6015625 11.390625 11.546875 12.90625 14.125 15.671875 15.5 14.5078125 13.390625 12.109375 11.78125 12.4609375 12.7421875 13.09375 13.3828125 14.5234375 17.5078125 18.1015625 15.6171875 14.765625 15.53125 16.0234375 16.3984375 15.6796875 16.3828125 18.828125 19.9453125 20.7421875 21.6015625 21.1484375 19.78125 15.8359375 13.0234375 13.1875 17.46875 18.078125 17.625 16.6953125 17.25 19.25 21.0078125 21.25 18.828125 17.875 18.09375 17.2734375 15.765625 15.71875 16.6171875 17.0390625 18.5390625 21.21875 22.1875 20.5859375 18.5859375 19.1875 18.6171875 18.40625 19.53125 19.4765625 19.078125 20.71875 21.109375 22.125 22.7109375 21.7421875 21.15625 18.8671875 17.6796875 18.6171875 18.3125 17.296875 17.4296875 14.796875 10.9765625 6.3515625 5.0703125 5.3515625 5.734375 6.3671875 11.3359375 15.9609375 14.546875 13.1015625 12.296875 11.5078125 10.7109375 9.765625 8.2734375 6.7578125 5.703125 5.09375 6.125 10.53125 14.0546875 16.8125 18.3828125 18.3125 16.65625 15.328125 14.90625 14.71875 13.53125 11.3984375 11.1875 12.2578125 13.2109375 12.8359375 10.6953125 9.578125 11.3046875 11.390625 10.4296875 10.3671875 10.9765625 10.6015625 10.078125 9.46875 8.8046875 8.453125 8.9140625 9.6015625 9.6015625 9.390625 9.5078125 9.7421875 10.3671875 10.9375 11.0546875 9.4140625 7.65625 7.078125 6.4375 6.8984375 6.3359375 5.921875 7.3359375 8.265625 8.5 9.625 10.6796875 10.09375 9.90625 9.640625 9.296875 9.1953125 9.125 8.1015625 8.640625 10.578125 9.8984375 9.328125 8.4296875 8.7734375 9.9921875 9.4296875 9.0625 9.6796875 10.09375 8.5234375 7.515625 7.90625 8.4375 8.0859375 8.453125 9.0234375 9.9921875 10.8125 11.0703125 11.0703125
10.078125 8.6953125 7.84375 8.703125 11.65625 12.1484375 11.1640625 10.859375 11.0390625 11.359375 11.6796875 11.8359375 12.1875 12.5859375 12.8828125 12.140625 10.3515625 9.6015625 11.609375 13.515625 14.6015625 17.1484375 17.84375 16.7578125 13.625 12.9453125 13.453125 13.0546875 13.421875 15.7734375 17.9296875 17 15.34375 15.4375 15.6953125 13.8359375 14.0625 14.4453125 13.21875 14.96875 15.9765625 15.4453125 13.796875 12.1796875 12.578125 12.734375 12.421875 12.21875 12.078125 12.28125 12.421875 12.984375 13.7109375 14.6953125 15.53125 15.4375 14.7734375 14.5 13.625 12.546875 12.8515625 13.5 14.25 14.9609375 15.7734375 16.9453125 16.9375 14.8828125 13.234375 13.703125 13.78125 13.953125 14.09375 15.6796875 17.578125 18.7421875 18.9609375 19.0546875 19.0078125 18.765625 13.8515625 10.796875 12.328125 16.328125 17.21875 17.4609375 16.84375 16.96875 18.9140625 21.265625 22.25 20.6484375 19.03125 19.953125 19.40625 17.7265625 16.9453125 17.671875 16.75 18.1328125 22.0859375 21.9921875 19.9609375 20.265625 19.71875 18.53125 18.8203125 20.625 20.9296875 20.3125 21.609375 21.984375 21.703125 21.078125 19.609375 19.78125 17.7109375 17.046875 17.4921875 17.1328125 18.1015625 19.25 18.3125 15.2734375 8.34375 5.0078125 5.0234375 5.203125 6.0390625 13.3203125 17.609375 15.828125 14.6875 13.890625 12.9921875 11.359375 9.296875 7.578125 6.4140625 5.625 5.1171875 5.578125 9.046875 12.5703125 15.6953125 17.0234375 16.078125 15.265625 14.9453125 14.765625 14.546875 13.671875 11.5390625 9.953125 10.3046875 11.921875 14.0859375 11.9375 9.3359375 10.3671875 11.0546875 10.78125 11.03125 11.296875 10.0703125 9.5234375 9.171875 8.2578125 9.09375 10.4140625 10.359375 9.40625 9.046875 9.5 10.21875 11.2265625 10.34375 9.4453125 7.7265625 6.078125 6.4921875 7.421875 7.5625 6.6875 6.5078125 7.5703125 9.15625 9.2109375 8.671875 7.0234375 7.46875 7.7265625 7.5 7.125 6.640625 6.28125 5.3671875 7.1328125 9.5390625 8.84375 8.3671875 7.2890625 7.28125 7.8203125 7.5859375 8 8.3203125 8.5703125 7.890625 7.7265625 8.171875 8.1875 8.453125 8.9921875 10.140625 11.0390625 11.265625 11.2265625 11.1015625
11.09375 10.40625 9.0625 8.7734375 10.65625 11.515625 11.78125 11.75 11.421875 11.28125 11.421875 11.671875 12.0078125 12.390625 12.7421875 12.375 10.5625 9.828125 11.4453125 12.6953125 13.0703125 15.015625 20.2109375 20.3828125 16.375 14.109375 14.0390625 14.296875 14.3203125 15.5625 17.59375 16.625 15.5546875 15.390625 15.6875 15.296875 15.046875 13.1953125 11.53125 12.703125 12.484375 12.6875 13.203125 12.71875 13.15625 14.1171875 13.7890625 13.015625 11.734375 11.828125 12.984375 14.25 14.25 14.2421875 14.671875 14.8359375 14.8828125 15.1015625 14.6796875 14.1015625 14.1640625 14.9921875 16.0234375 16.8046875 17.0234375 16.1015625 15.4140625 14.703125 14.015625 14.1328125 14.6640625 14.2890625 13.140625 13.6171875 16.03125 16.4765625 16.3828125 16.6640625 16.6796875 17.5546875 13.9140625 10.8046875 12.40625 15.4921875 16.28125 16.875 16.71875 16.6328125 18.90625 21.578125 20.5859375 19.6015625 17.9140625 17.9765625 17.6015625 16.9375 17.375 18.421875 16.53125 17.296875 20.890625 23.875 22.828125 21.5390625 20.21875 19.4453125 20.765625 22.28125 21.5546875 20.828125 21.21875 21.0859375 20.5078125 20 19.484375 19.484375 20.1796875 19.1640625 17.6640625 17.0546875 18.1875 18.4921875 17.828125 17.6953125 14.203125 6.421875 5 5.0078125 5.703125 15.453125 18.9921875 17.1640625 16.203125 14.6484375 12.25 9.8671875 8.1328125 6.890625 6.078125 5.578125 5.1328125 5.1015625 7.625 11.1953125 14.359375 15.7734375 15.4140625 15.0625 14.84375 14.6796875 14.453125 13.875 12.734375 11.6640625 10.3515625 12.0625 13.1171875 12.328125 10.5390625 10.484375 10.9453125 11.1484375 11.4375 11.3359375 11.3046875 10.6640625 10.125 10.21875 11.734375 12.1875 10.453125 9.0859375 8.7734375 9.0625 9.5859375 9.21875 8.0234375 7.8125 7.375 7.0546875 6.515625 6.609375 7.0390625 6.9296875 7.2734375 8.0078125 8.6953125 8.203125 7.3515625 6.6796875 7.359375 8.2421875 8.96875 8.359375 6.734375 7.46875 7.15625 6.59375 7.375 7.6328125 7.484375 7.234375 8.7578125 9.2109375 8.109375 7.6875 7.7265625 7.2109375 6.765625 7.0625 7.875 8.765625 10.0546875 9.9921875 11.09375 11.4453125 11.453125 10.90625 10.28125
11.34375 11.28125 10.8046875 9.7109375 10.109375 11.203125 12.140625 12.8515625 12.6953125 12.2890625 11.7421875 11.1484375 11.7421875 12.171875 12.5390625 12.7109375 11.6953125 11.265625 11.2890625 11.4140625 11.4609375 12.4921875 16.8828125 18.4140625 15.734375 14.375 14.1875 14.5234375 15.09375 15.5859375 16.59375 16.2890625 16.2578125 15.6484375 15.609375 16.2578125 15.453125 13.0546875 10.671875 9.5859375 8.6171875 9.1796875 11.1328125 12.546875 14.40625 15.328125 14.8984375 14.1171875 12.84375 11.6328125 11.90625 14.734375 14.8125 14 13.6640625 13.9140625 14 13.828125 14.09375 14.5078125 14.046875 14.6875 15.4296875 16.2109375 16.46875 14.640625 13.578125 12.9453125 14.75 15.6875 15.953125 15.0390625 12.25 12.09375 13.8671875 13.828125 14.2890625 13.9921875 13 15.2734375 15.9765625 12.40625 12.6171875 14.53125 15.2734375 16.0234375 15.921875 16.0546875 19.1875 20.765625 19.59375 19.5078125 17.5078125 14.3359375 14.28125 15.625 17.109375 18.0234375 17 17.21875 19.5078125 22.875 23.9765625 20.65625 19.3046875 20.78125 23.2109375 23.6171875 21.296875 20.671875 20.7421875 20.734375 20.7109375 20.65625 19.5078125 19.6875 21.7890625 21.84375 19.6328125 17.4296875 17.9921875 19.1171875 18.3984375 18.1796875 14.0703125 7.6484375 5.2109375 5 5.53125 15.9609375 20.15625 17.953125 15.4765625 12.609375 10.2109375 8.4375 7.234375 6.5390625 6.0703125 5.6015625 5.1484375 5 6.390625 9.84375 12.15625 14.6640625 15.203125 14.921875 14.71875 14.4375 14.109375 13.796875 13.234375 13.390625 13.84375 13.6953125 12.2109375 12.5234375 11.9609375 10.5546875 11.1875 11.5546875 11.625 11.203125 11.9765625 11.6328125 10.953125 11.6953125 12.84375 12.59375 10.8125 9.265625 8.984375 7.8515625 7.15625 5.859375 6.4296875 7.953125 8.1796875 7.921875 7.3984375 6.890625 6.59375 6.765625 8.296875 8.9453125 8.453125 8.2578125 7.9453125 7.6328125 7.25 7.578125 8.5859375 8.3984375 7.109375 7.3359375 8.6015625 9.4609375 8.296875 7.0625 7.0703125 7.40625 9.59375 10.140625 8.4921875 7.1640625 7.1796875 7.1328125 7.15625 7.3828125 8.4921875 9.828125 11.203125 11.53125 11.453125 11.203125 10.7734375 10.1640625 9.7265625
11.53125 11.484375 11.4296875 11.1171875 10.03125 9.5859375 12.0390625 13.75 13.71875 12.421875 10.6171875 9.625 11.109375 11.7734375 12.109375 12.9375 13.2734375 12.9609375 13.0859375 13.078125 12.921875 12.9140625 15.6484375 16.4375 14.71875 13.7578125 13.9375 14.515625 15.109375 15.6953125 15.921875 16.1328125 16.890625 16.6640625 16.4609375 16.6015625 15.15625 12.1875 9.8671875 9.234375 9.5703125 9.453125 9.921875 12.8984375 14.703125 14.3828125 13.9140625 14.6484375 13.9140625 12.171875 12.25 13.7109375 13.328125 13.578125 13.5390625 13.265625 13.015625 13.0390625 13.390625 13.8828125 13.234375 13.1875 13.75 15.0390625 15.609375 13.71875 11.71875 11.1953125 15.1796875 17.1328125 16.8671875 15.0703125 13.3125 14.4296875 15.5390625 14.09375 11.5703125 9.875 11.7265625 14.203125 15.5703125 11.3671875 11.4921875 14.171875 15.0390625 15.265625 14.8984375 15.8671875 18.96875 19.609375 19.3828125 19.734375 19.25 18.0546875 17.4453125 17.640625 18.2265625 17.9296875 17.96875 17.78125 19.5703125 21.515625 24.078125 20.8984375 19.21875 20.8359375 21.9921875 21.515625 19.9375 19.8359375 20.1171875 19.8828125 20.6171875 21.796875 21.046875 19.8125 19.828125 20.6171875 20.4375 19.0234375 18.71875 19.4765625 18.625 18.1171875 16.6015625 12.1953125 7.640625 5.046875 5.140625 7.40625 13.9921875 15.5234375 12.7109375 10.3203125 8.6328125 7.5703125 7.0390625 6.5625 6.09375 5.625 5.171875 5 5.5390625 8.390625 8.6953125 12.3671875 15 14.75 14.4609375 14.1640625 13.875 13.5859375 13.140625 13.546875 14.015625 15.6953125 13.8359375 12.78125 12.78125 11.5390625 11.21875 11.984375 11.5 10.953125 11.65625 11.453125 11.515625 12.6171875 12.8203125 12.015625 11.125 9.921875 8.71875 7.6015625 6.5625 6.5703125 7.4609375 8.2890625 8.609375 8.84375 8.8515625 8.46875 7.8125 6.640625 7.6640625 8.234375 8.5390625 8.8984375 8.8828125 8.59375 8.09375 7.1875 7.2421875 7.328125 7.6015625 7.59375 8.0625 10.265625 10.1171875 7.328125 6.484375 6.296875 6.859375 6.8984375 6.9296875 7.265625 7.3671875 7.7109375 8.9609375 9.5234375 9.53125 10.3203125 10.9453125 12.1640625 12.3984375 10.625 8.2890625 8 8.921875
11.7421875 11.71875 11.6953125 11.671875 11.1953125 10.1875 11.4453125 13.2109375 14.4609375 13.421875 11.9375 11.1328125 10.8203125 10.2265625 11.3828125 12.15625 12.6953125 12.6640625 13 13.3828125 14.2578125 15.0234375 16.2421875 15.375 13.71875 13.34375 13.8359375 14.296875 14.734375 15.375 15.828125 16.546875 17.53125 17.640625 16.921875 14.796875 13.453125 11.0234375 7.7109375 10.125 13.90625 11.2265625 9.609375 12.09375 13.84375 12.8203125 12.9296875 14.328125 13.5 12.6328125 13.453125 13.7890625 12.96875 13.09375 13.7578125 13.375 13.296875 13.4453125 13.7421875 13.4296875 12.7265625 13.09375 13.5546875 14.1796875 13.390625 11.28125 10.7265625 11.5 15.03125 17.1796875 17.2421875 15.171875 13.7265625 15.3828125 15.6796875 15.515625 12.796875 11.1875 13.359375 12.609375 13.390625 12.1015625 13.390625 16.734375 17.0078125 17.2890625 16.3515625 16.21875 18.46875 18.9921875 19.2421875 19.3125 19.1953125 19.3984375 18.6484375 18.875 19.453125 17.5625 17.609375 18.515625 19.5546875 19.2421875 18.96875 18.421875 19.171875 20.734375 21.2421875 20.78125 19.828125 19.9375 21.3203125 20.296875 20.421875 21.8984375 21.59375 19.25 18.9375 20.2890625 20.7734375 19.328125 18.1328125 18.5859375 18.421875 18.515625 18.1640625 13.65625 8.453125 5.5703125 5.015625 5 6.3671875 10.8046875 10.3203125 8.796875 8 7.53125 7.0625 6.59375 6.125 5.6484375 5.1875 5 5.09375 6.1875 5.359375 9.4609375 14.4296875 14.5078125 14.2265625 13.9375 13.6484375 13.359375 13.0078125 12.2578125 10.9765625 11.96875 12.3828125 11.609375 11.90625 12.4375 12.171875 11.96875 11.21875 11.3671875 11.7265625 11.1640625 11.203125 11.921875 11.5 11.0625 11.1640625 10.9296875 10.109375 8.9609375 7.375 7.2578125 7.875 8.3203125 8.2578125 8.640625 9.0390625 9.3828125 9.5546875 9.0078125 8.3359375 8.34375 8.78125 9.203125 9.453125 9.4765625 9.21875 7.984375 6.703125 7.09375 7.859375 8.5703125 9.25 9.8359375 9.9765625 8.140625 6.375 4.78125 4.5703125 5.453125 6.328125 7.1484375 7.40625 7.6015625 9.28125 10.359375 10.0234375 10.09375 10.390625 11.234375 11.4375 10.8671875 8.9609375 8.171875 8.3984375
12.203125 12.2109375 12.21875 12.2734375 12.140625 11.8125 12.8125 13.4296875 14.625 14.8359375 13.7265625 12.5 10.78125 10.1875 11.421875 11.3125 11.9375 12.2890625 12.9609375 14.3671875 16.1015625 16.1328125 15.765625 15.484375 14.5546875 13.734375 14.0859375 14.59375 15.4296875 16.5234375 16.7890625 15.9921875 16.734375 17.171875 16.53125 14.1875 12.3203125 11.3671875 11.3671875 13.640625 15.34375 12.6640625 10.9453125 12.109375 14.171875 14.09375 13.3984375 13.84375 13.2109375 13.2578125 14.7578125 14.453125 13.4140625 12.75 13.8125 13.75 13.8203125 14.046875 14.5625 13.828125 12.8046875 13.3046875 13.9921875 13.8671875 12.21875 10.5703125 10.890625 12.6484375 15.6640625 16.890625 16.9921875 15.625 14.171875 15.0859375 15.421875 15.0390625 13.65625 15.0703125 14.90625 12.78125 15.2109375 16.6328125 17.0625 18.671875 19.8671875 19.3125 17.6953125 17.0390625 18.1015625 18.2109375 17.890625 17.4140625 16.703125 16.453125 17.1640625 18.8203125 17.890625 15.78125 16.265625 17.875 19.265625 17.578125 15.75 16.6796875 18.6015625 20.046875 20.875 21.109375 21.3671875 21.375 22.2578125 21.8203125 22.140625 22.484375 20.90625 18.359375 18.96875 19.46875 19.1015625 18.1328125 16.9609375 17.578125 18.25 18.7109375 18.8203125 15.390625 11.5703125 8.859375 5.296875 5 5.1953125 7.625 9.1640625 8.59375 8.078125 7.5703125 7.09375 6.6171875 6.1484375 5.6796875 5.2109375 5 4.9609375 4.828125 4.40625 8.265625 13.453125 14.265625 13.9765625 13.6953125 13.40625 13.140625 12.65625 11.2421875 10.0078125 10 10.109375 10.046875 10.828125 11.5234375 11.96875 11.640625 11.15625 11.578125 11.296875 10.34375 11.0234375 11.2421875 11.046875 11.4921875 11.9921875 11.34375 10.71875 9.171875 7.2578125 7.2734375 8.078125 8.4765625 7.953125 8.15625 8.5625 8.9765625 9.78125 10.0390625 8.9921875 8.6171875 9.015625 9.578125 10.15625 10.4296875 10.3359375 9.1953125 6.28125 6.9453125 8.484375 9.046875 9.2265625 9.6328125 9.4921875 7.875 6.75 6.1953125 5.96875 6.1015625 4.6640625 6.859375 7.296875 7.9453125 8.78125 9.0859375 9.546875 9.34375 9.265625 9.4375 9.9140625 10.7421875 10.515625 9.703125 9.2890625
12.6640625 12.671875 12.6875 12.90625 12.1015625 11.96875 13.9140625 13.53125 13.5546875 13.5 12.5703125 12.09375 12.203125 12.2421875 11.9609375 11.34375 12.046875 12.8203125 14.5625 16.078125 16.6328125 15.53125 15.3515625 15.15625 14.71875 14.3359375 14.6953125 15.28125 15.8359375 16.390625 15.734375 15.1484375 15.8984375 15.234375 15.1875 15.40625 14.4140625 14.4921875 14.921875 16.3203125 15.6875 14.7109375 13.7265625 13.3671875 15.6015625 14.65625 13.3828125 14.21875 13.4921875 14.078125 16.5234375 15.5546875 14.265625 12.703125 13.75 14.0234375 13.96875 13.8125 14.453125 14.2734375 12.859375 13.2578125 14.7890625 15.0859375 13.4375 12.578125 13.265625 14.78125 16.265625 16.3046875 16.0546875 15.390625 13.671875 12.7890625 12.875 12.5546875 11.6171875 14.1484375 15.03125 15.625 19.140625 18.0859375 17.2265625 18.8984375 21.3125 19.953125 18.0234375 17.71875 17.265625 17.0390625 16.890625 16.8125 15.640625 14.6953125 15.734375 16.9140625 14.6171875 14.3359375 16.0234375 17.1015625 18.8984375 17.8203125 17.546875 18.015625 19.234375 20.6015625 20.8046875 21.3515625 21.9375 22.015625 21.5234375 22.0546875 22.6875 21.2734375 18.953125 17.7421875 18.6484375 19.203125 18.96875 18.4609375 17.9375 18.3984375 18.9765625 19.671875 20.0390625 17.5703125 15.5546875 14.71875 7.546875 5 5 6.09375 9.953125 9.6484375 8.9765625 8.3515625 7.7578125 7.1640625 6.5390625 5.8671875 5.234375 4.8359375 4.6796875 4.484375 4.203125 6.8125 12.0703125 14 13.734375 13.453125 13.0625 12.3046875 11.328125 10.3828125 10 10 10 10 10.1171875 10.1484375 10.890625 11.1875 11.25 11.78125 10.6171875 9.9921875 11.3671875 11.2734375 11.4609375 12.328125 12.609375 11.875 11.2421875 8.6484375 7.234375 7.1328125 8.234375 8.6640625 7.890625 7.6875 8.078125 8.578125 9.09375 8.796875 8.4375 8.828125 9.3359375 9.734375 10.34375 10.96875 11.078125 9.1484375 7.09375 8.5859375 9.8046875 9.234375 8.96875 9.390625 8.9609375 7.7890625 7.609375 7.6640625 8.921875 8.5625 5.3046875 6.5 7.2578125 7.9921875 7.4296875 7.3828125 8.1328125 7.734375 7.640625 8.453125 9.5390625 10.8671875 10.6796875 9.84375 9.6171875
13.1484375 13.125 13.265625 13.2421875 12.484375 12.09375 13.734375 13.4140625 12.75 12.515625 11.9921875 12.6328125 14.109375 14.6328125 14.03125 12.59375 12.875 14.3828125 15.5 15.5234375 15.09375 14.6484375 15.484375 15.421875 15.375 15.1953125 16.1015625 16.6328125 16.5390625 17.3515625 15.9609375 13.9765625 13.5546875 12.9921875 13.2734375 14.3359375 13.4140625 12.9765625 14.890625 17.109375 16.734375 16.0234375 15.4375 14.71875 15.671875 15.1796875 12.9140625 12.515625 12.2578125 13.9375 16.9296875 16.375 14.7734375 13.5078125 14.203125 14.5390625 13.546875 13.2109375 14.09375 14.5390625 13.328125 13.0625 15.0546875 16.2734375 15.6640625 14.8984375 14.6015625 14.90625 16.1171875 15.8125 14.953125 14.484375 13.0546875 11.5390625 12.625 12.765625 11.734375 13.359375 15.7109375 16.7265625 19.265625 19.2890625 19.0625 19.90625 20.75 20.546875 18.6875 18.6171875 17.5 16.03125 15.7734375 15.8203125 14.5546875 14.2265625 14.984375 14.875 13.328125 13.203125 14.5546875 15.8515625 19.3203125 19.5390625 18.9453125 19.265625 20.7265625 21.7578125 21.359375 22.3203125 22.203125 21.5 20.546875 21.6015625 21.2109375 19.6484375 18.9609375 18.8515625 19.40625 21.140625 21.6875 20.5078125 20.234375 19.8125 19.2890625 20.1484375 21 19.4609375 18.6875 18.53125 13.9453125 6.265625 5 5.03125 8.15625 9.7109375 9.4375 8.671875 7.8828125 7.1015625 6.359375 5.6953125 5.1015625 4.5546875 4.3046875 4.1484375 4.03125 5.0390625 10.1875 13.5234375 13.4453125 12.9765625 12.421875 12.0234375 11.8828125 11.71875 10.296875 10 10 10 10 10 10.0625 10.828125 11.4453125 11.5234375 11.3515625 11.03125 11.7109375 11.375 11.375 11.9765625 12.15625 11.15625 10.234375 8.390625 7.3203125 6.9453125 8.21875 8.8203125 8.0234375 7.296875 7.5625 7.9140625 7.8515625 7.421875 7.625 8.796875 9.75 10.140625 10.421875 9.9296875 8.28125 7.6171875 7.609375 9.1171875 9.765625 8.9140625 8.5 9.0390625 8.5546875 8.078125 8.0703125 7.1015625 8.0078125 9.171875 7.3046875 7.1171875 7.78125 7.0234375 6.1953125 6.109375 6.8515625 7.4765625 7.578125 8.53125 9.8515625 10.8359375 10.6015625 9.8984375 9.5
13.8125 13.5546875 13.9921875 14.3359375 14.671875 14.8984375 14.703125 14.484375 12.90625 12.734375 13.09375 13.96875 15.3515625 15.421875 14.3828125 13.59375 14.5 16.0625 15.4609375 14.2890625 13.9609375 14.4921875 15.703125 16.515625 17.125 16.875 16.8125 17.109375 17.2421875 18.015625 16.515625 12.3828125 9.84375 9.8828125 10.75 11.84375 10.953125 11.3984375 14.0703125 15.4921875 14.5234375 14.109375 14.4296875 13.5703125 13.6328125 14.4453125 12.5 11.59375 12.578125 14.421875 16.1640625 15.4453125 14.9375 14.8046875 14.421875 12.140625 11.84375 12.3671875 13.28125 14.0625 13.46875 13.375 16.0234375 18.5625 18.2890625 15.78125 14.6875 14.40625 15.8671875 15.5 14.4921875 13.4765625 12.546875 11.796875 14.390625 14.546875 14.15625 14.8671875 16.6171875 18.2578125 20.5859375 22.015625 22.1640625 21.046875 19.9296875 20.9140625 19.640625 19.1328125 18.453125 16.078125 14.671875 14.3125 13.9375 14.8515625 17.640625 17 14.828125 15.0546875 17.9609375 18.0390625 19.109375 18.34375 18.421875 19.328125 20.296875 20.1640625 20.7578125 21.5703125 20.3046875 20.5234375 20.84375 21.1796875 19.984375 18.8046875 18.25 18.1640625 18.9921875 21.2265625 22.1796875 21.0234375 20.6640625 20.765625 18.8515625 18.609375 19.515625 20.359375 21.109375 19.8984375 16.40625 9.0546875 5.3046875 5 5.4453125 7.65625 8.75 8.09375 7.4140625 6.75 6.1328125 5.546875 4.921875 4.296875 4.0234375 4 4 4.2734375 8.8046875 12.546875 13.484375 13.828125 13.9140625 13.953125 13.9453125 14.328125 12.2265625 10.0703125 10 10 10 10 10 10.140625 10.71875 11.953125 11.9453125 12.375 11.96875 10.84375 10.9609375 11.1484375 10.3671875 9.9765625 9.4140625 10.0546875 9 7.25 7.9609375 8.84375 8.21875 6.6328125 6.6875 7.5859375 6.7109375 6.515625 7.2109375 8.6328125 9.59375 10.2421875 10.4140625 9.34375 8.40625 8.5703125 8.6640625 8.7421875 8.546875 8.390625 8.46875 8.9453125 8.4609375 8.515625 8.0078125 6.375 6.4375 8.953125 8.8984375 8.7578125 7.9921875 7.296875 6.4140625 6.9765625 8.40625 8.34375 8.7109375 9.46875 10.125 9.953125 9.9453125 9.6484375 9.078125
13.125 13.8671875 14.734375 14.78125 15.328125 16.296875 15.1875 14.734375 13.8046875 13.078125 14.046875 15.4765625 16.4453125 15.84375 14.4140625 15.5390625 16.6484375 17.40625 15.8359375 14.078125 14.4140625 15.59375 16.7890625 17.9296875 18.5859375 18.0859375 17.4921875 17.2578125 17.6953125 17.6640625 16.015625 12.75 9.859375 9.3828125 9.21875 10.0703125 10.2109375 10.8671875 12.0859375 11.953125 11.5078125 11.84375 12.640625 12.34375 11.9765625 11.671875 11.6328125 12.8359375 14.671875 15.6171875 15.6015625 14.6796875 14.8203125 14.96875 12.8828125 9.921875 11.046875 10.359375 10.7890625 12.0390625 11.546875 12.53125 14.4921875 16.28125 15.5078125 14.125 12.828125 13.2109375 15.4765625 16.1328125 15.203125 14.15625 13.6015625 13.7265625 16.8125 15.2421875 14.2890625 14.90625 15.53125 16.796875 20.5390625 23.1875 22.1953125 21.8359375 22 20.1484375 19.5078125 19.03125 18.15625 15.734375 14.0703125 15.0234375 16.1171875 15.28125 16.484375 17.140625 16.6015625 17.8671875 21.2890625 22 19.078125 16.6796875 19.0078125 19.2734375 18.9765625 18.8203125 19.84375 20.4375 18.671875 19.125 21.2890625 21.65625 19.6484375 17.609375 16.640625 16.140625 17.65625 21.171875 22.1328125 20.6484375 20.6953125 21.03125 19.2421875 18.7421875 19.78125 21.1484375 21.765625 20.609375 18.015625 13.875 10.140625 5.9609375 5 5.25 6.46875 7.6015625 7.15625 6.484375 5.7734375 5.015625 4.296875 4.015625 4 4 4.015625 5.7890625 9 10.6484375 12.3515625 13.90625 14.859375 15.2421875 15.4609375 15.109375 12.9765625 11.0078125 10.1796875 10.0078125 10 10 10 10 10.0390625 11.2421875 12.921875 14.0390625 12.5546875 10.3515625 10.1171875 9.96875 9.4609375 9.6875 10.1015625 12.2734375 10.734375 8.5390625 8.0390625 8.6953125 8.09375 7.1875 6.84375 7.4921875 6.671875 6.640625 6.6484375 7.78125 8.796875 9.4609375 10.4921875 11.5859375 10.734375 9.65625 8.3671875 8.3515625 9.2421875 9.4609375 9.7734375 9.0546875 8.2421875 8.1640625 8.0078125 6.5625 6.3203125 7.921875 8.40625 8.140625 8.28125 8.34375 7.9921875 9.2890625 8.828125 7.2734375 7.6171875 8.9921875 10.890625 10.78125 9.3671875 8.75 8.8125
12.515625 14.609375 15.375 14.96875 15.546875 15.7421875 14.5390625 13.9453125 13.7890625 13.5546875 15.234375 16.078125 16.0859375 14.96875 15.15625 17.0625 17.8984375 17.828125 16.703125 14.78125 14.90625 16.203125 17.4921875 18.7109375 19.515625 18.9609375 17.7734375 17.2109375 16.6484375 15.203125 14 12.2734375 10.7421875 9.1875 8.3984375 9.390625 10.3671875 10.328125 11.125 10.53125 9.2734375 10.09375 11.28125 11.421875 10.046875 9.7421875 11.9609375 14.375 15.7890625 16 15.875 15.2734375 14.9609375 15.0390625 13.9453125 12.078125 11.984375 11.1328125 11.3046875 12.125 11.0859375 11.8203125 13.078125 13.640625 13.625 13.03125 11.6640625 12.7421875 15.109375 16.6484375 16.4453125 15.5 15.375 16.46875 19.046875 16.5546875 14.875 16.078125 15.9296875 15.671875 18.1484375 21.5078125 20.890625 18.8125 18.578125 17.421875 18.4609375 19.421875 17.90625 15.625 14.90625 16.671875 18.8203125 18.421875 16.4765625 16.53125 17.4375 18.5390625 21.2578125 23.3125 20.0234375 18.2578125 19.8515625 18.3984375 17.53125 18.1484375 19.5546875 18.6953125 16.390625 18.0390625 20.3203125 20.2109375 19.3984375 17.9921875 16.8046875 16.4609375 18.9140625 22.828125 23.171875 21.1875 20.9765625 21.3203125 21.0625 20.4375 20.5859375 21.4296875 20.890625 19.921875 19.203125 16.8671875 13.921875 9.4296875 5.46875 4.9765625 4.9453125 5.4140625 6.3359375 5.6796875 4.859375 4.1953125 4 4 4 4 4.0390625 5.40625 7.171875 8.859375 10.5390625 12.234375 13.9140625 15.3203125 16.09375 16.0859375 14.578125 12.8828125 11.7109375 10.7265625 10.015625 10 10 10 10 10.359375 12.6640625 13.796875 14.03125 12.3515625 10.78125 9.9765625 9.1640625 9.5625 11.03125 12.109375 10.9140625 9.7265625 9.0390625 8.8203125 8.421875 7.78125 7.1484375 7.3046875 6.7890625 6.7421875 6.4609375 6.8984375 7.96875 8.7109375 9.546875 10.953125 11.1875 10.109375 8.765625 9.734375 10.640625 10.671875 9.78125 8.7421875 8 7.71875 7.7109375 6.7578125 6.5546875 7.1953125 7.7578125 7.875 7.6953125 7.640625 7.875 7.53125 6.578125 6 6.3828125 8.28125 10.953125 11.9296875 10.265625 9.828125 9.546875
12.203125 14.6640625 15.4296875 14.484375 15.296875 15.3984375 14.6171875 13.609375 13.2109375 13.46875 14.625 15.0546875 14.6875 13.5390625 13.7734375 15.3515625 16.7421875 16.8828125 16.8203125 15.8359375 15.6484375 16.5546875 17.28125 17.5625 17.4609375 16.265625 15.2578125 14.296875 13.8984375 13.546875 13.203125 13.3828125 12.8359375 10 8.8671875 10.0546875 11.359375 11.703125 13.28125 12.84375 11.734375 11.921875 10.9453125 10.90625 10.359375 9.96875 12.6328125 15.53125 16.0703125 16.0390625 15.9140625 14.828125 14.3671875 14.9296875 15.453125 15.2109375 15.296875 14.6484375 14.28125 13.7421875 12.125 11.96875 12.5703125 14.0859375 15.1953125 13.875 12.0625 12.984375 15 16.921875 17.3515625 15.4140625 13.4765625 14.1328125 15.7734375 14.8671875 14.75 16.125 16.5546875 16.9921875 17.453125 19.6328125 21.6875 18.953125 15.515625 15.59375 18.3359375 20.7890625 19.6953125 16.5390625 15.421875 17.6796875 20.734375 20.2421875 17.671875 16.8203125 16.375 16.8359375 18.90625 21.0859375 19.0625 17.5859375 18.6796875 17.8828125 17.0703125 17.0078125 17.2109375 18.359375 17.75 20.1796875 21.25 19.96875 19.1484375 18.453125 18.28125 19.1953125 20.46875 22.453125 23.4296875 21.484375 19.3828125 19.625 21.1953125 19.5390625 19.2421875 20.9609375 20.9375 20.8359375 20.53125 18.65625 15.1875 12.6953125 7.640625 4.53125 4.1484375 4 4.6875 4.703125 4.125 4 4 4 4 4 4.015625 4.9140625 6.5390625 8.15625 9.7734375 11.390625 12.984375 14.484375 15.8515625 16.7265625 16.078125 14.6953125 13.7734375 12.328125 10.3984375 10 10 10 10 10.4140625 11.671875 12.7265625 13.5234375 13.265625 11.796875 10.65625 9.3984375 9.15625 10.546875 11.1796875 11.5625 9.8828125 8.28125 7.640625 8.1171875 8.0859375 7.484375 7.2421875 7.0234375 6.8125 6.515625 6.375 7.125 7.9609375 8.65625 8.015625 8.8984375 9.6875 10.7578125 11.8203125 11.4453125 10.515625 9.46875 8.4375 7.78125 7.4375 7.28125 6.6953125 6.671875 6.9609375 7.015625 6.953125 7.1875 7.6875 7.7578125 7.5546875 6.9140625 6.59375 6.2109375 7.46875 9.5546875 10.09375 10.4375 10.828125 10.5703125
11.765625 13.78125 15.4765625 15.3359375 14.0234375 14.5546875 14.96875 13.4921875 12.421875 12.4296875 13.34375 14.09375 13.8203125 13.4921875 14.59375 15.03125 15.2421875 15.65625 16.2265625 16.2265625 15.859375 15.171875 14.90625 15.140625 13.890625 13.0546875 12.625 11.8828125 12.5546875 13.7578125 13.9609375 14.0078125 13.71875 10.7421875 9.5703125 10.96875 12.375 12.9765625 13.5078125 13.5859375 13.2578125 12.28125 11.328125 11.6796875 11.984375 12.1953125 13.3828125 14.703125 14.921875 15.171875 15.0703125 12.53125 12.9921875 14.5234375 15.9765625 16.125 16.0390625 16.34375 15.3984375 14.1640625 13.046875 12.359375 12.84375 14.625 16.3984375 14.515625 11.9296875 12.2265625 13.703125 15.828125 16.2265625 14.53125 12.6953125 13.5 14.9609375 14.8515625 15.0859375 15.3359375 15.9765625 18 18.1328125 20.71875 23.359375 20.8203125 16.40625 16.65625 18.84375 20.890625 19.1796875 16.21875 15.7890625 18.3125 20.53125 20.46875 18.8125 17.6796875 16.703125 16.265625 17.4765625 19.609375 19.015625 17.3046875 18.0234375 18.171875 17.28125 17.7734375 17.8359375 19.4453125 20.1640625 20.5703125 21.0625 21.3359375 19.5625 17.5 18.1484375 19.4140625 19.40625 19.78125 21.5703125 21.03125 18.765625 18.078125 19.171875 19.5078125 20.1796875 21.140625 21.4765625 22.390625 21.5703125 19.7265625 17.984375 15.1875 9.71875 4.53125 4.015625 4 4.0234375 4.0625 4 4 4 4 4 4 4.015625 4.90625 6.5234375 8.140625 9.671875 11.078125 12.359375 13.578125 14.890625 16.1875 16.3125 15.703125 15.3125 13.6171875 11.5078125 10.3828125 10.0078125 10 10 10.1484375 11.015625 11.9765625 12.3046875 11.75 10.90625 11.4140625 10.984375 9.6953125 10.578125 12.7265625 12.4921875 10.3203125 7.8046875 6.8828125 7.078125 7.4765625 7.625 7.375 7.1640625 6.875 6.5859375 6.2890625 6.4140625 7.15625 7.7421875 7.1484375 7.28125 9.1953125 10.421875 10.5546875 10.7265625 10.1015625 9.15625 8.1484375 7.578125 7.2265625 6.921875 6.453125 6.4921875 7.1953125 6.6484375 6.6015625 7.4296875 7.765625 7.546875 7.3828125 7.1328125 7.0625 6.8671875 7.25 8.6328125 9.3671875 9.7734375 10.1328125 10.4296875
10.84375 11.0546875 13.15625 14.1015625 13.296875 14.015625 14.9453125 14.125 13.3359375 12.984375 14.3125 14.6796875 14.875 15.1796875 16.328125 16.2578125 15.453125 15.28125 16.5234375 16.6015625 14.765625 13.8359375 13.953125 14.109375 13.3125 13.1015625 12.25 11.71875 12.703125 14.671875 15.171875 12.171875 11.703125 10.859375 10.140625 11.0078125 12.0078125 12.0390625 12.546875 12.7265625 12.25 11.2578125 11.6171875 12.2734375 12.6328125 12.9453125 13.5234375 12.84375 12.921875 14.1796875 13.4296875 11.484375 12.171875 14.2734375 16.203125 14.3125 13.6015625 15.921875 17.140625 16.46875 15.6796875 13.6796875 13.6171875 14.953125 15.578125 14.1875 12.609375 13.40625 14.46875 15.03125 14.546875 14.0078125 14.0625 14.828125 15.1875 14.34375 13.7265625 14.40625 16.1171875 18.8984375 19.53125 21.6875 24.015625 20.2421875 16.4375 17.9765625 19.203125 19.125 17.4609375 17.859375 17.3515625 17.7890625 18.859375 18.328125 17.7890625 17.640625 18.203125 18.1640625 18.9765625 20.6015625 20.3828125 18.7578125 16.9921875 16.4609375 17.21875 18.4375 19.2421875 20.890625 21.390625 21.140625 21.0078125 21.7890625 19.953125 16.9921875 15.5078125 15.171875 15.6171875 16.9296875 19.0390625 19.984375 18.6953125 17.9140625 19.1953125 23.1875 23.5078125 22.109375 21.78125 22.5 21.421875 19.0234375 18.5234375 16.5703125 10.8828125 5.328125 4.1796875 4 4 4 4 4 4 4 4 4 4.015625 4.8515625 6.3046875 7.625 8.859375 10.0703125 11.28125 12.484375 14.046875 15.5546875 15.5390625 15.265625 15.5859375 14.3828125 13.03125 12.2109375 10.390625 10 10 10.0078125 10.3828125 11.0234375 10.8203125 10.3515625 10.3671875 12.03125 12 11.09375 10.5703125 13.4375 12.328125 8.53125 7.109375 7.46875 7.5390625 7.578125 7.59375 7.734375 7.328125 7.0078125 6.6640625 6.296875 6.265625 7 7.65625 7.484375 6.8046875 7.1328125 8.3046875 8.734375 9.296875 9.359375 8.7578125 7.8671875 7.375 7.09375 7.109375 6.515625 6.5078125 7.5703125 7.515625 6.609375 7.5 7.5546875 7.3125 7.1484375 7.0390625 7.0546875 7.25 7.578125 8.0390625 8.671875 8.3125 8.4765625 8.921875
12.0859375 10.8359375 12.578125 14.015625 14.15625 14.21875 14.15625 14.0390625 15.6328125 15.75 13.84375 14.15625 15.6953125 17.703125 18.9375 18.28125 16.6953125 15.5234375 17.5078125 17.984375 14.8984375 14.7578125 14.4296875 13.4296875 12.90625 15.0234375 14.078125 13.8984375 15.3359375 16.1640625 18.875 17.984375 16.9375 13.4296875 11.390625 11.3125 11.25 10.3359375 10.703125 11.703125 11.21875 11.25 12.0078125 12.765625 13.2578125 13.5625 13.75 12.453125 13.7265625 14.3359375 12.3046875 10.8046875 11.9609375 15.171875 16.3828125 13.1953125 12.578125 13.9140625 17.296875 18.3828125 17.2421875 15.40625 14.3203125 14.75 14.71875 14.2421875 14.671875 15.0859375 15.3515625 15.359375 14.3125 13.4140625 14.140625 15.15625 14.5 13.7265625 13.203125 13.7890625 15.8984375 19.96875 21.015625 19.2734375 19.171875 16.8515625 14.984375 17.28125 19.1484375 18.71875 18.3046875 19.9609375 19.6171875 16.4296875 16.5703125 17.6328125 16.828125 17.4296875 19.46875 20.4921875 20.6640625 19.9140625 18.6015625 17.6328125 15.8046875 15.5703125 18.3125 19.5546875 20.2578125 22.8828125 23.109375 22.859375 21.6328125 21.171875 19.984375 16.2421875 12.328125 11.75 14.6328125 16.1796875 17.421875 19.2109375 20.6796875 20.0859375 20.9609375 23.8671875 24.515625 21.453125 20.8984375 20.1796875 18.875 18.4765625 18.09375 16.984375 13.5703125 7.578125 5.1640625 4.078125 4 4 4 4 4 4 4 4 4 4.3125 5.3515625 6.5625 7.78125 8.9921875 10.203125 11.421875 13.390625 14.9296875 14.8125 14.3359375 15.3828125 14.5859375 13.3046875 12.3828125 11.1640625 10.53125 10.140625 10 10.03125 10.265625 10.3046875 10.53125 11.1953125 12.15625 11.65625 11.65625 11.8203125 12.0390625 9.734375 7.21875 7.78125 8.0859375 8.1796875 8 8.171875 8.8515625 8.1640625 7.3046875 6.5625 6.3046875 6.5703125 7.1796875 8.140625 7.8125 6.8828125 6.8828125 7.203125 7.5 7.8828125 8.265625 8.125 7.8203125 8.3359375 8.9921875 8.828125 6.8671875 5.9765625 6.6875 7.75 7.1796875 6.8203125 6.5234375 6.3671875 6.5 7.046875 7.21875 7.3828125 7.546875 7.734375 7.9609375 7.0859375 7.28125 7.7578125
12.609375 12.5625 12.9609375 13.8984375 14.21875 14.71875 15.125 15.1171875 16.265625 15.671875 12.8984375 14.234375 17.2265625 18.953125 19.609375 19.2578125 18.046875 15.828125 16.296875 17.8046875 17.2890625 17.1953125 15.546875 13.4609375 14.1796875 19.34375 20.0234375 17.9609375 17.1640625 16.7734375 21.4140625 25.0234375 28.890625 26.7734375 16.5234375 12.3671875 11.7890625 11.0703125 10.6875 10.8046875 10.9296875 11.640625 12.40625 13.171875 13.8359375 14.1796875 13.9921875 12.5703125 13.6484375 14.609375 12.8203125 10.3671875 11.2734375 13.671875 15.203125 12.140625 11.65625 13.0234375 15.5234375 16.25 16.4140625 15.625 14.671875 14.34375 14.5546875 14.875 15.96875 15.671875 15.28125 14.5390625 13.7265625 12.5 13.78125 15.1953125 14.0234375 13.5625 13.6796875 14.6796875 17.5703125 18.3046875 16.4453125 14.7109375 14.59375 14.921875 15.046875 16.0625 17.6328125 17.25 16.2890625 18.296875 18.75 15.9453125 16.3203125 18.0078125 16.9375 17.4453125 21.1796875 22.5390625 21.1328125 18.4609375 17.5859375 17.875 16.9140625 16.203125 18.75 19.4296875 19.96875 21.9765625 23.2578125 24.3671875 23.046875 22.46875 21.921875 17.4765625 13.28125 13.1171875 15.09375 15.3515625 15.7109375 17.578125 21.546875 22.0078125 21.859375 22.359375 21.3671875 19.9140625 21.078125 20.375 18.9296875 17.8359375 18.2421875 17.8984375 15.046875 10.3984375 6.7578125 4.296875 4 4 4 4 4 4 4 4 4 4.0078125 4.3515625 5.46875 6.703125 7.9140625 9.125 10.484375 12.8203125 14.3125 13.578125 12.875 14.1875 13.9609375 12.546875 11.25 10.9140625 10.7734375 10.609375 10.296875 11.25 11.5234375 10.8125 11.015625 11.796875 11.8203125 11.5078125 11.453125 11.46875 11.9296875 11.1875 10.0859375 10.2421875 9.0390625 8.28125 8.0859375 9.5234375 9.5078125 8.7265625 8.40625 8.0625 7.9375 7.8984375 8.2109375 8.8203125 8.4453125 7.734375 8.3046875 8.671875 8.53125 8.6640625 8.90625 8.6015625 7.96875 9.4609375 9.6328125 8.9921875 7.5859375 6.515625 7.25 7.625 6.15625 5.421875 6.0234375 6.4296875 6.546875 7.203125 7.390625 7.546875 7.578125 7.4765625 7.2109375 6.9453125 6.953125 7.34375
12.8203125 13.1875 13.3515625 14.015625 14.2890625 14.84375 15.3984375 15.7421875 16.515625 15.0078125 14.21875 16.0703125 18.296875 18.7734375 19.53125 20.125 20.515625 18.0859375 16.671875 18.125 18.53125 19.03125 18.5859375 14.984375 13.4609375 16.421875 21.640625 17.7890625 14.875 16.234375 21.96875 28.1484375 28.6796875 26.765625 18.203125 14.328125 13.125 12.7109375 13 13.296875 12.234375 11.6796875 12.1171875 13.1875 14.203125 14.6953125 14.1328125 12.703125 12.5625 13.0546875 12.171875 10.9453125 11.6171875 12.7421875 14.1015625 13.5859375 12.984375 12.4296875 13.234375 15.1328125 16.0546875 15.65625 14.0234375 13.3203125 13.9609375 15.3671875 16.015625 15.3984375 15.4609375 14.2890625 13.3515625 12.359375 13.640625 15.8515625 14.078125 11.6796875 13.4921875 15.9453125 18.28125 16.671875 14.2421875 14.0078125 13.984375 15.3203125 16.25 15.7265625 16.4296875 16.5703125 15.5390625 15.953125 15.3671875 15.484375 17.4296875 18.671875 17.5625 17.5390625 21.0234375 23.671875 21.9609375 18.234375 17.2734375 17.78125 18.5703125 18.9453125 20.234375 19.6015625 19.6171875 20.5 20.890625 23.0078125 22.7109375 22.84375 21.5390625 16.4921875 11.6953125 10.7109375 11.3359375 13.3203125 15.1875 16.234375 19.15625 21.734375 21.7265625 21.03125 20.3046875 18.3203125 19.53125 20.203125 19.8671875 18.9609375 19.625 18.5390625 15.34375 11.9140625 8.1875 4.8125 4.015625 4 4 4 4 4 4 4 4 4 4 4.3125 5.5234375 6.8359375 8.03125 9.734375 12.265625 13.4765625 11.78125 11.5703125 12.34375 12.296875 11.3828125 10.6953125 10.875 10.6171875 10.203125 11.3046875 12.609375 12.7109375 11.8046875 11.5703125 11.90625 11.59375 11.0546875 10.9140625 11.359375 12.34375 11.53125 9.8515625 9.1171875 8.3515625 7.0625 9.3203125 11.2734375 10.4765625 9.6328125 9.46875 9.2734375 8.8984375 8.8359375 8.875 8.9375 8.8125 8.796875 9.578125 10.4140625 10.1796875 10 10.2890625 9.4921875 7.234375 7.515625 7.4609375 7.9296875 8.3359375 8.3046875 8.875 6.6796875 4.9296875 6.1640625 6.796875 6.8515625 6.796875 7.3359375 7.625 7.5625 7.390625 7.203125 7.0078125 7.09375 7.109375 7.4609375
12.171875 13.640625 13.4765625 14.53125 14.5390625 14.640625 14.8671875 15.15625 15.84375 15.2890625 15.1171875 15.8125 17.203125 18.2578125 19.2578125 19.8359375 19.8671875 18.3671875 17.46875 19.7890625 18.171875 17.4921875 18.2265625 16.90625 14.7890625 12.4375 17.5390625 15.2421875 13.203125 15.8046875 19.484375 22.0625 18.2578125 17.4765625 14.90625 14.3515625 15.0703125 15.21875 15.84375 16.046875 14.6953125 13.3359375 12.234375 11.734375 12.2109375 13.28125 12.859375 12.46875 12.828125 13.1953125 12.625 12.2265625 12.5625 13.34375 13.9453125 14.421875 14.4609375 14.5625 14.59375 15.90625 16.2421875 15.65625 14.84375 13 12.4765625 16.671875 19.8203125 18.0859375 16.6875 15.84375 15.078125 14.8359375 14.1484375 14.25 12.875 10.234375 13.4375 16.703125 18.46875 17.671875 15.515625 15.5703125 14.625 15.40625 16.8984375 15.03125 15.1953125 15.859375 15.4453125 15.171875 14.71875 16.0078125 17.6953125 17.90625 17.2890625 16.828125 19.109375 20.4140625 20.6953125 19.4921875 18.5234375 18.6484375 19.2890625 19.3984375 19.15625 17.921875 18.171875 19.59375 19.3203125 20.703125 22.0859375 23.171875 23.046875 18.6171875 10.78125 5.421875 5.703125 11.4609375 15.515625 15.8828125 17.6953125 20.59375 20.15625 19.25 20.7734375 20.2578125 18.5234375 18.078125 18.0625 18.2265625 19.1328125 19.1171875 17.4375 13.828125 8.8671875 5.921875 4.046875 4 4 4 4 4 4 4 4 4 4 4 4.234375 5.484375 7 9.1484375 11.71875 12.2265625 10.921875 11.671875 12.1640625 12.25 11.828125 11.3671875 11.59375 11.9375 11.4296875 12.1875 12.484375 11.9921875 12.1171875 11.9453125 11.6640625 11.1953125 10.4921875 10.7421875 11.8984375 12.171875 10.9140625 7.96875 6.921875 6.6640625 5.6796875 9.2421875 12.3984375 11.171875 10.4921875 10.3046875 9.9765625 9.328125 9.2578125 9.2578125 9.2109375 9.125 9.3125 10.1953125 10.6875 10.15625 9.640625 9.765625 9.8046875 8.7109375 7.25 5.5859375 6.171875 7.3984375 7.9453125 8.2265625 6.59375 6.0703125 6.828125 6.8125 6.8984375 7.0625 7.65625 7.6875 7.453125 7.21875 6.9921875 6.9765625 7.1875 7.265625 7.3671875
11.828125 13.28125 13.28125 13.6484375 13.953125 14.65625 14.8359375 14.84375 15.5078125 16.2890625 15.46875 14.8671875 16 17.609375 18.03125 18.015625 17.359375 16.4453125 17.1640625 18.53125 16 13.953125 16.5078125 17.3046875 16.71875 13.6171875 14.1640625 14.640625 14.171875 15.296875 16.0625 15.765625 14.4140625 13.28125 12.671875 13.21875 14.8359375 16.3671875 17.0859375 16.1484375 14.9921875 14.4453125 13.03125 11.15625 10.4140625 11.5234375 11.875 11.7109375 11.984375 12.4140625 12.921875 12.8984375 12.125 11.796875 12.328125 14.5234375 16.15625 15.8828125 15.2734375 16.609375 16.6484375 15.515625 15.6796875 14.125 12.7265625 14.765625 19.734375 20.09375 19.4296875 18.28125 16.640625 16.5625 15.0078125 11.921875 11.4765625 12.09375 15.078125 17.203125 18.5 18.359375 16.5078125 15.515625 15.5078125 15.796875 16.140625 14.46875 15.15625 16.5625 16.4140625 16.3046875 15.9765625 16.234375 16.703125 16.3359375 16.3515625 16.1328125 17.125 18.484375 19.15625 19.1796875 18.703125 18.625 17.84375 17.1640625 15.7265625 15.5859375 17.6171875 19.0234375 18.375 19.171875 21.3203125 22.2265625 21.703125 21.34375 15.53125 7.1328125 7.21875 12.6640625 17.6796875 18.4765625 19.71875 20.03125 19.578125 20.625 23.2578125 23.8515625 20.25 17.890625 17.2734375 17 17.9453125 19.2109375 18.7890625 15.4921875 9.359375 5.640625 4.0546875 4 4 4 4 4 4 4 4 4 4 4 4 4.125 6.1484375 9.171875 11.109375 12.1953125 13.09375 13.9765625 13.8046875 13.59375 13.359375 13.21875 13.0703125 12.9140625 12.859375 13.390625 12.921875 11.59375 12.2109375 12.1484375 11.3125 10.578125 10.0546875 11.3828125 12.2578125 11.8125 11.125 9.734375 9.328125 8.703125 8.203125 9.390625 11.828125 11.8828125 11.28125 11.1953125 10.4296875 9.7421875 9.6953125 9.609375 9.359375 9.109375 9.421875 10.125 9.9765625 9.5390625 9.2109375 9.078125 9.609375 9.828125 8.7578125 6.8984375 6.1953125 5.875 6.4609375 7.140625 7.0625 7.375 8.3828125 7.6640625 7.3359375 7.4296875 7.6015625 7.46875 7.234375 7 6.8828125 7.0546875 7.2734375 7.4453125 7.375
11.3359375 12.53125 13.4609375 13.609375 13.5390625 13.96875 14.3203125 14.4453125 15.4765625 16.65625 15.09375 13.3203125 13.4296875 15.328125 16.203125 16.4921875 15.6328125 14.65625 16.1953125 16.8046875 15.2890625 15.1484375 18.1953125 17.3515625 15.6875 15.3046875 15.71875 15.84375 15.7421875 15.5859375 14.40625 12.4921875 12.2890625 11.84375 11.703125 12.59375 13.34375 14.0390625 14.6328125 13.9921875 14.6953125 14.4375 12.859375 12.0234375 11.5625 11.8359375 11.890625 11.375 10.6015625 10.6953125 10.625 11.0546875 11.46875 10.5234375 10.875 13.546875 15.9765625 16.28125 14.9609375 15.8671875 16.8828125 16.328125 15.8203125 14.2734375 13.5390625 14.09375 18.359375 20.5234375 20.96875 19.8515625 17.203125 16.5 15.140625 12.546875 11.8984375 14.8984375 18.234375 17.5390625 17.2421875 16.7265625 15.890625 15.4765625 16.5 16.4609375 16.359375 15.0859375 15.7109375 17.0078125 17.796875 18.6640625 17.4765625 15.9921875 14.21875 14.296875 16.1484375 16.4921875 15.7109375 17.0078125 17.1328125 16.859375 16.75 17.375 17.0546875 16.953125 16.0859375 16.0390625 17.9140625 18.796875 17.390625 17.03125 19.2109375 18.84375 17.828125 19.8125 18.6796875 12.3203125 11.3984375 13.1953125 15.8671875 17.3125 19.03125 19.734375 21.9453125 23.6640625 25.625 27.734375 23.1015625 17.8984375 17.21875 16.0078125 16.6796875 18.8515625 19.546875 17.6640625 14 10.2890625 5.7421875 4.015625 4 4 4 4 4 4 4 4 4 4 4 4.1640625 6.9453125 9.8984375 10.5234375 11.71875 13.1171875 14.3984375 14.640625 14.5234375 14.40625 14.2890625 14.171875 14.046875 13.9453125 13.8359375 12.7578125 12.328125 12.9921875 12.4921875 11.7109375 10.8828125 10.6640625 11.921875 12.296875 11.9609375 11.8515625 11.96875 12.015625 11.7578125 11.46875 11.125 11.2890625 12.4296875 12.171875 11.7734375 10.796875 10.15625 10 9.71875 9.40625 9.1171875 9.390625 9.8125 9.6015625 9.3046875 8.9921875 8.7890625 9.203125 9.7109375 9.8359375 8.4140625 6.4375 5.359375 6.65625 7.4140625 7.125 8.1875 10.0078125 10.3515625 9.0234375 7.5625 7.3671875 7.25 7.015625 6.8203125 6.921875 7.140625 7.359375 7.578125 7.65625
11.046875 12.21875 13.7265625 14.6953125 14.578125 14.1796875 14.0625 14.5234375 15.6015625 16.3984375 14.7265625 13.4375 13.15625 13.796875 13.8515625 14 14.2734375 14.046875 14.5390625 15.4765625 15.2734375 16.40625 19.0625 18.09375 16.734375 16.609375 16.5546875 16.5 16.3125 15.34375 13.6171875 11.9140625 11.1015625 12.09375 12.9140625 12.7109375 11.65625 10.7734375 11.5 13.078125 14.578125 14.390625 12.921875 13.0234375 13.515625 13.609375 12.6640625 10.9765625 9.5390625 9.8046875 9.1953125 9.4140625 10.9921875 10.421875 11.5859375 14.2421875 15.0625 14.7734375 13.7109375 14.0859375 15.2578125 15.4296875 13.828125 13.0234375 13.2421875 15.6171875 17.765625 18.109375 18.1640625 19.046875 18.375 16.96875 15.3203125 14.234375 13.4765625 15.7265625 17.96875 17.3515625 16.7734375 15.921875 15.609375 16.6953125 17.640625 17.71875 17.671875 16.84375 15.4296875 16.53125 18.3125 18.6328125 17.921875 16.296875 13.9140625 13.4296875 15.28125 17.0859375 16.671875 16.28125 15.6796875 15.9609375 16.515625 17.3515625 17.859375 17.7734375 17.53125 16.6328125 17.65625 19.2734375 19.0078125 17.53125 18.140625 17.6171875 17.21875 17.4375 14.9765625 11.1953125 10.1171875 10.4140625 14.484375 16.1875 18.078125 20.703125 24.25 25.8046875 28.75 31.828125 30.203125 18.5390625 16.578125 15 15.625 17.609375 18.9609375 18.6640625 16.6953125 12.7890625 7.8828125 4.59375 4 4 4 4 4 4 4 4 4 4 4 4 5.8125 8.5390625 9.8203125 11.2734375 12.7265625 13.9453125 14.0859375 13.9921875 13.890625 13.7890625 13.6953125 13.59375 13.5390625 13.875 13.328125 12.84375 13.0546875 13.1953125 12.796875 11.9375 11.2109375 11.734375 12.6875 13.21875 13.46875 13.328125 13.09375 12.78125 12.3828125 11.9453125 11.5390625 12.015625 11.953125 11.484375 11.0546875 10.515625 10.125 9.7578125 9.4375 9.140625 9.2734375 9.5234375 9.390625 9.078125 8.7734375 8.5390625 8.7421875 8.8125 9.15625 8.0078125 7.015625 6.1953125 7.6796875 8.7890625 7.4765625 8.125 9.828125 11.0546875 9.453125 7.65625 7.140625 7.0234375 6.796875 6.796875 7.0078125 7.2265625 7.4453125 7.6640625 7.796875
11.40625 12.265625 13.9453125 15.515625 16.125 15.0390625 14.1484375 15.2890625 16.328125 16.875 15.5703125 14.59375 13.734375 13.3828125 12.640625 11.8046875 11.53125 12.328125 13.1640625 13.390625 14.5078125 16.15625 17.46875 17.171875 16.6328125 16.546875 16.390625 16.6171875 16.7421875 15.359375 13.171875 11.5859375 10.890625 12.8515625 13.234375 12.546875 11.5 10.328125 10.71875 12.703125 14.4453125 14.296875 13.03125 13.2109375 14.5546875 14.7265625 13.578125 11.9765625 9.453125 9.375 9.3515625 8.84375 9.0546875 10.078125 12.6328125 15.4609375 15.328125 13.890625 12.953125 13.53125 15.140625 14.984375 12.84375 12.5390625 14.7265625 17.4453125 16.9921875 14.9609375 14.546875 15.71875 16.984375 16.5234375 15.9375 14.515625 14.4375 15.046875 15.34375 15.671875 15.875 15.8046875 16.125 17.0703125 16.734375 16.7734375 17.4609375 17.84375 16.34375 16.140625 16.6640625 17 17.84375 17.5390625 15.2734375 13.9140625 15.75 17.84375 17.8125 16.7265625 14.8203125 15.2421875 17.0625 17.4921875 17.1171875 17.703125 18.796875 17.578125 17.078125 19.4375 18.96875 18.5625 19.4453125 18.703125 18.03125 16.9375 14.7421875 10.875 9.375 11.84375 16.8515625 18.375 18.2265625 19.140625 23.8359375 29.03125 33.9453125 38.6796875 41.6953125 27.1796875 17.78125 16.7265625 17.09375 17.3515625 18.1015625 18.6171875 17.40625 14.265625 6.8671875 4.1484375 4 4 4 4 4 4 4 4 4 4 4.0078125 4.1328125 5.234375 7.953125 9.4765625 10.9375 12.390625 13.40625 13.4375 13.3359375 13.234375 13.140625 13.0390625 12.9609375 13.234375 14.046875 13.984375 13.53125 13.171875 13.0390625 12.21875 11.296875 11.15625 12.21875 13.3046875 13.796875 14.1640625 13.9375 13.4453125 12.9453125 12.453125 11.9609375 11.59375 11.8125 11.421875 10.5859375 10.359375 10.328125 10.078125 9.703125 9.3046875 8.90625 8.9140625 9.2109375 9.1796875 8.84375 8.453125 8.453125 8.234375 7.296875 7.4921875 8.0078125 7.6015625 7 7.859375 8.2734375 7.125 7.984375 9.8046875 10.1875 9.046875 7.828125 7.03125 6.8046875 6.6953125 6.8671875 7.0859375 7.3125 7.53125 7.75 7.8828125
12.359375 12.359375 13.8125 15.578125 16.1796875 14.59375 13.71875 15.2734375 16.890625 17.296875 16.1796875 15.0234375 14.3671875 13.875 12.6875 11.0546875 9.953125 10.421875 12.328125 12.875 13.96875 14.1484375 15.453125 15.8125 16.0390625 16.234375 16.4453125 16.96875 17.3359375 15.6328125 12.78125 11.296875 11.46875 12.4296875 13.1328125 13.4609375 11.7109375 10.2578125 10.578125 11.9765625 13.5859375 13.6953125 12.453125 13.3515625 15.078125 15.2265625 14.390625 13.1875 11.453125 11.078125 11.3046875 9.3671875 9.140625 11.40625 13.8671875 15.4375 15.09375 14.15625 13.46875 13.6171875 14.9296875 13.59375 11.2109375 11.390625 14.90625 18.46875 16.953125 14.2265625 12.2109375 12.5078125 15.171875 16.171875 15.828125 15.359375 15.0625 14.875 14.109375 14.6875 15.125 14.1796875 13.4453125 14.9453125 14.5390625 14.484375 16.3671875 17.453125 17.4296875 15.7734375 16.2109375 17.109375 17.3984375 17 15.015625 13.765625 14.8671875 15.6640625 15.6015625 16.171875 15.9140625 16.5234375 18.4921875 17.9453125 17.234375 17.3828125 16.9140625 15.7734375 15.875 17.4921875 17.4921875 18.078125 19.2734375 18.796875 17.4765625 17.65625 19.1640625 13.765625 7.3046875 9.609375 18.2890625 20.8046875 18.953125 17.6171875 21.0234375 26.5703125 33.5625 39.515625 42.75 30.8984375 20.5703125 19.765625 20.734375 19.1484375 17.9375 18.1796875 18.3671875 16.3359375 7.7421875 4.1015625 4 4 4 4 4 4 4 4 4 4.03125 4.234375 4.5859375 5.0390625 7.2421875 9.1484375 10.6015625 12.046875 12.8203125 12.78125 12.6796875 12.5859375 12.484375 12.3984375 12.6484375 13.3203125 14.1953125 14.484375 14.1171875 13.4140625 12.390625 11.5078125 10.7890625 11.5390625 12.9453125 13.7734375 13.8359375 14.0625 13.7265625 13.1875 12.6953125 12.203125 11.7109375 11.5625 11.6796875 11.1328125 10.0546875 10.0625 10.265625 9.9765625 9.015625 8.015625 7.109375 7.8125 8.796875 8.890625 8.3359375 8.109375 8.2890625 7.84375 7.3125 7.5625 8.3203125 8.1640625 7.734375 7.90625 7.828125 7.9453125 8.3203125 9.8125 9.5 8.5703125 8.1328125 7.1796875 6.625 6.734375 6.953125 7.171875 7.3984375 7.6171875 7.8359375 7.96875
13.0390625 12.9296875 13.609375 14.6953125 13.921875 13.25 13.4296875 15.015625 16.59375 17.6328125 16.578125 15.53125 15.015625 14.234375 12.7578125 11.1328125 10.015625 10.1484375 12.671875 14.9296875 13.2890625 12.375 13.3984375 14.734375 15.609375 15.671875 16.6953125 17.34375 17.921875 16.140625 12.5546875 11.5078125 11.5390625 12.0859375 12.7578125 14.515625 12.6015625 11.0703125 10.734375 11.5703125 12.0859375 12.328125 12.71875 14.15625 16.2890625 15.75 14.859375 14.2265625 13.90625 13.90625 13.875 11.7109375 10.765625 12.96875 15.234375 15.8359375 15.28125 14.390625 13.890625 13.7734375 14.71875 13.078125 10.5390625 9.734375 11.6875 15.71875 17.6796875 16.625 12.9765625 11.7109375 13.359375 15.765625 15.875 15.765625 15.5390625 15.046875 14.046875 14.53125 15.3125 13.640625 10.8515625 12.4921875 12.7734375 12.59375 14.2109375 16.0390625 16.84375 15.765625 15.8359375 15.921875 14.7734375 13.4765625 14.5234375 16.234375 15.96875 15.046875 14.1171875 14.375 16.96875 18.21875 18.6796875 18.4140625 20.0078125 20.015625 17.734375 15.75 15.1796875 17.2578125 18.125 18.9609375 19.6328125 18.9921875 17.6484375 17.375 19.265625 18.6796875 14.1015625 14.4296875 19.203125 20.4375 17.546875 16.1796875 18.6328125 21.796875 25.828125 27.921875 29.828125 25.4453125 20.28125 19.6953125 20.125 19.3125 18.0078125 17.734375 18.3125 16.203125 9.25 4.484375 4 4 4 4 4 4 4 4 4.0859375 4.359375 4.71875 5.078125 5.4453125 6.59375 8.8046875 10.265625 11.6640625 12.171875 12.125 12.03125 11.9296875 11.8359375 12.0078125 12.7421875 13.46875 14.34375 14.8984375 14.6171875 13.4296875 12.171875 10.96875 10.8125 12.234375 13.671875 13.7734375 13.6484375 13.765625 13.578125 12.9375 12.4453125 11.953125 11.484375 11.546875 11.484375 10.6484375 10.3828125 10.859375 11.640625 11.6953125 10.6875 9.390625 8.125 7.8125 6.96875 7.765625 6.890625 7.6328125 8.0078125 8.1015625 7.828125 8.1171875 8.5390625 8.59375 8.28125 7.9921875 8.671875 9.3984375 9.5390625 9.875 9.46875 8.921875 8.7109375 7.84375 6.578125 6.78125 7.015625 7.2421875 7.46875 7.6953125 7.921875 8.0546875
14.6171875 14.1796875 13.6875 13.015625 12.203125 11.921875 12.7109375 14.0546875 15.96875 17.609375 17.484375 16.15625 15.421875 14.265625 12.5390625 11.0078125 10.59375 10.6328125 12.1015625 14.6484375 13.1484375 11.40625 12.0703125 13.15625 14.34375 13.78125 14.71875 17.0703125 17.921875 15.5078125 12.109375 10.84375 11.2578125 13.34375 14.28125 13.9140625 12.453125 12.8984375 14.015625 14.7109375 14.25 13.234375 13.15625 13.921875 15.5 14.8671875 14.40625 14.5234375 14.2109375 13.671875 14.0625 14.2421875 12.2578125 12.7421875 15.1171875 16.2421875 15.3671875 14.4296875 13.6640625 14.0078125 14.5546875 13.8125 12.2578125 11.2109375 11 12.765625 18.1953125 19.75 15.3359375 12.484375 13.2578125 15.1484375 15.2109375 14.4921875 14.578125 15.4375 14.4609375 14.4296875 15.3125 13.3046875 11.34375 13.21875 13.203125 11.8515625 13.296875 14.953125 15.859375 15.84375 15.2421875 14.3984375 12.171875 10.96875 13.5078125 16.7578125 18.109375 18.21875 16.6328125 16.375 18.25 18.3515625 17.65625 17.3359375 20.1875 21.2421875 19.2421875 16.921875 15.8125 18.2734375 20.2421875 20.8203125 20.46875 19.515625 17.890625 17.4375 20.3984375 21.453125 18.4609375 17.6640625 19.1953125 19 18.2578125 17.2734375 17.6796875 18.3046875 20.296875 22.625 25.0625 24.59375 20.578125 18.5078125 17.8671875 18.34375 18.53125 18.375 18.1171875 15.5078125 9.375 4.15625 4 4 4 4 4 4 4 4.140625 4.5 4.859375 5.21875 5.578125 5.9375 6.421875 8.3046875 9.9296875 11.21875 11.5078125 11.46875 11.375 11.2734375 11.3515625 12.0546875 12.890625 13.6171875 14.4921875 15.234375 14.9296875 13.625 12.3515625 11.171875 11.4296875 13.15625 13.8046875 13.3671875 13.4765625 13.4140625 13.4609375 12.7421875 12.1953125 11.703125 11.359375 11.46875 11.203125 10.3125 10.765625 11.2890625 11.3828125 12.2890625 12.640625 10.484375 9.8203125 8.625 5.5234375 5.6875 6.4921875 7.9765625 8.9765625 8.59375 8.21875 8.6640625 8.6796875 8.75 8.2109375 7.34375 7.9296875 9.2734375 9.3984375 9.640625 9.3828125 9.015625 8.6015625 7.4609375 6.3125 6.703125 6.9375 7.1796875 7.4296875 7.703125 7.984375 8.1328125
15.4921875 14.7734375 13.59375 12.46875 12.1953125 11.953125 12.453125 13.2109375 14.9140625 16.59375 16.78125 15.7265625 15.390625 14.28125 11.8515625 10.046875 10.5625 11.65625 11.453125 11.8984375 11.84375 11.3359375 12.078125 10.890625 11.859375 13.0859375 14.1640625 15.3984375 15.78125 12.8046875 11.2265625 9.65625 9.953125 16.4296875 19.75 14.9453125 12.5546875 14.8203125 17.8125 18.3125 17.2265625 15.8125 14.46875 13.890625 14.421875 14.09375 13.890625 13.9609375 14.2421875 13.1875 13.9609375 14.828125 14.1015625 13.8046875 15.4453125 16.640625 15.546875 14.4921875 13.5625 13.5390625 14.515625 14.390625 14.5 13.7578125 11.8984375 11.828125 16.25 18.7890625 16.265625 13.8125 13.1953125 14.0625 14.328125 13.59375 14.359375 16.03125 15.6953125 15.5234375 15.359375 13.6171875 13.2109375 14.4296875 14.2734375 13.2109375 14.953125 15.2109375 15.828125 14.5 13.7421875 14.3125 12.296875 10.5546875 12.09375 15.078125 17.0234375 17.4609375 16.625 17.2578125 18.765625 18.90625 17.4609375 18.578125 21.671875 21 17.8515625 17.546875 17.6953125 18.875 21.4921875 20.4140625 17.4453125 16.5859375 17.234375 18.8828125 21.609375 22.078125 19.6953125 17.078125 18.421875 19.171875 19.5546875 19.578125 19.15625 19.9296875 20.671875 21.453125 22.7109375 24.1640625 22.5078125 19.875 17.953125 17.9921875 18.5625 18.59375 18.6796875 16.71875 11.265625 4.2109375 4 4 4 4 4 4 4 4.1640625 4.75 5.2890625 5.7109375 6.078125 6.4375 6.796875 7.828125 9.59375 10.7109375 10.8515625 10.8203125 10.71875 10.7265625 11.328125 12.203125 13.0390625 13.765625 14.640625 15.484375 15.25 14.0234375 12.9140625 12.1875 12.8515625 13.765625 13.4296875 13.046875 13.28125 13.046875 13.2421875 12.6875 11.9453125 11.453125 11.2890625 11.3046875 10.8046875 10.265625 11.203125 11.7421875 11.421875 12.1328125 11.5 9.390625 8.1328125 7.8828125 7.859375 7.734375 8.515625 9.9140625 9.953125 9.28125 8.484375 8.9609375 9.1171875 8.8828125 8.1875 7.375 7.1875 7.6796875 8.6953125 9.671875 9.4453125 8.765625 8.984375 7.890625 6.671875 6.8203125 7.109375 7.4375 7.703125 7.890625 7.984375 8
14.59375 14.3984375 13.6484375 13.1171875 13.4921875 13.5546875 14.015625 14.4609375 14.5625 15.6015625 15.484375 14.8359375 14.875 14.0546875 12.046875 9.890625 9.75 10.671875 11.3046875 11.015625 11.6015625 12.953125 14.6171875 13.2734375 12.7265625 14.40625 15.015625 14.75 14.7734375 13.3046875 11.453125 11.4375 11.375 15.8359375 19.15625 14.171875 12.96875 15.8125 18.6015625 18.8984375 18.3046875 17.34375 16.140625 14.8359375 14.0625 13.734375 13.375 13.3984375 14.5390625 14.1328125 14.0234375 15.6875 16.0703125 15.2109375 16.234375 17.0703125 15.8984375 14.6953125 13.6171875 12.8984375 14.0390625 14.9140625 16.4765625 16.546875 13.9609375 13.3984375 15.828125 18.5703125 17.3359375 14.0859375 13.1484375 14.2421875 14.9765625 14.0625 13.34375 14.3125 14.2109375 14.7421875 15.2890625 14.75 14.375 14.546875 14.734375 14.5234375 14.9453125 14.34375 13.4140625 11.8203125 12.71875 15.8203125 14.203125 11.3828125 12.84375 14.9140625 15.484375 15.203125 16.125 16.828125 17.390625 16.96875 16.453125 20.5390625 25.7421875 24.4453125 19.859375 19.296875 21.3671875 20.46875 19.109375 17.21875 13.9765625 14.6171875 18 20.4921875 21.59375 20.765625 20.5234375 18.2734375 17.7578125 18.8203125 19.953125 19.8359375 19.953125 21.4296875 20.9453125 20.3984375 20.2265625 21.09375 21.90625 20.015625 18.5078125 18.5234375 18.09375 17.84375 18.2109375 17.2890625 13.25 5.3046875 4 4 4 4 4 4 4 4.0390625 4.515625 5.2109375 5.8828125 6.4609375 6.921875 7.296875 7.7734375 9.2265625 10.1484375 10.1875 10.1640625 10.125 10.6171875 11.4765625 12.34375 13.2265625 14.0859375 14.796875 15.125 15.3203125 14.2578125 13.1484375 12.828125 13.796875 14 13.109375 12.8828125 12.953125 12.6875 12.953125 12.703125 11.7421875 11.2421875 11.21875 11.140625 10.4296875 10.546875 11.7109375 11.9375 11.8515625 11.8515625 10.7734375 9.6640625 9.65625 8.7578125 10.375 9.59375 9.3359375 9.9765625 9.5546875 9.109375 8.1953125 9.140625 9.6015625 9.4375 8.6484375 7.75 7.4765625 7.609375 9.2734375 10.109375 9.9609375 9.171875 9.0703125 8.6328125 7.4296875 6.9609375 7.5078125 7.5546875 7.578125 7.609375 7.6328125 7.6484375
13.75 13.8359375 13.8515625 14.3515625 14.875 15.125 15.28125 15.1171875 14.578125 14.4453125 13.84375 13.5703125 13.2890625 12.1484375 11.171875 10.828125 10.21875 10.5859375 12.78125 12.5 13.71875 15.1171875 16.09375 14.3125 13.7421875 14.203125 14.0625 13.9765625 14.0546875 13.46875 11.828125 12.90625 13.8515625 14.953125 14.7890625 12.8828125 15.0234375 18.1171875 18.7421875 18.1875 17.71875 17.1484375 16.390625 15.4375 14.7109375 14.765625 14.109375 13.6484375 14.6875 14.7109375 13.625 14.609375 15.8046875 15.953125 17.09375 17.484375 16.2734375 15.0625 13.8515625 12.7734375 12.921875 14.90625 16.828125 16.5859375 15.7421875 15.53125 17.4296875 18.8125 17.3046875 15.265625 14.203125 14.625 14.8828125 13.734375 11.75 10.7734375 11.3515625 12.6796875 14.1171875 15.171875 15.484375 15.34375 14.953125 14.3984375 13.0859375 12.3671875 11.2734375 11.46875 14.1171875 16.1640625 12.6796875 10.921875 13.0234375 15.6796875 17.109375 15.859375 16.453125 16.0625 15.4140625 15.34375 15.0390625 17.9921875 23.9140625 23.671875 23.9921875 24.921875 23.46875 20.4296875 18.1640625 16.171875 15.7109375 17.171875 18.6328125 19.40625 19.8203125 20.015625 20.328125 18.9453125 17.890625 18.3125 18.984375 20.390625 22.390625 24.140625 23.078125 21.71875 20.5 19.390625 20.140625 20.34375 21.3984375 21.0703125 18.6875 17.8984375 18.5546875 17.796875 14.9609375 7.09375 4 4 4 4 4 4 4 4 4.265625 4.9375 5.6328125 6.3203125 7.0078125 7.625 8.125 8.9140625 9.5234375 9.53125 9.53125 9.90625 10.8125 12 13.1328125 13.8359375 14.03125 13.9921875 14.0546875 14.3984375 14.265625 13.515625 13.59375 14.4609375 14.734375 13.6640625 12.75 12.5546875 12.3203125 12.6171875 12.609375 11.71875 11.1015625 11.09375 10.90625 10.203125 11.125 12.2890625 12.3125 11.8203125 11.2578125 10.1640625 9.859375 11.3984375 9.9609375 8.7890625 8.0234375 7.484375 8.140625 8.1875 8.2109375 8.5703125 9.375 9.9140625 9.9609375 9.1171875 8.140625 7.84375 7.8984375 9.7421875 10.84375 10.640625 10.0234375 9.8125 9.0546875 7.8125 6.5859375 7.46875 7.53125 7.3671875 7.28125 7.28125 7.296875
13.3359375 13.640625 14.1640625 15.453125 16.0234375 15.8203125 15.4453125 15.03125 14.53125 13.7265625 12.796875 12.4453125 11.5234375 10.640625 10.8828125 11.6328125 11.234375 10.4140625 12.6171875 14.9765625 16.4140625 16.3984375 14.828125 12.8828125 12.40625 12.65625 13.09375 13.2109375 13.2890625 13.2421875 12.0546875 13.7734375 15.921875 17.4140625 16.828125 16.25 18.171875 19.3203125 18.3359375 17.859375 17.125 16.546875 15.9140625 15.5546875 17.1015625 18.1875 17.3515625 16.3046875 15.0390625 13.125 12.21875 13.5234375 15.4765625 17.109375 17.78125 17.7265625 16.703125 15.4140625 14.21875 13.0390625 12.5234375 13.25 14.8125 15.359375 15.8125 17.203125 17.4609375 17.265625 17.2265625 17.765625 16.3515625 15.171875 14.828125 13.828125 12.671875 12.6796875 12.5234375 11.8671875 13.671875 14.6796875 15.4375 15.0078125 13.7265625 13.3359375 12.4453125 12.6484375 12.1171875 12.7265625 14.6015625 13.84375 10.4296875 9.7890625 11.859375 15.2109375 17.1875 16.1171875 15.7265625 14.3671875 14.8203125 15.7890625 15.1328125 16.9921875 19.8203125 20.8359375 24.40625 24.1953125 21.5078125 24.09375 26.0625 18.8828125 17.90625 20.5390625 21.375 20.890625 20.6015625 21.453125 19.3203125 16.8671875 16.7421875 17.6953125 18.3671875 21.296875 23.6640625 24.6875 24.53125 25.53125 25.8828125 20.7578125 19.078125 20.921875 24.46875 22.7734375 18.765625 18.375 18.8671875 18.296875 15.78125 10.1484375 4.3828125 4 4 4 4 4 4 4 4.09375 4.671875 5.359375 6.0546875 6.7421875 7.4375 8.0390625 8.65625 9.4140625 9.5234375 9.7109375 11.046875 12.3203125 13.015625 13.125 13.140625 13.1875 13.2265625 13.1015625 13.1953125 13.59375 13.65625 14.0234375 14.9765625 15.921875 14.5859375 12.984375 12.71875 12.390625 12.3359375 12.3359375 11.796875 11.2734375 11.2421875 10.890625 10.2265625 11.9453125 12.875 12.2265625 11.6015625 10.71875 9.53125 9.9296875 12.2578125 12.0078125 8.2421875 6.484375 6.375 7.421875 8.7421875 10.1484375 10.7734375 9.7265625 9.4140625 10.0078125 9.6640625 8.6484375 7.96875 8.125 9.7265625 11.0234375 10.71875 10.515625 10.671875 9.71875 8.5234375 7.703125 8.453125 8.4140625 8.0859375 7.75 7.3125 6.9921875
14.3515625 14.4140625 14.2265625 15.0546875 15.8125 15.3046875 14.7421875 14.21875 13.6640625 12.9375 12.8515625 13.796875 13.484375 11.3984375 10.484375 12.96875 12.5546875 10.8828125 14.6796875 20.09375 17.8984375 15.40625 12.859375 11.703125 11.3828125 11.7890625 12.2734375 12.3984375 12.515625 12.6171875 12.1484375 13.8984375 16.6328125 18.6875 18.0234375 17.25 18.5546875 19.046875 17.7734375 17.5625 16.921875 16.1171875 15.4375 16.3515625 18.59375 18.96875 19.453125 17.7734375 14.1796875 12.921875 13.6015625 15.1015625 16.4296875 17.2890625 16.3984375 16.28125 16.625 16.1796875 14.90625 13.1875 13.1328125 12.890625 13.5703125 14.296875 14.9375 16.6015625 16.46875 16.046875 16.65625 17.2421875 15.375 14.7109375 14.8359375 14.625 14.296875 14.9921875 14.6640625 14.3125 15.0859375 14.78125 14.0234375 12.953125 11.546875 13.140625 13.9609375 13.6015625 12.0078125 12.2421875 13.1953125 12.359375 10.40625 9.609375 10.8359375 14.96875 17.1796875 16.546875 15.546875 14.9140625 15.3515625 16.28125 16.3828125 17.6484375 18.2421875 17.6953125 18.875 19.828125 19.7578125 27.40625 34.0390625 24.6796875 17.8671875 20.8203125 23.2734375 24.671875 24.3984375 23.109375 20.109375 16.265625 16.0234375 18.140625 20.8671875 22.3046875 23.6484375 22.5390625 20.3203125 22.25 22.296875 20.2890625 18.953125 19.21875 22.515625 21.578125 17.9609375 17.359375 18.5546875 19.53125 17.9375 14.828125 7.421875 4.03125 4 4 4 4 4 4 4.015625 4.3984375 5.0859375 5.765625 6.2578125 6.484375 6.4765625 7.9609375 9.8984375 10.875 11.5 12.234375 12.3125 12.34375 12.3828125 12.40625 12.359375 12.1953125 12.015625 12.0703125 12.453125 12.6640625 13.5703125 14.7578125 15.9375 15.3828125 13.78125 13.3125 12.890625 11.953125 12.046875 12.359375 12.1875 11.21875 10.8671875 10.3828125 11.9296875 12.375 11.984375 11.3125 10.578125 10.46875 10.859375 11.4140625 11.1640625 10.2890625 7.9140625 7.546875 7.953125 8.609375 10.4609375 10.2421875 8.71875 8.328125 9.09375 9.9140625 9.359375 8.4375 8.9765625 10.453125 10.3203125 9.859375 10.25 10.3125 9.734375 9.5859375 9.984375 10.5390625 9.8984375 9.3359375 8.78125 7.4375 6.765625
14.8671875 14.71875 14.4375 14.5 15.1796875 14.6328125 13.9765625 13.359375 12.7890625 12.5703125 13.546875 14.84375 15.484375 11.53125 10.1953125 13.03125 13.3984375 13.0078125 16.421875 19.6328125 14.9375 11.59375 11.7890625 11.890625 11.6328125 11.78125 11.96875 11.953125 11.96875 12.0859375 12.234375 13.15625 15.15625 16.53125 16.3359375 15.921875 16.625 16.8046875 16.9609375 17.1484375 16.7890625 16.0625 15.5703125 16.3515625 18.375 18.9921875 18.8359375 16.4375 14.84375 14.9140625 15.484375 16.6015625 17.3359375 17.15625 15.8125 15.1640625 15.453125 15.90625 15.875 12.9375 11.3984375 11.4453125 12.9921875 14.671875 16.078125 16.328125 16.0078125 14.859375 14.1796875 14.921875 14.6328125 14.90625 15.3359375 15.5078125 15.546875 16.0859375 15.4375 14.9453125 14.4296875 15.078125 15.34375 14.984375 12.796875 12.828125 14.0390625 13.109375 11.625 11.3046875 11.8984375 11.203125 9.953125 9.8515625 10.890625 14.8984375 17.5390625 17 15.1640625 14.703125 16.0390625 16.890625 16.4453125 16.578125 17.109375 17.4140625 17.234375 17.0546875 19.09375 27.84375 36.796875 26.2578125 17.4921875 18.6640625 20.1171875 22.234375 23.9921875 21.8671875 18.921875 17.359375 16.71875 19.9609375 22.2109375 21.3125 21.515625 20.2890625 17.5078125 18.375 19.9921875 22.4765625 21.1171875 18.671875 19.203125 19.4921875 17.734375 17.21875 18.5859375 19.5625 18.3203125 14.34375 8.7578125 4.2265625 4 4 4 4 4 4 4 4.1484375 4.5625 4.7890625 4.8671875 4.9609375 5.25 7.90625 11.1015625 11.796875 11.515625 11.5078125 11.578125 11.6171875 11.578125 11.4375 11.2890625 11.109375 10.9296875 10.953125 11.2578125 11.875 13.0859375 14.328125 15.53125 15.8828125 14.6015625 14.0078125 13.1875 12.3515625 12.609375 13.2890625 12.8203125 11.3359375 10.625 10.4453125 11.25 11.3984375 11.5234375 11.375 11.2734375 11.140625 10.875 10.1484375 9.65625 10.65625 9.6328125 9.3828125 8.9609375 9.53125 10.6875 9.28125 8.7890625 9.125 9.1875 9.421875 9.7578125 9.109375 9.09375 9.7109375 9.3828125 9.1953125 9.6640625 10.3203125 9.984375 10.5390625 11.4921875 12.34375 11.609375 10.296875 9.3671875 7.4609375 6.2109375
15.0078125 14.984375 14.6640625 14.2734375 14.546875 13.9921875 13.34375 12.765625 12.421875 12.6640625 13.3359375 14.4296875 14.96875 11.078125 11.140625 12.734375 12.6171875 12.6171875 14.6484375 14.359375 11.8671875 11.59375 12.8125 12.46875 11.8984375 11.9140625 11.9140625 12.03125 12.3203125 12.703125 13.140625 13.625 13.0390625 13.6484375 14.65625 15.328125 15.953125 16.203125 16.3984375 16.59375 16.390625 16.03125 15.8046875 15.9375 16.515625 17.421875 16.46875 15.6640625 15.9453125 16.28125 16.59375 16.671875 16.8046875 16.8671875 17.2265625 15.578125 15.0390625 15.640625 15.28125 12.4921875 10.7109375 9.3125 10.828125 14.25 15.390625 15.3125 16.0390625 15.234375 13.6875 14.6015625 15.390625 16.03125 16.1875 15.328125 15.359375 16.6640625 15.7421875 13.1953125 12.8046875 14.375 16.5546875 16.5 14.0234375 13.0078125 13.3046875 11.6875 11.4921875 11.0390625 11.6640625 10.953125 10.453125 10.1484375 10.9921875 12.28125 14.7109375 15.3828125 14.375 13.828125 14.5546875 14.6484375 14.7109375 15.734375 15.7109375 16.359375 16.8203125 17.0078125 17.9140625 21.0546875 25.0234375 19.65625 16.109375 18.15625 18.7265625 19.78125 23.421875 21.09375 18.578125 17.875 18.1015625 20.3125 20.5078125 19.359375 18.96875 16.65625 15.9921875 18.3125 24.0234375 28.265625 25.953125 21.3828125 17.75 18.96875 18.3828125 17.0703125 19.4296875 20.3046875 18.609375 14.40625 9.421875 4 4 4 4 4 4 4 4 4 4.0234375 4.1015625 4.1953125 4.3046875 5.34375 8.1796875 10.734375 11.5 10.59375 10.7109375 10.75 10.796875 10.6953125 10.4140625 10.21875 10.0234375 9.84375 9.828125 10.265625 11.359375 12.6015625 13.8515625 15.0859375 16.03125 15.40625 14.6796875 14.375 14.4296875 14.375 14.328125 13.0234375 11.515625 10.6796875 10.234375 10.4140625 10.7109375 11.1171875 11.3515625 11.109375 10.75 10.3671875 9.9140625 8.4296875 8.9453125 10.0390625 10.3984375 9.328125 10.5625 10.6328125 9.84375 9.6796875 10.4765625 10.21875 10.203125 9.84375 9.6953125 9.453125 9.4921875 9.7265625 9.5390625 9.578125 10.0546875 10.34375 10.8515625 11.265625 11.90625 11.84375 10.96875 10.3046875 8.8046875 7.65625
14.84375 15.2109375 14.8828125 14.375 14.0546875 13.671875 13.34375 12.9921875 13.203125 13.8984375 13.3125 12.9921875 12.3359375 10.9296875 13.1796875 14.8984375 14.640625 13.453125 13.2421875 13.1953125 13.40625 13.796875 14.59375 13.4609375 12.234375 11.796875 10.7265625 10.9140625 11.5625 12.2578125 13.359375 13.65625 11.6640625 11.4609375 12.8671875 14.140625 14.90625 15.625 15.0390625 15.234375 15.265625 14.609375 14.265625 15.015625 15.625 15 14.8828125 15.78125 16.2734375 16.8046875 17.2109375 16.5703125 16.609375 17.40625 17.9375 15.921875 13.734375 13.4453125 13.96875 12.6953125 11.4375 10.2734375 11.1015625 12.6484375 14.328125 15.578125 16.6875 15.9140625 15.0390625 14.671875 15.1640625 15.8984375 15.46875 14.515625 14.4296875 15.3828125 15.1796875 13.5078125 12.3515625 13.3046875 15.8515625 15.609375 12.9765625 11.7734375 12.28125 11.09375 10.5703125 10.4375 12.1640625 11.0625 10.7421875 9.7578125 10.0390625 11.6953125 14.1875 15.3671875 15.9765625 15.8203125 13.75 11.40625 11.9296875 13.5546875 13.2109375 14.7734375 15.90625 17.34375 18.0234375 19.1875 19.703125 18.2734375 16.4140625 18.0546875 19.1484375 19.3671875 22.171875 20.390625 17.9296875 17.8828125 19.375 22.4140625 22.3515625 20.984375 18.8515625 16.2578125 15.4375 17.390625 23.453125 28.78125 29.1484375 24.125 19.9375 18.9140625 17.625 16.2734375 19.765625 21.046875 18.2578125 14.6796875 9.9765625 4.1796875 4 4 4 4 4 4 4 4 4 4 4 4 5.046875 7.0625 8.703125 9.40625 9.8046875 10.375 10.578125 10.796875 10.7734375 10.2109375 9.6796875 9.171875 8.8125 8.7578125 9.6328125 10.8671875 12.1015625 13.34375 14.578125 15.78125 16.015625 15.484375 15.609375 15.5703125 15.078125 14.5859375 12.8671875 11.640625 10.9296875 10.5078125 10.390625 10.3203125 10.2890625 10.234375 10.203125 10.09375 9.8359375 9.609375 9.1171875 8.859375 10.78125 12.890625 11.015625 10.8828125 10.9296875 10.515625 10.640625 11.890625 11.6171875 11.296875 10.578125 9.96875 9.921875 10.15625 10.3046875 10.5234375 10.5546875 10.8125 10.953125 11.2578125 11.484375 11.7890625 11.96875 11.3828125 10.515625 9.65625 9.28125
14.9296875 15.5078125 15.8359375 15.0546875 14.109375 14.109375 14.0078125 13.1796875 14.2890625 15.703125 16.0703125 15.5078125 11.5546875 10.3359375 12.90625 14.203125 13.875 12.578125 14.8515625 15.3671875 15.640625 15.8984375 16.125 14.84375 13.0078125 12.203125 10.1875 10.2265625 11.0703125 12.5 14.4609375 14.03125 12.2578125 11.5078125 10.4296875 10.8515625 12.546875 13.9609375 14.1875 14.6015625 14.7578125 13.7578125 12.328125 12.8828125 15.40625 16.0546875 15.71875 16.1640625 16.46875 17.7109375 17.96875 17.0703125 16.375 17.1484375 17.3828125 15.6640625 14.1796875 13.2734375 13.25 14.0859375 12.1328125 11.6328125 13.15625 14.03125 15.0234375 16.328125 17.234375 17.1484375 17.1328125 15.34375 14.5 14.875 14.453125 13.8046875 13.6953125 13.84375 13.890625 14.25 13.8828125 13.1875 14.3359375 14.3125 12.78125 10.046875 9.890625 10.7734375 7.9609375 7.5 10.9453125 11.796875 11.453125 8.734375 9.1171875 12.390625 15.6328125 15.5703125 17.1484375 17.65625 15.5859375 12.0546875 10.6171875 11.453125 13.109375 15.0546875 16.1015625 17.453125 18.03125 18.578125 17.5390625 16.6328125 16.7890625 18.3203125 19.5078125 19.921875 21.25 19.9453125 16.8671875 17.421875 19.90625 22.546875 22.4609375 21.3046875 17.8125 15.953125 16.453125 18.375 21.921875 23.90625 23.90625 20.4453125 19.828125 18.4375 16.7578125 15.765625 17.5078125 19.8515625 18.0078125 15.03125 12.078125 5.125 4 4 4 4 4 4 4 4 4 4 4 4 4.9765625 6.8125 7.671875 8.1640625 9.671875 10.8984375 11.2421875 11.4140625 11.3359375 10.96875 10.3359375 9.546875 8.78125 8.4140625 9.3046875 10.3984375 11.515625 12.640625 13.78125 14.9375 15.4921875 15.65625 15.9609375 15.4453125 14.9296875 14.0078125 12.375 11.6875 11.3359375 11.4453125 11.484375 11.171875 11.0234375 10.7109375 10.0703125 9.5 9.2421875 9.5 10.3984375 10.15625 11.2734375 13.578125 12.609375 11.2265625 11.203125 10.7578125 11.0546875 12.7890625 13.140625 12.1171875 11.140625 10.2265625 10.515625 10.9453125 10.875 10.7890625 10.953125 11.3671875 11.4765625 11.71875 11.9765625 12.0859375 11.7890625 10.9609375 10.09375 9.9609375 10.234375
15.6171875 16.5859375 17.15625 15.6875 14.046875 13.3984375 13.359375 12.671875 14.0546875 15.3125 16.046875 15.5859375 12.765625 11.8828125 12 12.390625 12.71875 13.5703125 16.78125 15.5859375 15.5 15.40625 15.2578125 15 15.0859375 13.203125 10.6640625 10.2734375 11.578125 13.6953125 15.4921875 14.859375 14.3828125 14.7265625 12.8125 9.75 10.4140625 12.8828125 13.421875 14.125 14.421875 14.3359375 12.4453125 11.703125 13.15625 16.2109375 17.5703125 17.1484375 17.25 18.765625 18.6484375 17.46875 16.125 15.625 14.859375 14.296875 14.25 13.3125 13.25 16.6171875 17.4609375 14.8203125 14.2109375 14.421875 14.2109375 14.4921875 16.09375 17.78125 18.5234375 16.1953125 14.0390625 14.671875 14.5 13.6484375 13.03125 12.53125 11.4921875 12.09375 13.671875 13.890625 13.609375 12.953125 12.6171875 10.7578125 7.625 9.671875 6.8359375 6.5859375 11.296875 13.21875 12.5234375 10.140625 9.9453125 13.71875 17.2890625 16.171875 17.40625 17.5078125 15.0234375 12.046875 11.0078125 11.71875 11.9140625 11.8984375 15.2734375 16.953125 17.1953125 16.6640625 15.640625 15.859375 16.390625 18.109375 19.5078125 20.15625 20.2578125 19.2578125 15.890625 17.421875 22.21875 22.65625 19.65625 18.9921875 18.1953125 17.625 18.703125 19.8515625 20.40625 21.453125 21.4375 19.6015625 19.25 19.09375 18.0078125 15.6328125 15.1328125 17.4375 17.96875 16.171875 12.46875 5.453125 4 4 4 4 4 4 4 4 4 4 4 4 4.9140625 6.1484375 6.6640625 7.7265625 9.8203125 11.234375 11.9140625 11.953125 11.8359375 11.6640625 11.1484375 10.359375 9.5546875 8.9765625 9.453125 10.5078125 11.59375 12.6796875 13.7578125 14.8046875 15.0546875 15.21875 15.6015625 15.28125 14.7578125 14.09375 13.5234375 13.0390625 12.2265625 12.40625 13.1015625 12.6640625 11.7421875 11.21875 11.4140625 10.984375 10.1171875 10.1015625 10.6640625 11.15625 11.6484375 12.0234375 11.546875 10.9765625 11.1796875 10.7265625 11.609375 13.2890625 13.0546875 12.78125 11.765625 10.7265625 11.328125 11.7421875 11.0625 9.7265625 10.59375 11.703125 11.984375 12.1796875 12.203125 11.90625 11.4765625 10.625 9.8046875 10.109375 10.578125
14.03125 14.765625 16.6171875 15.953125 14.5859375 12.609375 11.4765625 11.5234375 13.203125 14.609375 15.203125 14.0703125 13.0390625 13.609375 11.5546875 10.6640625 11.9453125 12.7109375 13.234375 13.375 13.5 13.5 13.28125 12.96875 13.2578125 12.9375 12.0703125 12.09375 13.03125 14.4140625 15.5078125 14.5546875 14.7734375 15.3828125 14.7890625 11.0078125 11.3671875 13.4296875 13.6015625 13.46875 13.9296875 14.4921875 13.8671875 13.703125 13.9375 14.9609375 16.6484375 18.078125 18.4609375 19.3046875 18.46875 16.6640625 15.4375 15.3984375 14.7734375 14.609375 13.9296875 13.1328125 14.34375 17.1796875 17.84375 16.046875 14.546875 13.125 12.7890625 11.7421875 13.578125 17.5390625 19.1875 17.0546875 14.7890625 15.015625 14.6875 14.375 13.28125 11.9296875 10.2109375 11.671875 13.140625 13.03125 12.3203125 12.3828125 12.3515625 11.6796875 9.0703125 8.625 7.046875 6.15625 10.8125 12.4453125 12.265625 11.296875 12.3203125 14.5 15.1484375 15.3984375 16.7421875 17.0078125 14.9140625 11.7734375 11.2109375 11.8125 9.984375 9.2578125 13.4765625 15.53125 15.8125 15.28125 16.3828125 18.84375 18.484375 18.6328125 18.3984375 16.46875 15.984375 17.6640625 17.6015625 18.3359375 20.984375 18.859375 15.8359375 18.328125 21.796875 21.59375 22 21.3203125 20.3984375 19.6875 21.140625 20.1875 18.1640625 19.015625 19.234375 16.953125 15.265625 16.4765625 18.234375 18.5546875 15.1171875 7.875 4 4 4 4 4 4 4 4 4 4 4 4 4.5234375 5.171875 5.8203125 7.796875 9.96875 11.3359375 12.1328125 12.2890625 12.296875 12.21875 11.921875 11.1875 10.5625 10.125 9.765625 9.9609375 10.8984375 12.0234375 13.1484375 14.265625 14.5859375 15.0859375 15.2421875 14.703125 13.71875 13.7890625 13.6015625 13.3671875 13.1875 13.734375 14.3984375 13.28125 11.4609375 11.0390625 11.828125 12.03125 11.78125 11.7578125 11.8046875 11.7109375 11.59375 10.8046875 9.40625 9.25 10.203125 11.0078125 12.453125 13.265625 12.015625 12.28125 11.984375 11.84375 12.65625 12.546875 11.59375 9.4453125 10.0703125 11.625 12.4140625 12.453125 12.0078125 11.6171875 11.1640625 10.5546875 10.2578125 9.859375 10.21875
12.0078125 11.71875 12.7421875 14.8984375 15.5234375 14.6015625 13.7109375 12.5390625 13.0703125 14.5859375 14.359375 13.53125 12.0390625 11.65625 9.7421875 9.2890625 9.3671875 9.9140625 11.296875 12.265625 12.7109375 12.875 12.8828125 12.5859375 12.2890625 12.828125 12.875 13.578125 14.640625 15.34375 14.5625 13.4296875 13.9140625 14.6875 14.9140625 13.265625 13.109375 13.796875 12.84375 12.46875 13.3359375 14.3125 15.5234375 17.7890625 18.1328125 17.9921875 17.1015625 17.2890625 17.4609375 17.625 17.1796875 15.265625 14.3671875 15.1953125 16.5703125 16.0625 14.0546875 13.0703125 14.15625 14.234375 14.75 14.875 13.9296875 12.6640625 11.734375 10.59375 12.8359375 17.1640625 17.9609375 16.6171875 15.921875 15.8984375 15.609375 16.640625 15.5078125 12.7734375 9.203125 10.90625 12.9375 13.1875 12.1015625 12.8046875 13 11.765625 11.421875 12.40625 11.421875 8.796875 11.640625 12.5078125 11.3125 10.546875 11.6796875 13.203125 13.375 14.3046875 15.2734375 16.140625 14.96875 12.828125 11.9921875 13.7421875 12.9609375 12.9921875 14.390625 15.0234375 15.2578125 14.6015625 15.75 19.2265625 21.140625 20.46875 18.46875 16.5078125 16.546875 17.7734375 19.5859375 19.6640625 19.015625 17.5234375 15.34375 16.484375 18.84375 21.4296875 24.1796875 22.6484375 20.234375 17.6875 20.2109375 21.3828125 19.1328125 18.2265625 19.171875 17.609375 16.984375 18.34375 20.046875 20.1328125 17.4140625 11.3125 4.640625 4 4 4 4 4 4 4 4 4 4 4 4.0703125 4.484375 5.5546875 8.03125 9.8984375 10.5859375 10.9765625 11.359375 11.75 12.0859375 12.28125 12.1640625 11.859375 11.4765625 11.0625 10.6484375 10.515625 11.1796875 12.2734375 13.3984375 13.90625 14.859375 15.265625 13.90625 12.5703125 13.1953125 13.109375 12.859375 13.1328125 14.171875 13.921875 12.421875 10.5859375 10.9296875 12.9140625 13.078125 12.3828125 11.9296875 11.78125 11.6875 11.5859375 11.265625 9.5625 10.578125 11.46875 11.9375 13.3203125 12.4296875 11.15625 12.25 11.40625 11.4609375 13.8046875 13.109375 11.3046875 9.390625 9.3046875 11.1484375 11.96875 11.640625 11.3984375 11.1171875 10.984375 11.578125 11.28125 9.9375 9.859375
10.25 8.6953125 8.6796875 12.1875 15.75 16.53125 15.421875 13.328125 12.71875 14.4765625 14.6796875 13.875 12.578125 12.2734375 11.84375 10.9296875 10.078125 11.2578125 12.2578125 12.1875 12.5859375 12.7265625 12.78125 12.671875 12.078125 12.0625 11.953125 13.4296875 15.7890625 15.6015625 14.0078125 13.7890625 14.4609375 16.03125 15.7578125 13.390625 12.453125 13.0703125 11.7578125 12.34375 13.359375 14.265625 15.34375 17.6640625 18.1875 17.796875 15.8359375 14.90625 15.4765625 15.734375 15.703125 14.53125 13.875 14.0859375 16.0078125 15.8984375 14.921875 14.84375 14.21875 12.25 11.8671875 14.125 15.3125 13.8671875 11.5546875 10.6484375 14.0625 16.15625 15.109375 14.84375 15.2265625 15.578125 16.390625 17.5078125 17.2109375 14.59375 10.1640625 10.328125 12.0859375 12.890625 13.5859375 14.0078125 13.6875 12.1328125 12.5 13.3359375 12.9765625 12.9296875 14.0078125 13.5546875 11.8671875 10.6875 10.9296875 12.140625 12.7734375 13.5703125 14.4375 14.484375 13.3203125 12.953125 12.8125 15.1328125 14.78125 14.3984375 14.5546875 14.2265625 13.875 13.5703125 14.03125 16.8671875 19.015625 18.296875 17.3671875 17.484375 18.1171875 17.75 18.1015625 18.875 19.703125 19.96875 16.8671875 15.6171875 17.15625 20.7890625 28.53125 27.140625 21.5390625 20.109375 20.34375 19.109375 17.9296875 17.4453125 18.7109375 18.9609375 19.34375 19.890625 20.8125 20.484375 17.296875 14.640625 6.7734375 4 4 4 4 4 4 4 4 4 4 4 4.0078125 4.3828125 5.359375 7.7578125 9.3359375 9.765625 10.1953125 10.625 11.046875 11.46875 11.8828125 12.296875 12.3359375 12.2734375 12.125 11.890625 11.5625 11.25 11.5390625 12.53125 13.2890625 14.5 15.4140625 13.171875 11.5546875 12.546875 12.625 12.46875 13.0234375 13.1171875 12.1015625 10.9453125 10.2109375 11.65625 13.6640625 13.765625 13.2890625 12.5859375 11.9609375 11.6953125 11.59375 11.578125 11.0078125 11.7734375 11.8046875 11.4765625 12.0625 11.6171875 11.0703125 12.140625 11.7109375 11.1171875 13.5234375 12.671875 9.9609375 9.59375 9.140625 10.2734375 10.4140625 9.84375 9.7734375 9.6015625 9.8828125 10.71875 10.9765625 10.328125 9.8984375
9.3203125 7.9375 8.40625 11.0625 14.8671875 16.40625 15.5703125 14.0390625 14.2890625 15.1484375 15.7578125 15.015625 15.2578125 14.984375 14.1640625 14.7890625 14.6953125 13.7578125 12.8828125 12.6328125 12.515625 12.09375 11.640625 11.25 10.90625 11.40625 11.890625 13.7265625 16.109375 16.6171875 15.78125 15.6953125 15.71875 15.734375 14.234375 12.1015625 10.3671875 11.1171875 10.8203125 11.328125 12.4765625 13.4140625 14.0078125 13.875 13.8828125 14.1171875 12.2890625 11.75 14.0859375 14.921875 15.203125 14.59375 14 13.59375 14.609375 14.640625 14.7734375 15.65625 14.4375 11.6640625 11.359375 13.1875 14.0703125 13.984375 13.1484375 12.6484375 13.796875 14.140625 14.265625 15.3984375 16.609375 15.65625 15.875 16.203125 15.796875 14.15625 12.296875 12.109375 13.359375 13.7890625 14.796875 14.65625 14.25 13.53125 13.578125 11.7890625 11.1171875 12.984375 15.921875 15.4140625 12.1875 10.203125 9.8515625 12.234375 13.0234375 13.5625 14.1796875 14.0390625 13.375 12.8671875 11.7421875 12.1796875 13.4921875 13.671875 14.109375 14.6953125 13.5546875 12.28125 13.7265625 15.921875 16.8046875 16.75 17.6484375 18.2890625 17.8671875 16.8828125 16.265625 17.4375 19.984375 20.7421875 18.296875 18.6796875 19.796875 21.203125 28.4921875 28.96875 20.5703125 20.78125 22.140625 18.109375 15.71875 16.96875 20.078125 20.890625 19.46875 18.5546875 18.15625 18.5078125 16.8359375 13.3671875 6.9140625 4 4 4 4 4 4 4 4 4 4 4 4 4.3828125 5.046875 7.109375 8.7734375 9.21875 9.640625 10.0703125 10.5 10.9453125 11.3984375 11.9453125 12.2109375 12.203125 12.1796875 12.15625 12.125 12.0390625 11.875 11.9765625 12.71875 14.0390625 15.2734375 13.3359375 11.03125 11.8515625 12.1953125 12.203125 12.2890625 11.546875 11.140625 11.34375 11.8671875 13.7890625 13.8203125 13.609375 13.515625 13.140625 12.6171875 12.03125 11.640625 11.6640625 11.6484375 11.5078125 11.3359375 11.2734375 11.8671875 11.734375 11.1953125 12.0390625 12.2421875 12.265625 14.078125 12.3984375 9.5234375 10.625 10.0078125 9.765625 9.96875 9.4375 10.25 9.703125 9.3671875 9.6015625 9.234375 9.9296875 10.6015625
8.828125 8.2734375 9.09375 9.8125 13.140625 15.640625 15.546875 15.609375 15.625 13.9765625 14.7109375 15.5625 16.75 16.0390625 15.640625 16.3359375 16.1484375 14.9375 13.3046875 12.9296875 12.8828125 12.1328125 11.3203125 10.5703125 10.6953125 12.9140625 14.6796875 15.765625 16.8828125 18.1015625 16.0625 13.96875 11.875 10.4609375 10.953125 10.609375 9.625 10.8671875 11.015625 10.34375 11.0078125 12.140625 13.359375 13.640625 13.5390625 11.4453125 8.4765625 9.6796875 13.8203125 15.1796875 15.59375 14.9453125 13.953125 13.421875 14.515625 14.2265625 15.2265625 16.015625 14.8515625 10.984375 11.6875 13.265625 13.734375 14.15625 14.25 14.265625 13.8203125 14.4609375 15.453125 16.6484375 17.953125 15.1640625 14.5 14.7265625 15.03125 13.9609375 13.21875 13.7265625 14.9921875 15.6171875 15.625 14.921875 14.6796875 14.875 14.0859375 12.0546875 11.703125 14 16.7421875 15.984375 12.5234375 10.5 9.6171875 12.5546875 13.453125 14.03125 14.6328125 14.75 14.1171875 14.015625 12.96875 11.734375 10.9765625 12.328125 14.6171875 14.8828125 14.7109375 13.1484375 14.3984375 16.7890625 16.9921875 17.6953125 18.7578125 18.3671875 17.328125 17.390625 16.0625 16.0859375 19.1015625 19.703125 18.5390625 19.96875 19.6953125 19.8046875 24.578125 23.625 19.6796875 19.9453125 21.7421875 18.953125 16.28125 17.390625 20.125 20.6484375 18.6953125 17.34375 16.53125 17.625 17.390625 14.25 9.375 4.4296875 4 4 4 4 4 4 4 4 4 4 4 4.375 4.8046875 6.4609375 8.203125 8.6640625 9.09375 9.5234375 9.9609375 10.4609375 10.921875 11.4765625 11.96875 12.09375 12.0703125 12.046875 12.0234375 12 11.9765625 11.953125 12.15625 12.71875 13.4296875 14.03125 13.171875 11.65625 11.703125 11.890625 11.6953125 12.046875 12.828125 13.609375 14.3515625 14.3515625 13.3359375 13.34375 13.3515625 13.2421875 12.8515625 12.40625 11.9375 11.625 11.6875 11.6640625 11.59375 11.890625 11.875 11.375 11.078125 11.1953125 11.953125 11.4609375 12.3125 11.3828125 10.4453125 11.40625 11.0703125 9.7265625 10.2421875 11.46875 12.078125 11.0390625 10.7421875 10.4609375 8.5234375 10.234375 11.5703125
8.3125 7.640625 7.234375 7.5 10.953125 13.75 14.625 15.6953125 16.15625 14.796875 14.8984375 15.21875 15.6484375 14.9296875 15.6640625 16.546875 16.765625 15.9296875 13.9921875 13.1875 13.3515625 12.7109375 12.5390625 12.8359375 13.5546875 14.7578125 15.328125 16.1796875 17.484375 18.953125 16.1796875 12.5234375 10.8125 9.28125 10.359375 12.6015625 14.125 15.71875 14.8203125 12.703125 11.921875 10.734375 11.375 12.875 14.0546875 11.5 9.421875 12.3515625 16.1328125 16.3515625 15.96875 14.734375 13 13.90625 13.0859375 12.40625 14.8828125 15.09375 13.609375 10.515625 11.2890625 14.0078125 14.53125 14.65625 15.4375 15.171875 15.203125 16.078125 16.15625 16.046875 15.5078125 13.7734375 13.59375 14.515625 15.9453125 14.8125 14.171875 15 15.34375 15.03125 15.2421875 15.421875 15.53125 15.546875 14.7421875 13.6328125 13.796875 14.484375 14.5 13.3671875 11.734375 11.1640625 10.9765625 12 13.5 14.4140625 14.828125 14.9140625 14.25 13.9609375 10.7578125 8.6796875 8.8359375 12.234375 16.6875 15.28125 15.1171875 14.96875 15.3828125 17.1328125 17.8984375 18.140625 17.8984375 17.25 18.0390625 19.0859375 16.9921875 16.6875 18.4921875 18.5078125 18.25 18.8203125 18.21875 18.5625 20.671875 20.59375 19.9375 19.9296875 19.9765625 19.0234375 18.34375 19.0859375 19.9140625 20.6875 19.078125 17.8515625 17.28125 17.1796875 16.265625 14.5390625 12.2890625 7.7109375 4.3828125 4 4 4 4 4 4 4 4 4 4 4.359375 4.65625 5.8515625 7.640625 8.1171875 8.5390625 8.96875 9.4453125 9.9765625 10.4375 10.9921875 11.546875 11.9296875 11.953125 11.9375 11.9140625 11.890625 11.8671875 11.859375 12.0859375 12.4609375 12.8984375 13.328125 13.6796875 12.4921875 11.9375 12.1015625 12.21875 12.34375 12.609375 13.0859375 13.765625 13.3828125 13.0703125 13.078125 13.09375 13.09375 12.96875 12.5625 12.1171875 12.03125 11.9921875 11.96875 12.0234375 12.0078125 11.5703125 11.171875 10.796875 10.734375 11.3515625 11.625 10.6328125 10.1328125 10.8046875 10.6796875 9.8125 9.8515625 10.25 10.8828125 12.0703125 11.75 10.7109375 9.6796875 8.9375 10.359375 11.0703125
8.3359375 7.6171875 6.25 7.3125 9.125 10.3359375 12.6484375 15.2421875 17.03125 17.1171875 15.8828125 14.59375 14.6015625 15.0625 16.3515625 16.609375 16.3984375 16.2109375 13.8828125 12.6640625 13.9921875 14.765625 15.765625 16.7109375 16.96875 15.984375 15.078125 16.1015625 17.4609375 17.359375 14.78125 13.3359375 11.9375 10.5078125 13.953125 18.6484375 20.25 18.96875 16.6875 14.6015625 13.5859375 11.9609375 11.28125 11.875 12.8359375 12.421875 12.859375 14.2109375 15.7734375 14.0078125 13.03125 12.6640625 12.3515625 11.15625 8.5703125 8.5078125 10.03125 10.875 11.1640625 10.5546875 10.234375 11.75 13.8125 15.4296875 16.2890625 15.5546875 15.1796875 15.1875 15.7109375 15.3359375 12.8359375 13.296875 14.8203125 16.28125 16.84375 15.9375 15.0625 15.2890625 14.3515625 14 14.84375 14.8671875 15.5546875 15.6171875 16.1015625 16.28125 15.3515625 13.1328125 12.5390625 13.078125 13.03125 13.5546875 13.4921875 12.75 13.5703125 15.2421875 15.9140625 15.125 13.25 12.109375 7.0703125 2.7265625 7.9453125 15.296875 17.3984375 14.453125 16.5390625 16.7109375 14.46875 15.078125 17.4296875 18.9921875 17.7578125 16.640625 17.2265625 18.03125 17.6953125 17.9375 18.125 18.015625 17.8359375 17.296875 16.9921875 18.4140625 18.34375 17.8359375 19.203125 18.765625 17.8828125 17.75 18.53125 19.6640625 20.09375 19.546875 17.4140625 17.671875 17.8046875 15.921875 15.25 15.96875 15.3359375 12.0546875 6.0078125 4.1015625 4 4 4 4 4 4 4 4 4 4.3359375 4.5546875 5.328125 7.0703125 7.5625 7.9921875 8.4375 8.9609375 9.5 9.9609375 10.515625 11.0703125 11.6015625 11.84375 11.828125 11.8046875 11.78125 11.7578125 11.78125 12.078125 12.3984375 12.828125 13.2578125 13.359375 12.1171875 11.9609375 12.296875 12.453125 12.59375 12.7421875 12.8828125 12.9296875 12.921875 12.9453125 12.8828125 12.8515625 12.8359375 12.84375 12.6875 12.3203125 12.9609375 12.578125 12.265625 12.140625 11.7578125 11.3671875 10.96875 10.578125 10.3203125 10.5703125 11.1328125 10.7109375 10.3046875 9.8203125 9.3671875 9.6796875 10.1640625 10.5859375 10.390625 10.90625 11.34375 10.78125 10.34375 10.703125 10.765625 10.6875
9.0625 8.125 7.046875 7.1640625 7.8984375 9.8984375 12.578125 15.2890625 17.125 17.25 14.890625 13.265625 14.1953125 15.828125 16.1484375 14.8515625 14.6015625 14.4921875 13.0390625 12.4921875 13.6484375 14.6015625 15.3828125 15.921875 16.0625 15.5234375 15.6953125 17.1875 18.0625 15.7421875 14.375 13.3125 11.6484375 11.4296875 16.96875 21.859375 21.125 15.1953125 13.375 12.8203125 13.5078125 13.984375 14.5859375 14.2734375 13.2265625 12.96875 10.65625 8.828125 10.390625 9.1640625 9.0859375 10.3046875 10.3984375 9.15625 8 8 8.109375 8.390625 9.15625 10.265625 10.1640625 10 13.578125 15.671875 15.2265625 14.59375 14.046875 13.796875 14.8671875 15.5 14.53125 15.296875 16.4375 17.0546875 16.78125 16.4453125 15.984375 16.5546875 15.578125 14.0546875 13.953125 12.953125 14.2421875 14.90625 15.8125 17.328125 17.375 15.0390625 14.3046875 15.6328125 16.0703125 17.6953125 17.8671875 15.828125 15.4921875 17.9375 18.3046875 15.7265625 13.4140625 11.4453125 9.6953125 6.703125 8.671875 13.7265625 14.0546875 17.859375 28.078125 25.625 18.109375 17.34375 18.15625 18.3203125 17.1953125 16.34375 15.7578125 15.359375 16.375 17.6171875 18 17.5625 16.6171875 16.921875 16.8828125 18.3203125 18.4140625 18.2578125 18.9296875 18.359375 16.3671875 15.1875 17.171875 20.625 20.6015625 17.6640625 16.09375 17.4921875 17.9609375 16.0234375 16.078125 17.1796875 16.890625 13.09375 6.34375 4.0234375 4 4 4 4 4 4 4 4 4 4.296875 4.4609375 4.8984375 6.4921875 7.015625 7.4453125 7.9296875 8.484375 9.015625 9.4765625 10.03125 10.5859375 11.140625 11.6171875 11.71875 11.6875 11.671875 11.6484375 11.7265625 12.1015625 12.328125 12.7578125 13.1640625 12.84375 11.703125 11.84375 12.3984375 12.609375 12.7578125 12.8984375 13.0234375 12.703125 12.71875 13.0390625 12.9453125 12.84375 12.75 12.671875 12.6171875 12.6953125 14.0703125 13.90625 12.3828125 11.9765625 11.5703125 11.171875 10.7734375 10.375 9.9921875 9.90625 9.65625 9.453125 9.1328125 9.0625 9.5 9.9765625 10.4609375 10.9375 11 10.4296875 10.7578125 10.890625 10.7265625 10.5859375 10.4453125 10.3671875
10.390625 9.25 7.796875 6.46875 6.4609375 12.4375 15.1171875 15.9921875 16.1953125 15.6484375 12.890625 12.875 15.2109375 16.625 16.3984375 16.1953125 15.234375 13.859375 12.765625 12.6796875 13.4453125 14.234375 14.609375 14.96875 15.46875 16.0625 16.5859375 17.4296875 17.5 16.3125 15.9375 13.046875 11.546875 11.453125 15.203125 16.6875 12.7890625 8.9140625 7.2265625 8.2421875 10.8046875 13.8515625 16.1796875 15.84375 13.328125 11.5546875 8.5625 8 8 8 8.0234375 8.34375 8.5390625 8.234375 8 8 8.125 8.53125 9.234375 9.984375 10.8828125 12.25 14.2578125 14.8828125 13.84375 13.421875 13.0078125 12.59375 13.4375 14.40625 14.6484375 15.65625 16.0625 16.1015625 15.390625 15.1953125 15.765625 16.2578125 15.65625 13.59375 13.3359375 13.3125 13.0078125 11.7890625 12.953125 15.25 16.125 14.4921875 13.7265625 15.0390625 15.8671875 17.734375 20.390625 20.6953125 19.578125 23.3125 19.2890625 14.7265625 13.7421875 10.8671875 9.1484375 5.7578125 4.140625 4.7421875 5.9375 18.6640625 29.5625 28.2109375 21.8515625 19.140625 18.953125 19.4375 19.9453125 17.6875 15.7890625 16.046875 16.3203125 16.609375 18.4609375 18.3125 17.015625 17.4765625 17.0546875 17.5 17.6015625 19.3046875 19.8046875 18.5859375 17.203125 15.90625 16.4140625 17.75 18.5078125 18.625 18.0625 19.5703125 18.8125 16.3046875 17.3125 18.8671875 16.828125 12.3046875 6.875 4.1015625 4 4 4 4 4 4 4 4 4 4.2578125 4.359375 4.5625 5.9140625 6.4609375 6.9140625 7.4453125 8 8.5390625 9 9.5546875 10.109375 10.6640625 11.2109375 11.5703125 11.578125 11.5625 11.53125 11.6953125 12.15625 12.2578125 12.6875 12.859375 12.234375 11.3359375 11.7109375 12.484375 12.7734375 12.921875 13.0625 12.953125 12.2890625 12.3515625 13.125 13.046875 12.9453125 12.8515625 12.75 12.6484375 12.8671875 13.640625 13.6796875 12.15625 11.9375 11.5234375 11.1015625 10.6796875 10.2734375 9.9921875 9.9296875 9.828125 9.7578125 9.7890625 9.9140625 10.1171875 10.40625 10.78125 11.234375 11.640625 11.078125 10.5625 10.53125 10.4296875 10.265625 10.125 10.046875
11.4921875 10.3515625 8.9296875 7.6796875 6.0078125 10.859375 14.796875 14.1328125 15.1953125 14.8203125 13.1328125 13.1484375 15.4765625 16.4375 17.1640625 17.78125 16.2734375 14.8359375 13.6328125 13.546875 14.2734375 14.6171875 14.765625 15.0625 15.6796875 16.71875 16.6484375 16.9765625 17.71875 18.9296875 18.2890625 15.3671875 15.8359375 13.96875 12.4296875 12.5078125 8.7734375 6.9375 6.15625 7.125 9.6171875 12.2890625 14.109375 13.0546875 12.2109375 11.0234375 8.9296875 8 8 8 8 8 8 8 8.0234375 8.1171875 8.9296875 9.40625 9.5859375 9.7734375 11.1875 13.25 13.9921875 13.9609375 13.265625 12.5703125 12.359375 12.515625 13.7421875 14.796875 14.46875 14.171875 14.0078125 13.9765625 13.3984375 13.9140625 14.5078125 14.0625 14.0625 13.5859375 14.09375 13.6875 12.7109375 10.734375 12.6796875 15.359375 14.46875 12.1484375 11.203125 12.8203125 13.578125 13.3046875 16.125 21.7890625 24.8984375 28.515625 18.953125 16.0859375 14.9453125 9.8125 7.890625 6.09375 4.6171875 4.4765625 4.5390625 14.5234375 19.390625 17.0859375 16.2421875 15.46875 16.8359375 19.1015625 20.234375 17.3515625 15.21875 16.8828125 16.921875 17.9921875 20.5703125 19.6875 17.96875 17.9375 17.3828125 16.953125 17.125 18.203125 18.5546875 17.84375 17.1484375 17.265625 16.7421875 15.96875 17.9140625 19.7265625 20.2109375 22.6796875 20.1796875 17.71875 19.6484375 21.5 18.390625 13.453125 7.9921875 4.3671875 4 4 4 4 4 4 4 4 4 4.203125 4.265625 4.3125 5.328125 5.9140625 6.4140625 6.96875 7.5234375 8.0546875 8.515625 9.0703125 9.625 10.1796875 10.734375 11.265625 11.46875 11.4453125 11.421875 11.6796875 12.2265625 12.203125 12.625 12.328125 11.734375 11.015625 11.578125 12.546875 12.9375 13.0859375 13.125 12.59375 11.875 11.875 13.0859375 13.15625 13.0546875 12.953125 12.875 12.7265625 12.828125 12.3828125 11.703125 11.8359375 11.9296875 11.515625 11.15625 10.9375 10.8828125 11.25 11.5 11.53125 11.53125 11.375 11.2734375 11.3359375 11.453125 11.578125 11.7578125 12.015625 12.015625 10.90625 10.0078125 10.046875 9.9609375 9.8125 9.7265625
11.5078125 10.859375 9.671875 8.4921875 5.6875 6.7421875 9.734375 10.7578125 13.640625 13.453125 13.2734375 13.28125 14.1484375 16.1640625 17 16.2734375 14.8984375 15.0390625 15.578125 15.578125 14.53125 14.90625 15.4609375 16.2109375 16.28125 15.46875 15.203125 15.7734375 17.6953125 19.828125 19.5078125 18.2890625 18.59375 14.7578125 12.1640625 11.265625 10.265625 9.1640625 8.1171875 7.0859375 8.6796875 11.2578125 12.5390625 11.03125 9.28125 8.7890625 8.609375 8.125 8.03125 8.0078125 8 8 8 8 8.1328125 8.65625 9.734375 10.390625 10.671875 10.1484375 12.0546875 14.5703125 13.640625 13.140625 13.9921875 14.296875 13.5625 13.3203125 15.234375 16.1328125 15.3515625 13.1640625 12.078125 12.6484375 13.1796875 13.7421875 13.65625 13.84375 14.078125 13.34375 12.28125 12.109375 12.3984375 12.4375 13.546875 14.6875 14.4765625 13.21875 12.765625 12.546875 12.9765625 13.046875 13.7734375 15.9296875 18.359375 20.6015625 15.375 13.640625 13.3515625 10.1953125 9.7578125 9.390625 10.515625 12.171875 12.1875 15.5859375 17.09375 13.9375 13.2890625 14.6640625 16.4921875 18.0703125 18.5078125 18.2578125 16.2421875 17.0078125 17.8515625 19.75 20.9765625 19.0234375 18.3125 18.4296875 18.828125 18.71875 18.1328125 16.6171875 16.875 17.5859375 16.65625 17.671875 18.15625 17.8515625 18.40625 19.7890625 22.1875 24.078125 21.71875 18.7109375 19.3203125 20.4296875 17.5390625 14.1171875 9.140625 4.421875 4 4 4 4 4 4 4 4 4 4.1328125 4.1640625 4.1640625 4.7890625 5.390625 5.9375 6.4921875 7.0390625 7.578125 8.0390625 8.59375 9.1484375 9.703125 10.2578125 10.8046875 11.265625 11.3359375 11.328125 11.6875 12.3046875 12.1796875 12.453125 11.625 11.2578125 10.7265625 11.4140625 12.578125 13.1015625 13.21875 12.890625 12.171875 11.46875 11.375 12.8203125 13.2578125 13.15625 13.0625 13.109375 12.65625 12.5625 11.71875 10.640625 11.1640625 11.8828125 11.953125 11.9609375 12.0078125 12.4453125 13.125 13.1328125 12.953125 12.6640625 11.984375 11.328125 11.015625 10.8515625 10.8515625 10.9765625 11.1796875 11.9140625 11.5546875 10.0234375 9.1484375 9.484375 9.5078125 9.421875
11.4140625 11.1796875 9.96875 8.9140625 8.1015625 8.1640625 9.0390625 10.5 11.9453125 12.0234375 12.65625 12.84375 13.6328125 15.4296875 16.9296875 16.90625 15.5703125 15.2890625 16.765625 17.359375 15.328125 15.4296875 16.21875 16.6171875 15.9453125 15.1484375 14.8203125 15.328125 16.3515625 18.15625 19.859375 20.2578125 19.6796875 16.4296875 13.203125 12.75 13.703125 11.796875 10.2734375 8.703125 8.125 10.171875 11.0390625 9.625 9.3125 9.7890625 9.4140625 8.6015625 8.1953125 8.09375 8 8 8.109375 8.46875 9.375 10.1875 10.9921875 11.4453125 11.4453125 10.84375 13.59375 16.078125 14.0546875 12.84375 14.1875 15.34375 13.7109375 13.78125 15.578125 15.53125 15.546875 14.015625 12.6484375 12.796875 13.7578125 12.2109375 12.2265625 14.3984375 14.6875 13.4765625 11.984375 10.59375 10.8515625 12.875 13.3125 13.1796875 13.6875 14.375 14.25 13.46875 13.765625 14.796875 15.3828125 13.3359375 13.9375 17.8125 14.0625 13.5078125 14.125 13.1328125 13.46875 12.7890625 13.7109375 15.3515625 15.71875 15.3125 16.34375 14.6953125 13.6484375 15.09375 16.9296875 18.5390625 18.0703125 17.4765625 17.0703125 16.78125 18.1875 20.0546875 19.828125 18.984375 18.90625 18.4765625 19.3203125 19.6640625 18.921875 17.171875 16.4921875 17.8203125 18.015625 17.890625 17.8203125 18.0625 17.9375 18.890625 20.5390625 21.734375 22.2890625 20.03125 17.4296875 17.9375 16.6484375 14.6796875 11.4296875 5.2890625 4 4 4 4 4 4 4 4 4 4.0625 4.0703125 4.0625 4.3359375 4.8984375 5.453125 6.0078125 6.5625 7.1015625 7.5625 8.109375 8.6640625 9.21875 9.7734375 10.328125 10.875 11.203125 11.25 11.703125 12.390625 12.1875 11.96875 10.9765625 10.828125 10.4453125 11.234375 12.5625 13.265625 13.140625 12.4765625 11.7421875 11.0625 10.9296875 12.3359375 13.3125 13.265625 13.34375 13.125 12.5703125 12.0546875 10.7265625 9.3671875 10.390625 11.546875 12.1328125 12.8984375 13.3359375 14.046875 14.484375 14.21875 13.890625 13.5703125 12.78125 11.6796875 11.25 10.875 10.5234375 10.2421875 10.1484375 11.0546875 10.8515625 9.9921875 8.859375 8.125 8.71875 9.046875
12.3671875 11.28125 10.109375 10.140625 12.2578125 11.84375 9.609375 9.78125 10.4296875 11.1015625 11.8046875 12.3203125 12.984375 14.5546875 16.203125 17.6640625 17.515625 16.609375 15.9765625 16.5546875 15.671875 15.140625 15.3984375 15.828125 15.7109375 15.0078125 15.234375 15.6953125 16.0625 17.453125 20.59375 21.7734375 20.75 17.484375 14.0546875 14.4296875 16.109375 13.84375 11.9453125 10.6796875 9.2890625 9.296875 9.6953125 9.96875 11.296875 10.8984375 10.125 9.2734375 8.53125 8.1953125 8.0546875 8.75 9.1953125 9.375 10.84375 11.8359375 12.3984375 12.703125 12.2734375 11.6953125 14.8046875 15.9296875 14.234375 13.9140625 13.90625 14.234375 13.265625 14.203125 15.2734375 15.3359375 15.7890625 14.3984375 12.265625 12.078125 12.7265625 12.1484375 12.1953125 13.3046875 13.265625 13.8828125 13.9296875 13.1640625 13.046875 13.109375 13.03125 13.125 13.78125 13.90625 14.046875 13.6171875 13.59375 15.9453125 15.625 12.4296875 11.890625 14.9765625 14.2890625 14.890625 16.3203125 17.515625 16.6796875 16.21875 15.7734375 14.421875 14.7109375 15.71875 15.9140625 14.5234375 15.0390625 16.0234375 17.7578125 19.1171875 18.1171875 16.6484375 16.515625 16.6796875 17.515625 18.4296875 17.9140625 17.9609375 17.5546875 17.1640625 17.5859375 18.5 18.59375 19.140625 18.8203125 18.0859375 18.0390625 16.1640625 15.796875 17.8828125 18.7890625 19.734375 19.1015625 20.484375 21.4140625 18.8984375 15.8828125 16.578125 15.78125 15.7421875 14.390625 8.1328125 4.2265625 4 4 4 4 4 4 4 4 4 4 4 4.0859375 4.53125 5.0625 5.59375 6.1328125 6.65625 7.109375 7.6484375 8.1953125 8.7421875 9.296875 9.8515625 10.3984375 10.921875 11.203125 11.71875 12.46875 12.2109375 11.25 10.4296875 10.4140625 10.1796875 11.0234375 12.5078125 13.3203125 12.78125 12.046875 11.3203125 10.6484375 10.5546875 11.734375 13.2734375 13.5 13.6875 12.8359375 12.4375 11.34375 9.1484375 8.40625 10.15625 11.28125 11.0546875 12.6171875 14.015625 14.3359375 14.9921875 15.1796875 14.8515625 14.3359375 13.4140625 12.203125 11.5625 11.1875 10.8125 10.4453125 9.578125 10.03125 10.109375 9.2265625 8.3515625 7.4453125 6.921875 7.21875
12.15625 9.9453125 9.8671875 10.5546875 11.234375 9.78125 8.75 9.1484375 9.859375 10.5859375 11.359375 11.9140625 12.1953125 13.0625 14.2734375 15.7578125 17.1015625 16.46875 14.3671875 13.6171875 14.4453125 14.5859375 14.6953125 15.3359375 15.078125 15.140625 15.4921875 15.8203125 16.1484375 16.7421875 18.7265625 20.359375 19.5546875 17.2578125 14.7890625 14.8984375 15.2578125 12.9453125 12 11.0859375 10.15625 9.328125 9.6640625 11.3515625 12.421875 11.640625 11 10.234375 9.3984375 8.8828125 9.875 10.6796875 10.3359375 10.1640625 11.3984375 12.03125 12.9921875 13.9453125 13.203125 12.625 15.0546875 14.46875 12.8203125 12.3984375 12.3671875 13.390625 13.8125 14.5078125 14.4765625 14.265625 14.2890625 13.0625 11.8515625 11.25 11.078125 12.7890625 13.109375 12.9921875 12.828125 12.65625 12.828125 14.3671875 14.59375 13.390625 13.1640625 13.859375 14.34375 13.1328125 13.46875 13.90625 13.9296875 15.6328125 14.4921875 11.8828125 11 11.3125 12.09375 14.2578125 16.15625 17.3828125 17.1328125 16.796875 16.609375 14.8984375 15.8984375 16.9140625 16.1015625 15.765625 16.8515625 17.3125 18.6171875 19.6171875 18.1796875 16.5078125 15.2578125 15.8671875 16.4921875 16.7109375 17.015625 16.9140625 15.9453125 16.265625 16.6875 17.2109375 16.6796875 17.6328125 18.890625 17.6171875 18.1875 17.0078125 16.796875 19.2734375 21.28125 22.515625 21.5234375 21.2578125 20.4765625 18.5390625 17.40625 17.09375 16.21875 16.328125 16.9140625 12.828125 5.1171875 4 4 4 4 4 4 4 4 4 4 4 4.0234375 4.375 4.890625 5.4140625 5.9296875 6.4375 6.8671875 7.3828125 7.90625 8.421875 8.9453125 9.46875 9.9921875 10.515625 11.09375 11.65625 12.2421875 11.6953125 10.6796875 10.203125 9.9609375 9.796875 10.5859375 11.8828125 13.0234375 12.40625 11.71875 11.015625 10.3515625 10.359375 11.6015625 12.9453125 13.8046875 13.1953125 12.578125 12.46875 10.1015625 7.453125 7.8671875 9.921875 11.1796875 10.4765625 11.3828125 13.9140625 14.84375 15.1953125 15.484375 15.21875 14.21875 13.171875 12.2734375 12.078125 11.7890625 11.5078125 11.09375 9.765625 9.34375 9.8671875 9.2578125 8.5703125 7.90625 6.703125 5.3359375
11.4296875 9.453125 9.4921875 9.5703125 9.4296875 9.0078125 9.5703125 10.15625 11 11.6875 12.1015625 11.921875 11.8046875 11.90625 11.9375 12.15625 12.671875 13.2578125 12.4375 11.796875 14.5546875 15.640625 15.046875 14.578125 14.296875 15.1640625 15.4921875 15.8203125 16.15625 16.5 16.875 17.59375 16.8671875 15.921875 14.84375 14.5390625 13.5078125 12.609375 11.765625 10.84375 10.0078125 9.6328125 9.5390625 10.4609375 11.6171875 11.7265625 11.65625 11.234375 10.7421875 10.9140625 11.875 11.7734375 11.40625 11.0625 11.890625 12.1953125 13.0703125 14.8046875 14.234375 13.296875 14.234375 12.6640625 10.484375 9.765625 11.21875 13.3671875 13.8046875 13.5546875 12.9921875 11.90625 11.390625 10.9453125 11.0546875 11.6015625 11.765625 12.0390625 12.6484375 12.453125 11.4921875 10.3671875 10.515625 13.1640625 14.1328125 13.3359375 14.140625 15.2265625 14.1015625 12.734375 12.7109375 13.6953125 14.0390625 15.4765625 15.375 12.46875 10.640625 10.7421875 12.0703125 15.015625 17.21875 17.2578125 17.140625 17.3046875 17.1640625 15.6875 15.140625 17 17.90625 18.171875 18.0546875 18.125 19.5234375 20.1328125 18.5703125 17.1875 16.765625 16.953125 16.1171875 16.3984375 16.625 15.7734375 14.734375 15.4453125 15.765625 16.359375 15.890625 15.796875 17.3671875 17.796875 17.4921875 16.28125 16.125 16.921875 18.796875 21.3046875 20.421875 19.8125 19.1796875 18 18.421875 18.7109375 17.953125 16.7734375 16.7890625 14.9453125 6.1328125 4 4 4 4 4 4 4 4 4 4 4 4 4.125 4.59375 5.109375 5.6171875 6.1171875 6.546875 7.0546875 7.5703125 8.0859375 8.6015625 9.109375 9.625 10.1484375 10.8046875 11.34375 11.578125 10.59375 10.1796875 9.7109375 9.5703125 9.3828125 9.4765625 10.2578125 11.734375 11.953125 11.3046875 10.65625 10.0078125 10.1875 11.375 12.421875 12.84375 11.8984375 12.0078125 10.1953125 7.4921875 7.15625 7.453125 8.9453125 10.90625 10.9921875 10.453125 12.421875 14.2421875 14.828125 14.8203125 14.6015625 13.890625 12.84375 11.984375 12.8203125 12.890625 12.625 12.03125 10.8984375 9.734375 10.2109375 10.6171875 10.15625 9.3515625 7.671875 6.6015625
10.359375 9.75 10.1171875 9.8515625 9.53125 9.625 10.640625 11.75 12.0625 12.3203125 12.1875 11.6796875 11.6015625 11.78125 11.8125 11.84375 11.8671875 11.9375 12.5078125 13.1484375 15.90625 16.0390625 14.5703125 14.46875 14.609375 15.125 15.46875 15.8125 16.1640625 16.5078125 16.75 16.4765625 15.921875 15.34375 14.5078125 13.5234375 12.6953125 12.40625 11.5234375 10.6640625 10.2890625 10.125 9.9609375 9.921875 10.5859375 11.3203125 11.8125 11.484375 11.203125 11.6953125 11.8984375 11.9375 12.1953125 12.0625 12.3515625 12.40625 13.109375 14.453125 13.8203125 12.7734375 13.3984375 12.9921875 11.203125 9.6328125 12.03125 13.3359375 12.703125 12.515625 12.75 12 10.4453125 9.40625 10.8125 11.7734375 11.59375 10.2578125 10.3515625 10.859375 11.09375 10.109375 10.34375 12.6328125 13.40625 13.4375 16.1796875 16.9453125 14.6953125 12.8671875 12.234375 13.296875 14.2578125 15.15625 15.09375 11.7265625 10.8984375 12.3125 14.125 16.5390625 17.734375 16.9375 16.5546875 17.359375 17.421875 16.0390625 13.40625 16.078125 17.9375 18.1484375 17.7734375 17.0859375 18.359375 20.34375 20.5 20 20.15625 19.34375 16.9140625 16.4140625 14.9375 13.15625 13.6484375 15.5703125 16.0625 16.4765625 16.40625 15.71875 16.4140625 17.3828125 17.2421875 15.9453125 15.859375 16.078125 17.5078125 18.046875 17.109375 16.8515625 16.484375 16.3203125 18.1484375 19.0703125 18.609375 18.1171875 16.6953125 13.171875 7.3203125 4.0078125 4 4 4 4 4 4 4 4 4 4 4 4 4.1953125 4.71875 5.2421875 5.734375 6.1640625 6.6796875 7.1875 7.703125 8.21875 8.734375 9.2421875 9.796875 10.4921875 11 10.5859375 9.8828125 9.453125 9.265625 9.1875 9.1015625 8.921875 9.0390625 9.9375 11.15625 10.78125 10.1328125 9.484375 9.671875 10.796875 11.8046875 11.3671875 11.1015625 9.796875 7.3984375 7.1953125 7.375 7.546875 8.140625 10.0234375 11.34375 10.7578125 11.265625 13.4140625 14.2109375 14.4921875 13.8828125 13.4453125 12.5234375 11.6484375 12.9453125 13.9921875 13.7734375 12.9765625 11.8125 10.7421875 10.5390625 10.9375 10.671875 10.3203125 9.328125 8.390625
9.1171875 10.5625 11.515625 10.4375 9.90625 10 10.875 12.25 12.53125 12.4921875 11.8984375 11.4375 11.375 11.6640625 11.6953125 11.7265625 11.75 12.0078125 13.015625 16.203125 17.671875 15.40625 14.34375 14.1953125 14.0390625 15.1171875 15.3515625 15.671875 16.0390625 16.40625 16.71875 16.3203125 15.765625 15.5078125 14.3515625 12.7578125 12.6171875 12.1796875 11.3125 10.9453125 10.78125 10.5546875 10.25 10.0859375 10.53125 11.125 11.7265625 11.78125 12.21875 12.796875 12.2890625 11.8671875 11.8125 12.359375 12.734375 12.4765625 12.3125 11.75 11.125 11.65625 13.515625 15.03125 13.625 11.171875 11.7265625 12.234375 12.0625 12.4921875 11.0546875 9.953125 9.5859375 8.9921875 8.859375 10.6875 10.1015625 8.390625 7.8203125 8.96875 10.703125 10.9140625 11.2265625 12.9921875 14.3671875 14.171875 15.4765625 15.7265625 14.3828125 12.8203125 12.578125 13.1484375 11.921875 12.953125 13.46875 12.140625 12.8828125 16.0546875 18.0078125 18.3671875 16.9453125 15.78125 15.3828125 15.0859375 16.1796875 16.75 15.5390625 16.140625 17.7421875 17.8828125 17.328125 16.546875 16.8984375 19.1328125 20.734375 20 18.71875 18.0234375 16.2265625 15.34375 14.640625 13.703125 13.390625 14.9140625 17.3046875 17.4765625 15.8125 15.0625 15.21875 16.0703125 16.09375 16.5390625 16.7109375 16.7109375 17.671875 17.4765625 16.5390625 16.203125 15.65625 15.421875 17.0234375 18.6796875 18.3671875 18.0078125 15.4375 13.1328125 9.7578125 5.6484375 4.0546875 4 4 4 4 4 4 4 4 4 4 4 4.0078125 4.2734375 4.84375 5.3515625 5.78125 6.296875 6.8125 7.3203125 7.8359375 8.3515625 8.8671875 9.5 10.1640625 10.4140625 9.6484375 9.2109375 8.9609375 8.875 8.796875 8.7109375 8.625 8.46875 8.609375 9.6328125 10.2265625 9.6171875 8.96875 9.15625 10.2578125 10.8046875 10.2421875 9.328125 7.3125 7.2265625 7.421875 7.59375 7.765625 7.9609375 9.015625 10.953125 11.3046875 10.8203125 12.515625 13.5703125 14.0625 13.734375 12.8203125 12.1796875 11.3125 12.6171875 14.203125 14.546875 13.859375 12.71875 11.8203125 10.796875 10.1953125 9.765625 10.0546875 10.4609375 10.1171875
10.265625 10.8125 10.953125 10.046875 10.78125 11.5078125 11.8046875 12.71875 12.7734375 12.2421875 11.578125 11.234375 11.1171875 11.484375 11.578125 11.6015625 11.6796875 12.2421875 13.1015625 16.1796875 19.109375 15.9453125 14.2421875 12.671875 13.21875 15.265625 15.703125 15.484375 15.734375 16.0625 16.1171875 15.46875 14.171875 13.765625 13.2734375 12.359375 12.3828125 11.8125 11.265625 10.828125 10.3046875 9.8125 9.9453125 10.875 11.796875 12.3984375 12.8203125 13.5 14.2421875 14.4921875 13.78125 13.09375 12.671875 12.875 12.859375 11.609375 9.4609375 8.6796875 8.9609375 10.6875 12.2734375 12.828125 12.2109375 11.921875 11.65625 12.2421875 12.9765625 12.921875 11.8125 7.5625 6.140625 7.609375 8.328125 10.2265625 9.90625 9.828125 10.40625 10.1796875 10.921875 11.8203125 13.5 15.125 16 14.9375 13.8203125 13.078125 12.3125 12.2734375 12.8828125 12.9140625 10.90625 11.5078125 12.6953125 12.7890625 13.1015625 15.515625 16.1875 12.84375 11.2265625 12.109375 15.5078125 15.1875 15.921875 16.4140625 16.1875 16.3203125 17.3359375 17.484375 16.84375 16.2890625 16.9765625 18.5703125 19.8984375 18.875 17 16.03125 15.59375 14.8203125 13.7578125 13.6171875 13.0390625 14.375 17.7734375 18.6171875 17.234375 16.609375 15.8125 15.65625 15.34375 16.03125 16.078125 16.796875 17.4375 17.84375 19.1171875 18.4609375 16.625 15.3671875 15.7109375 17.71875 18.140625 17.5703125 14.515625 13.8203125 11.953125 8.1484375 4.5 4 4 4 4 4 4 4 4 4 4 4 4 4.015625 4.34375 4.9453125 5.3984375 5.9140625 6.4296875 6.9453125 7.453125 7.96875 8.5078125 9.21875 9.8125 9.5390625 8.9375 8.6640625 8.5703125 8.484375 8.40625 8.3203125 8.234375 8.1484375 8.015625 8.171875 9.171875 9.1015625 8.453125 8.625 9.6640625 9.5625 8.7890625 7.21875 7.265625 7.46875 7.640625 7.8125 7.984375 8.15625 8.484375 10.0390625 11.4609375 11.125 11.5546875 13.1640625 13.453125 13.6015625 12.625 11.703125 10.96875 12.0546875 13.03125 13.625 14.03125 13.84375 13.1640625 12.265625 11.671875 11.390625 11.9609375 11.859375 11.5703125
10.4453125 10.6015625 10.53125 11.234375 11.8671875 12.2890625 12.640625 13.046875 12.578125 11.9140625 11.2890625 11.03125 10.8984375 11.28125 11.453125 11.484375 11.75 12.5390625 13.3359375 14.65625 18.6796875 17.7421875 14.3203125 12.6484375 13.1875 15.3125 15.875 15.6484375 15.546875 15.4609375 15.3671875 14.6171875 12.96875 12.0390625 11.8828125 11.75 11.578125 10.859375 9.9609375 9.375 9.2734375 10.015625 11.1875 12.3203125 13.1328125 13.59375 14.75 16.375 16.359375 16.0625 15.453125 14.9453125 14.4375 14.34375 13.4140625 12.1796875 9.71875 7.4375 8.8125 10.546875 11.140625 12.046875 12.296875 12.4296875 12.7734375 13.4375 13.3828125 13.15625 12.9140625 9.890625 3.96875 4.859375 9.5546875 12.1015625 13.25 13.265625 12.859375 11.34375 11.5625 11.609375 12.546875 14.703125 15.2734375 14.9375 13.6640625 12.90625 11.6015625 11.671875 12.453125 11.234375 10.3125 10.390625 11.234375 11.4609375 10.90625 11.390625 10.3515625 10.0546875 10 10.2265625 13.0859375 15.2109375 14.515625 14.921875 15.6953125 16.2109375 16.796875 17.1328125 16 16.078125 17.2578125 18.140625 19.4140625 18.6875 16.8203125 16.625 16.609375 14.7890625 13.140625 13.234375 13.296875 14.90625 16.4765625 17.4765625 18.28125 18.015625 16.546875 15.5234375 15.671875 15.796875 15.2421875 15.9921875 16.5546875 17.8984375 20.6640625 19.71875 17.921875 17.046875 16.1875 17.140625 17.9921875 18.1953125 16.5703125 15.9296875 16.109375 13.5078125 5.5625 4 4 4.1484375 4.03125 4 4 4 4 4 4 4 4 4 4.03125 4.40625 4.9453125 5.53125 6.046875 6.5625 7.078125 7.5859375 8.1875 8.9140625 9.25 8.6953125 8.3671875 8.265625 8.1796875 8.09375 8.015625 7.9296875 7.84375 7.7578125 7.671875 7.5546875 7.7890625 8.421875 7.9296875 8.0859375 8.765625 8.171875 7.125 7.3046875 7.5078125 7.6796875 7.8515625 8.03125 8.203125 8.375 8.546875 9.1953125 10.96875 11.53125 11.1796875 12.5546875 13.0390625 13.2578125 12.671875 11.4921875 10.6015625 11.109375 11.7265625 12.2578125 12.796875 13.3515625 13.796875 13.875 13.3046875 13.6875 14.0078125 13.546875 12.484375
10.484375 10.7265625 11.140625 12.84375 13.03125 12.4765625 12.8984375 12.921875 12.25 11.5859375 11.03125 10.8359375 10.6953125 11.0546875 11.3359375 11.4140625 11.9921875 12.6796875 13.0390625 13.3671875 14.6796875 14.875 13.546875 13.46875 12.8984375 13.4296875 14.21875 14.8515625 15.84375 15.2109375 14.65625 14.1484375 12.109375 10.8984375 10.8359375 10.9140625 10.84375 10.140625 8.6796875 9.1796875 10.296875 11.4921875 12.6875 13.6640625 13.6796875 12.8359375 15.03125 17.5234375 17.4140625 16.0546875 15.515625 14.8046875 14.515625 15.4765625 14.3046875 13.1640625 11.734375 9.6640625 9.8984375 11.1875 12.4609375 13.09375 13.7890625 14.0390625 14.359375 14.1875 13.7890625 13.421875 13.171875 12.4765625 6.9765625 3.4375 8.046875 13.03125 14.15625 12.3828125 12.453125 12.828125 11.8203125 10.5078125 11.875 14.421875 15.25 14.828125 13.0390625 12.5703125 12.2265625 12.34375 11.859375 10.578125 10.03125 10 10.046875 10.09375 10 10 10 10 10 10 10.2265625 11.625 12.7734375 13.7109375 14.59375 15.28125 15.8515625 16.546875 15.421875 15.46875 16.71875 17.890625 19.265625 18.703125 16.21875 15.859375 17.296875 15.296875 13.15625 13.109375 14.421875 15.0703125 14.8671875 13.96875 15.3828125 15.7578125 15.828125 16.078125 16.015625 15.5234375 16.609375 18.4296875 18.6875 20.8125 21.671875 19.7734375 18.734375 18.078125 17.625 17.9140625 17.765625 18.296875 18.2578125 16.375 16.7890625 15.3828125 8.1875 6.65625 6.1484375 4.96875 4.0390625 4.015625 4 4 4 4 4 4 4 4 4 4.0390625 4.3828125 5.046875 5.65625 6.1796875 6.6953125 7.21875 7.8984375 8.59375 8.5078125 8.0859375 7.9609375 7.875 7.7890625 7.703125 7.625 7.5390625 7.453125 7.3671875 7.28125 7.203125 7.09375 7.34375 7.3984375 7.5234375 7.5859375 7.015625 7.3359375 7.5546875 7.7265625 7.8984375 8.0703125 8.2421875 8.4140625 8.59375 8.765625 8.96875 10.1015625 11.5078125 11.4453125 11.828125 12.921875 12.8046875 12.640625 11.53125 10.4453125 10.2421875 10.734375 11.3359375 11.9375 12.546875 13.1796875 14.328125 15.1796875 15.8359375 16.0859375 14.3125 12.75
10.625 10.8984375 11.984375 13.5078125 14.1875 12.7421875 12.3359375 12.40625 11.921875 11.2578125 10.7890625 10.6328125 10.4921875 10.796875 11.21875 11.4921875 11.96875 12.140625 12.4140625 12.71875 13.3515625 12.796875 11.5 12.8515625 12.8359375 12.78125 11.8359375 13.484375 14.234375 13.6328125 14.25 14.6796875 13.4453125 11.984375 11.25 10.703125 10.3359375 9.6328125 8.109375 9.0625 10.5234375 12.0546875 13.5703125 13.8046875 12.765625 12.1640625 16.8046875 18.40625 18.1171875 15.5234375 14.5 14.421875 15.375 16.7421875 15.1875 13.921875 12.4140625 11.7421875 11.703125 12.3828125 14.3046875 14.8359375 14.8671875 14.71875 14.4609375 14.8125 14.8984375 14.7578125 14.46875 14.0625 11.875 6.5234375 6.203125 9.4921875 10.859375 10.1796875 13.28125 15.84375 13.5859375 11.8984375 12.078125 13.7734375 14.828125 14.3359375 12.4453125 11.921875 12.3828125 12.5625 11.546875 10.171875 10 10 10 10 10 10 10 10 10 10 10 10.546875 13.34375 14.2734375 14.4453125 14.1015625 14.6953125 15.8828125 15.640625 15.375 16.0546875 16.8515625 18.4296875 18.6875 15.6328125 15.65625 17.5703125 17.0859375 14.2734375 11.9453125 13.2109375 15.203125 14.4296875 12.25 13.6484375 12.8984375 14.1953125 16.328125 17.03125 15.7734375 18.71875 22.5859375 21.484375 21.765625 20.6328125 18.5859375 17.5859375 16.9609375 17.6875 17.453125 16.703125 17.6875 18.859375 17.3125 17.03125 16.0859375 14.0625 9.9921875 6.1328125 4.3671875 4.0390625 4.3671875 4.0625 4 4 4 4 4 4 4 4 4 4.046875 4.46875 5.1484375 5.7734375 6.3125 6.890625 7.625 8.1171875 7.8046875 7.6484375 7.5703125 7.484375 7.3984375 7.3125 7.234375 7.1484375 7.0625 6.9765625 6.890625 6.8125 6.7265625 6.625 6.6796875 6.75 6.859375 7.359375 7.6015625 7.7734375 7.9453125 8.1171875 8.2890625 8.4609375 8.6328125 8.8046875 8.9765625 9.15625 9.515625 10.9765625 11.6640625 11.5234375 12.5390625 12.6328125 12.4375 11.5703125 10.6640625 10.3125 10.1953125 10.59375 11.1953125 11.8046875 12.3984375 13.3125 14.8125 16.21875 16.765625 14.6328125 13
11.15625 11.15625 11.984375 13.296875 14.4140625 13.8125 12.125 11.453125 11.375 10.9296875 10.578125 10.4375 10.296875 10.515625 11.1171875 11.1640625 11.2109375 11.484375 11.7578125 12.109375 12.8828125 12.859375 12.5859375 14.3515625 15.078125 13.6015625 11.71875 11.8046875 11.7734375 12.6796875 14.1015625 14.671875 15.0625 14.2109375 13.390625 12.4765625 11.4296875 10.125 7.96875 8.7734375 10.0859375 12.234375 12.59375 11.84375 12.234375 12.9375 16.7734375 18.890625 19.46875 17.3359375 14.4453125 14.3984375 16.390625 17.7109375 16.0234375 14.796875 13.546875 13.0546875 13.6171875 13.9609375 14.3125 14.0234375 13.40625 13.3203125 13.3125 14.296875 14.6796875 15.078125 15.578125 16.0859375 16.3515625 14.5 10.703125 8.859375 8.3125 8.609375 10.9140625 15.0234375 14.6015625 13.5390625 12.734375 12.59375 13.5859375 13.171875 12.359375 12.59375 13.1328125 13.4921875 12.390625 10.2265625 10 10 10 10 10 10 10 10 10 10 10 10.578125 13.578125 15.0234375 14.5546875 13.2890625 13.75 15.140625 15.6953125 15.390625 15.3125 15.84375 16.796875 16.3203125 15.21875 16.5234375 17.6953125 16.4375 13.9921875 12.4765625 13.8046875 15.59375 13.734375 12.3125 14.5234375 14.046875 13.3046875 16.234375 17.4296875 16.359375 18.9921875 19.921875 18.859375 19.0703125 19.1640625 18.828125 17.5859375 17.3828125 17.5625 16.125 16 17.390625 18.453125 16.7578125 16.2109375 15.859375 14.609375 10.4921875 5.640625 4.0390625 4.0703125 4.4921875 4.296875 4.1875 4.09375 4.015625 4 4 4 4 4 4 4 4.0703125 4.5546875 5.2421875 5.8828125 6.5859375 7.3359375 7.53125 7.34375 7.2578125 7.1796875 7.09375 7.0078125 6.921875 6.84375 6.7578125 6.671875 6.5859375 6.5 6.421875 6.4140625 6.40625 6.328125 6.6953125 7.390625 7.640625 7.8125 7.9921875 8.1640625 8.3359375 8.5078125 8.6796875 8.8515625 9.0234375 9.1953125 9.3671875 9.546875 10.2578125 11.515625 11.671875 12.0546875 12.640625 12.2890625 11.609375 11.03125 10.7109375 10.3828125 10.1796875 10.46875 11.0625 11.6640625 12.34375 13.734375 14.75 15.4453125 14.265625 13.0703125
11.4609375 11.5546875 11.1484375 11.3359375 13.3828125 13.3984375 11.2734375 10.2578125 10.0546875 10.875 11.4765625 11.140625 10.5859375 9.9140625 10.15625 10.2734375 10.5390625 10.8125 11.0703125 11.5859375 12.5859375 13.3515625 13.59375 15.03125 15 13.375 13.265625 12.6015625 12.625 13.171875 13.9453125 14.328125 15.75 15.9921875 14.8984375 13.6953125 12.4765625 11.15625 9.265625 9.8515625 11.4140625 11.9375 11.0625 10.0078125 10.1328125 11.9921875 15.734375 17.9375 19.2734375 17.703125 15.3203125 16.1328125 17.4609375 17.5546875 16.53125 15.484375 14.4765625 13.578125 13.90625 13.8984375 13.671875 12.890625 11.65625 11.0078125 11.171875 13.4921875 14.515625 15.2421875 15.984375 16.765625 15.3359375 9.9921875 8.8203125 11.125 10.2734375 8.0859375 8.75 13.1328125 14.7578125 14.03125 13.171875 12.328125 12.1953125 12.0625 12.3828125 12.09375 12.4453125 13.703125 13.6640625 11.25 10.0625 10 10 10 10 10 10 10 10 10 10 10.640625 13.8203125 15.1796875 14.8125 13.3359375 13.203125 14.59375 15.1796875 13.96875 13.3984375 14.2109375 15.2265625 15.765625 15.296875 16.46875 17.3203125 15.9609375 14.2109375 15.21875 16.4296875 15.6875 15.0234375 15.3203125 16 15.8515625 14.953125 15.3828125 16.1875 16.4453125 18.2109375 18.5625 17.5 17.7890625 18.6953125 19.484375 18.1953125 17.8046875 16.828125 15.9609375 16.9921875 17.0546875 16.53125 16.765625 16.609375 17.2890625 15.21875 9.4609375 5.4609375 4.015625 4.0234375 4.4453125 4.7578125 4.625 4.296875 3.828125 3.8515625 3.984375 4 4 4 4 4 4 4.1015625 4.4921875 4.9609375 5.9609375 6.9453125 7.078125 7.0390625 6.9921875 6.984375 6.9609375 6.9296875 6.9296875 6.953125 6.9375 6.9375 7.0078125 7.03125 7.03125 7.109375 7.1875 7.2109375 7.4140625 7.6875 7.859375 8.03125 8.203125 8.375 8.5546875 8.7265625 8.8984375 9.0703125 9.2421875 9.4140625 9.5859375 9.7578125 9.984375 11.0234375 11.71875 11.8203125 12.4609375 12.2109375 11.34375 11.1015625 10.953125 10.765625 10.46875 10.1953125 10.359375 10.921875 11.4765625 12.6015625 13.484375 13.21875 12.3984375 11.1796875
11.125 11.4375 11.3671875 10.625 12.09375 12.3671875 11.6796875 11.2578125 10.953125 13.2734375 15.8125 15.7890625 11.7421875 8.65625 8.5703125 9.4765625 9.9140625 10.140625 10.40625 11.328125 12.2734375 13.1796875 12.8984375 14.5546875 14.84375 12.625 12.4375 12.9296875 14.4765625 14.265625 13.0703125 14.203125 16.75 16.6171875 15.7734375 14.609375 13.4765625 13.640625 13.2578125 13.3125 13.515625 12.8125 12.28125 11.625 11.6015625 12.828125 15.0859375 16.21875 16.234375 14.8046875 15.1484375 16.4609375 17.359375 17.0703125 16.59375 15.5625 14.578125 13.765625 14.1015625 13.75 13.1484375 12.640625 12.171875 11.6328125 11.1015625 12.3671875 13.796875 14.8515625 16 15.5625 15.421875 13.640625 11.0390625 12.2109375 10.4921875 8.8359375 9.9765625 14.03125 14.546875 14.0234375 13.4609375 12.78125 12.1328125 11.6640625 11.171875 11.5546875 13.5078125 15.0390625 15.359375 13.140625 10.8046875 10.40625 10.53125 10.2265625 10.1171875 10.015625 10 10.03125 10.59375 11.1328125 11.171875 12.390625 13.109375 14.078125 14.53125 13.671875 12.96875 14.140625 14.890625 13.5546875 13.1171875 13.5625 14.59375 17.625 16.453125 14.9140625 16.609375 17.203125 15.3125 15.9453125 16.6640625 15.5390625 15.84375 17.3046875 16.6171875 16.6015625 16.765625 15.96875 16.6953125 17.8359375 18.4609375 19.5625 18.6875 16.6953125 17.046875 18.953125 17.625 16.453125 16.2890625 16.40625 17.78125 17.7109375 15.7890625 15.1640625 15.640625 16.9765625 17.2890625 15.7890625 10.46875 5.6640625 5.2734375 4.421875 4.40625 3.6484375 3.2890625 3.3203125 3.625 3.8828125 3.9921875 4 4 4 4 4 4 4.125 4.390625 5.40625 6.4921875 6.578125 6.5625 6.5859375 6.65625 6.765625 6.921875 7.125 7.2421875 7.2734375 7.3046875 7.328125 7.359375 7.390625 7.421875 7.453125 7.484375 7.5546875 7.703125 7.8984375 8.1328125 8.3828125 8.59375 8.765625 8.9375 9.1171875 9.2890625 9.4609375 9.6328125 9.8046875 9.9765625 10.1484375 10.546875 11.5234375 11.8125 12.2109375 11.9609375 11 10.734375 10.46875 10.421875 10.484375 10.421875 10.234375 10.2734375 10.6953125 11.4140625 11.625 11.4140625 11.2578125 9.625
10.7109375 10.8984375 11.140625 11.125 11.09375 11.171875 11.5703125 12.359375 13.0703125 15.1640625 17.6015625 18.34375 13.7890625 9.5 8.1171875 7.59375 9.2578125 9.5703125 9.828125 11.0625 11.265625 11.9765625 11.8359375 13.375 14.4140625 13.3359375 12.6796875 12.5078125 14.0078125 14.4296875 12.4609375 14.7421875 17.3671875 16.9609375 16.3203125 15.46875 14.8125 14.75 14.3515625 13.9765625 13.8828125 13.9765625 13.8203125 13.53125 13.1953125 13.1484375 13.8828125 13.9140625 13.5078125 13.953125 15.078125 16.0703125 16.9765625 16.6640625 16.3125 15.765625 15.1796875 15.03125 15.0859375 13.8046875 12.625 13.1875 13.7109375 14.3125 12.6640625 12.7578125 14.09375 15.015625 15.140625 12.8515625 13.09375 12.828125 10.6953125 11.4921875 12.9765625 12.5546875 13.1328125 14.6484375 14.265625 13.7265625 13.1875 12.640625 12.1875 11.5 10.859375 11.0234375 14.9296875 16.3984375 15.453125 14.2421875 13 12.7265625 12.1484375 11.2578125 10.765625 10.078125 10 10.0703125 10.8984375 12.0546875 13.1171875 13.4453125 12.65625 13.140625 13.796875 13.8046875 12.96875 13.6796875 14.5625 13.796875 14.0234375 14.484375 15.6171875 18.25 17.4765625 15.6328125 16.34375 16.6640625 15.28125 15.3203125 16.0625 16.4609375 16.21875 16.9453125 16.7890625 16.796875 17.859375 18.296875 18.8984375 18.6484375 18.5625 20.078125 19.53125 16.4609375 15.265625 17.828125 17.4453125 16.25 16.171875 16.9609375 17.6796875 16.1640625 14.890625 14.3359375 16.5078125 16.8046875 18.1171875 18.5234375 13.1796875 8.484375 7.40625 5.796875 4.28125 3.359375 3.0078125 3.2109375 3.484375 3.703125 3.8984375 4 4 4 4 4 4 4.0390625 4.2734375 5.2578125 5.9921875 5.9765625 5.90625 5.828125 5.7578125 5.6796875 5.609375 5.6796875 5.828125 6.03125 6.2734375 6.5546875 6.875 7.234375 7.421875 7.453125 7.484375 7.5546875 7.671875 7.7890625 7.9140625 8.1015625 8.3671875 8.6796875 9 9.28125 9.5 9.6796875 9.8515625 10.0234375 10.1953125 10.3671875 10.546875 11.1484375 11.7265625 12.03125 11.84375 10.8984375 10.4921875 10.140625 9.828125 9.65625 9.7421875 9.9140625 9.984375 10.0703125 10.203125 10.4375 10.78125 10.5703125 9.515625
10.328125 10.5703125 10.75 10.9140625 11.234375 11.4609375 11.9921875 12.8828125 13.6484375 14.4921875 16.015625 16.9375 12.546875 9.046875 8.5859375 7.1328125 8.8984375 10.3828125 10.25 11.015625 11.03125 11.359375 11.4296875 12.609375 14.234375 14.0859375 13.0234375 12.8984375 13.5390625 13.8984375 13.734375 14.265625 15.8359375 16.8671875 16.6796875 16.421875 15.6484375 14.3984375 13.78125 13.2734375 14.5390625 15.1640625 14.4765625 14.8515625 14 13.0859375 13.46875 12.8828125 12.5546875 13.828125 14.6640625 15.609375 16.59375 16.3828125 15.1484375 13.734375 14.59375 15.5 15.4609375 12.8671875 11.8515625 12.6953125 14.1015625 14.2265625 12.8046875 13.078125 14.0625 14.2421875 12.71875 12.8828125 13.90625 11.4765625 9.9765625 11.8671875 14.4375 15.2734375 14.8515625 14.359375 13.7578125 13.1953125 12.625 12.2421875 12.359375 11.6484375 10.75 11.4453125 13.578125 15.1171875 15.4140625 15.921875 16.328125 16.6171875 13.9453125 13 13.21875 10.171875 10 10.125 11.0390625 12.1640625 13.5078125 14.078125 13.3671875 13.3515625 13.34375 13.59375 13.1796875 13.3359375 14.3046875 14.6875 15.140625 15.3671875 16.1171875 16.8515625 16.7265625 16.40625 15.3671875 14.6484375 14.890625 15.703125 16.375 16.1015625 14.4375 13.84375 14.2109375 15.2421875 17.4453125 17.671875 17.0625 17.1796875 18.0546875 20.1328125 19.453125 17.3828125 15.6171875 15.0390625 16.3671875 16.4921875 15.8984375 17.484375 17.9375 16.3046875 14.796875 15.59375 19.1484375 18.9140625 18.1328125 17.1640625 13.828125 10.6953125 9.1640625 7.46875 6.2421875 4.640625 3.140625 3.0859375 3.3046875 3.5078125 3.7578125 3.96875 4 4 4 4 4 4 4.15625 4.9921875 5.4296875 5.3984375 5.328125 5.25 5.1796875 5.1015625 5.03125 4.953125 4.8828125 4.8125 4.734375 4.6640625 4.6015625 4.796875 5.1171875 5.484375 5.8984375 7.109375 7.6875 7.796875 7.90625 8.03125 8.140625 8.2734375 8.4765625 8.7734375 9.15625 9.546875 9.890625 10.171875 10.3984375 10.5859375 10.7578125 10.9921875 11.546875 11.8515625 11.5625 11.0546875 10.59375 10.140625 9.6953125 9.2890625 8.9609375 8.9140625 9.0703125 9.0546875 9.390625 9.828125 10.3125 10.2109375 9.359375
10.0703125 10.2109375 10.4453125 10.6171875 10.953125 11.1015625 11.234375 11.6484375 11.4453125 11.2578125 12.5859375 13.3203125 10.390625 9.03125 8.8671875 7.5859375 9.4375 12.1015625 11.40625 11.46875 11.015625 11.015625 10.3671875 11.4609375 13.0703125 13.46875 13.25 14.84375 15.171875 13.9375 12.4375 11.015625 12.3515625 14.8984375 16.4296875 16.8125 16.40625 14.75 13.171875 13.3671875 15.453125 14.9140625 13.953125 14.4140625 14.75 14.296875 13.6796875 12.2109375 11.53125 13.8046875 14.5 15.171875 16.1875 15.4140625 11.9921875 10.7109375 13.015625 14.34375 14.8828125 12.65625 11.8125 12.5390625 14.046875 13.1953125 12.1953125 13.5078125 13.65625 12.25 11.4140625 12.234375 13.515625 11.40625 12.453125 14.6484375 13.7265625 12.7734375 12.125 12.7578125 13.0703125 12.578125 12.234375 12.5625 12.7421875 11.9921875 10.203125 11.0703125 12.7265625 14.7734375 16.7109375 16.9765625 16.9609375 17.625 16.203125 16.1484375 15.171875 10.1171875 10 10.140625 11.0703125 12.4765625 14.0390625 14.859375 14.484375 14.3203125 14.1015625 13.8671875 13.484375 13.296875 14.3828125 15.3828125 15.3515625 15.0859375 15.3125 14.9765625 14.28125 15.75 15.375 13.9140625 14.875 15.75 15.125 13.7578125 11.890625 10.90625 11.5390625 12.9921875 14.71875 14.125 13.8046875 14.59375 14.5234375 15.4140625 17.3203125 17.2734375 15.8828125 13.03125 14.234375 15.9765625 16.2734375 17.3515625 18.6015625 18.0546875 16.9921875 16.015625 16.828125 17.234375 17.6953125 18.7734375 17.328125 12.9765625 10.8515625 10.6640625 9.5 6.640625 4.2109375 3.4140625 3.1171875 3.3515625 3.6171875 3.875 4 4 4 4 4 4 4.0625 4.578125 4.859375 4.8203125 4.75 4.671875 4.6015625 4.5234375 4.453125 4.375 4.3046875 4.2421875 4.1875 4.1328125 4.09375 4.0546875 4.03125 4.015625 4.0078125 5.1953125 7.6484375 7.921875 8.0078125 8.09375 8.1875 8.28125 8.390625 8.5078125 8.640625 8.859375 9.171875 9.578125 10.015625 10.421875 10.765625 11.0625 11.3984375 11.546875 11.0625 10.6328125 10.2421875 9.8515625 9.46875 9.0703125 8.6875 8.3671875 8.1953125 8.296875 8.8125 9.2890625 9.5390625 9.40625 8.9609375
10.15625 10.0859375 10.1328125 10.3203125 10.2109375 9.5 9.3359375 8.015625 8.359375 9.328125 9.828125 9.546875 8.078125 8.8671875 9.0546875 8.234375 9.3515625 10.5546875 10.03125 10.3046875 10.7421875 10.7109375 10.5078125 11.0234375 11.71875 11.9765625 13.8359375 16.7109375 15.6640625 13.71875 11.0390625 8.34375 10.625 13.234375 15.3203125 15.9765625 16.625 15.5 14.1328125 14.7109375 15.765625 15.0703125 14.515625 13.9921875 14.390625 15.03125 14.9921875 13.59375 12.84375 13.796875 14.1953125 14.828125 14.921875 12.7578125 10.578125 10.71875 12.0234375 13.1015625 13.046875 12.515625 13.1875 14.2578125 14.921875 13.84375 12.953125 14.0859375 12.90625 12.4140625 12.140625 11.390625 11.59375 12.265625 13.1640625 13.84375 12.578125 10.4140625 9.578125 10.375 11.9765625 12.2421875 12.625 13.09375 13.234375 13.0546875 12.3125 12.5625 12.7265625 13.21875 15.03125 15.5234375 14.7265625 14.3359375 14.9765625 15.3203125 13.9921875 10.0859375 10 10.0390625 10.921875 12.5703125 14.234375 15.75 15.65625 15.2265625 14.65625 13.8984375 13.171875 13.84375 14.9453125 15 14.640625 13.7578125 12.953125 12.9453125 13.515625 15.59375 16.90625 15.5625 15.25 15.2734375 13.9140625 12 10.6875 10.8984375 12.03125 11.859375 11.0625 10.7734375 11.1328125 11.9765625 12.0625 12.3984375 14.828125 13.7734375 13.4765625 11.734375 12.5703125 15.484375 16.6875 16.7109375 17.1484375 18.3125 17.265625 16.0234375 16.4921875 17.125 19.09375 22.140625 21.0859375 16.859375 15.7890625 14.140625 10.8125 7.2734375 4.6953125 3.75 3.015625 3.15625 3.4375 3.7265625 3.9609375 4 4 4 4 4 4.0078125 4.1171875 4.2890625 4.25 4.1875 4.140625 4.09375 4.0625 4.03125 4.015625 4 4 4 4 4 4 4 4.0234375 4.3125 4.6796875 6.3359375 8.078125 8.1953125 8.2734375 8.3515625 8.4375 8.515625 8.6015625 8.6875 8.78125 8.8828125 9.015625 9.2421875 9.5703125 9.984375 10.4296875 10.8359375 10.84375 10.2421875 9.7265625 9.4609375 9.21875 9.0078125 8.828125 8.6875 8.546875 8.34375 8.4765625 8.9296875 9.125 9.1796875 8.921875 8.859375
10.0859375 10.2109375 10.109375 10.0859375 9.2578125 7.171875 7.625 6.328125 8.4765625 10.9296875 9.5546875 8.2734375 6.2890625 6.0546875 7.421875 7.5859375 8.5 8.9296875 9.125 9.4140625 10.1484375 10.8359375 11.3671875 12.1328125 12.6640625 12.28125 13.7109375 15.9453125 14.9140625 13.7421875 13.890625 13.390625 13.4765625 13.8125 14.21875 13.3671875 14.953125 15.5234375 14.796875 15.328125 15.5859375 14.9765625 14.6484375 12.7734375 13.078125 15.046875 15.890625 15.8125 14.65625 14.3671875 13.59375 14.7421875 15.8515625 12.8828125 11.5 12.15625 12.609375 11.796875 10.96875 11.71875 12.84375 14.0625 14.546875 14.765625 14.3984375 13.421875 12.0078125 12.921875 13.0078125 11.703125 11.328125 12.4453125 13.6953125 14.1953125 12.7109375 11.40625 11.0234375 12.09375 13.6640625 13.671875 13.84375 14.359375 14.1640625 13.4609375 12.8046875 13.890625 15.109375 12.2578125 11.0234375 12.265625 13.703125 14.1484375 15.2109375 14.78125 12.140625 10.6640625 11.3828125 10.953125 10.1328125 11.03125 13.109375 15.8359375 16.4375 15.6171875 14.3828125 13.4296875 13.7578125 14.8125 14.734375 14.46875 14.234375 13.9140625 12.953125 12.1171875 13.125 15.2109375 15.8515625 16.1015625 15.8828125 14.5703125 13.1875 11.3359375 10.53125 10.421875 11.359375 12.015625 10.8046875 9.53125 10.453125 11.5078125 12.5546875 12.2890625 12.5390625 12.0859375 12.0703125 11.84375 12.6484375 14.4765625 14.6015625 12.96875 13.8203125 15.8984375 15.8359375 16.53125 18.6953125 18.2734375 18.921875 21.3515625 21.796875 20.546875 17.234375 14.0078125 10.7734375 7.359375 4.671875 3.7890625 3.1171875 3.0078125 3.1640625 3.4765625 3.796875 3.9921875 4 4 4 4 4 4 4 4 4 4 4 4 4 4 4 4 4 4 4 4 4.0625 4.453125 5.09375 5.390625 5.578125 7.328125 8.3828125 8.4609375 8.5390625 8.625 8.703125 8.7890625 8.8671875 8.953125 9.03125 9.109375 9.1953125 9.28125 9.4140625 9.6640625 9.9140625 10.0546875 10.109375 9.8671875 9.671875 9.5234375 9.390625 9.25 9.1171875 8.96875 8.703125 8.7109375 9.1171875 9.046875 9.0625 8.7890625 8.7109375
9.4921875 10.21875 10.2421875 10.0234375 7 4.2578125 5.9375 7.21875 10.90625 12.109375 9.8671875 7.1875 4.3359375 2.84375 4.53125 5.8359375 7.8515625 8.8671875 8.6796875 8.6328125 9.96875 11.4296875 11.9375 12.4609375 13.09375 12.8984375 13.5390625 15.5703125 14.046875 13.4296875 15.0859375 15.453125 15.125 14.7265625 13.5390625 11.796875 12.7734375 13.96875 13.0234375 13.1171875 14.3203125 14.546875 13.625 12.6171875 12.7109375 15.28125 16.546875 15.3515625 13.671875 13.484375 13.140625 14.4453125 16.6875 15.8359375 14.3515625 12.6640625 13.4921875 13.2421875 11.7734375 11.5859375 12.703125 14.515625 15.09375 14.3984375 14.03125 12.546875 11.5703125 13.28125 13.0234375 11.2265625 11.921875 12.890625 14.0859375 14.2265625 13.078125 12.1015625 12.1875 12.125 13.8125 15.40625 15.9375 17.5390625 16.5390625 14.6796875 13.6328125 14.546875 15.1640625 11.734375 9.2890625 10.46875 12.8515625 14.0390625 14.4921875 13.8671875 13.3671875 14.4765625 15.5703125 13.828125 11.0625 10.625 12.734375 15.53125 17.59375 16.90625 15.703125 14.78125 14.9453125 14.84375 14.5546875 14.2421875 13.9765625 13.65625 14.03125 14.2265625 14.75 15.0703125 14.7265625 14.9765625 14.2734375 12.8515625 12.6875 12.1953125 11.0625 9.5859375 10.8203125 12.9296875 11.6953125 8.890625 9.28125 11.7109375 14.109375 13.9296875 13.265625 13.2421875 12.8984375 12.4453125 12.046875 12.421875 12.3359375 12.2421875 13.1796875 14.3984375 15.6328125 17.4140625 18.7734375 17.5546875 16.8671875 19.2890625 21 20.6171875 16.96875 13.625 10.1015625 6.75 4.484375 4.65625 4.125 3.4296875 3.59375 3.90625 4.078125 4.015625 4.0234375 4.0390625 4.015625 4 4 4 4 4 4 4 4 4 4 4 4 4 4 4 4 4.125 4.6171875 5.2890625 5.9296875 6.15625 6.234375 6.5234375 8.109375 8.6484375 8.7265625 8.8125 8.890625 8.9765625 9.0546875 9.140625 9.21875 9.296875 9.3828125 9.5546875 9.859375 9.90625 9.96875 10.2265625 10.4765625 10.5078125 10.28125 10.0390625 9.84375 9.6796875 9.546875 9.3671875 9.078125 8.96875 9.2890625 9 8.9296875 8.640625 8.5625
8.71875 9.7734375 10.3515625 8.96875 4.2890625 4.4453125 7 8.515625 9.34375 9.375 7.328125 3.71875 1.390625 -0.0703125 3.0625 6.7578125 7.9375 8.2890625 8.6328125 9.09375 9.9609375 12.265625 12.125 12.0625 12.2734375 11.84375 12.9140625 15.3125 13.828125 12.8828125 14.078125 14.796875 14.8984375 14.5859375 13.5390625 12.765625 13.6171875 13.9453125 13.296875 13.015625 14.125 15.296875 16.8515625 16.1640625 15.1015625 16.4375 16.3515625 13.8125 12.78125 12.6484375 12.8984375 15.40625 15.953125 14.8671875 14.828125 13.96875 15.2265625 14.3203125 13.7421875 13.3359375 15.125 17.640625 16.1796875 13.34375 14.5 13.8515625 12.5625 13.765625 12.453125 11.609375 13.1796875 13.9140625 13.234375 12.9921875 13.109375 12.3125 10.7578125 10.65625 11.7578125 14.5234375 15.5078125 17.984375 18.40625 15.796875 13.921875 13.203125 14.0625 12.984375 11.4375 11.0546875 11.8515625 12.203125 12.1796875 12.8203125 14.0703125 17.171875 16.6328125 15.5078125 13.4453125 12.765625 12.84375 14.84375 16.8671875 14.46875 13.296875 13.8046875 15.0546875 15.3359375 15.4140625 15.3515625 15.171875 14.9296875 15.03125 15.609375 15.5859375 14.5390625 14.171875 15.2890625 14.515625 12.8203125 13.0234375 12.9296875 10.59375 8.4921875 10.078125 13.25 12.34375 8.7890625 9.6484375 12.65625 14.90625 14.2421875 12.8828125 12.46875 13.5390625 12.921875 11.9765625 11.953125 12.453125 14.171875 14.7578125 14.921875 16.421875 17.9140625 18.09375 16.796875 15.34375 17.765625 19.328125 18.53125 16.2578125 14.21875 11.859375 7.6171875 4.28125 4.3125 4.4296875 4.2890625 4.4296875 4.453125 4.1328125 4.0078125 4.0859375 4.1171875 4.0546875 4 4 4 4 4 4 4 4 4 4 4 4 4 4 4.0078125 4.2109375 4.7890625 5.46875 6.1484375 6.75 6.921875 7 7.078125 7.4765625 8.671875 8.9140625 9 9.078125 9.1640625 9.2421875 9.328125 9.421875 9.640625 10.0390625 10.5546875 10.484375 9.7265625 9.421875 9.4453125 9.640625 9.921875 9.984375 10 9.9921875 9.953125 9.921875 9.75 9.4453125 9.2578125 9.4375 9.0234375 8.796875 8.4921875 8.4140625
7.9765625 9.0234375 9.96875 8.015625 5.1640625 5.4296875 6.984375 8.34375 8.3515625 7.71875 3.7421875 -2.109375 2.71875 2.8515625 4.78125 8.640625 8.1875 7.78125 9.9765625 11.828125 11.3828125 12.953125 12.8671875 12.3125 11.6875 11.984375 13.140625 14.3828125 13.9921875 13.328125 13.2109375 13.8203125 14.296875 14.3359375 13.78125 13.8515625 13.7109375 13.6015625 13.953125 14.1953125 15.125 18.015625 20.109375 17.796875 15.703125 15.140625 14.796875 12.9765625 12.2734375 13.046875 14.421875 15.8828125 13.828125 12.875 13.6484375 14.984375 15.703125 14.7890625 14.875 15.0703125 16.578125 17.515625 16.109375 14.4453125 16.265625 15.8203125 14.484375 15.1953125 13.734375 12.421875 13.359375 14.6875 13.7734375 13.4453125 14.9765625 15.1171875 13.6484375 13.7890625 12.71875 13.5625 14.84375 16.734375 17.7734375 14.7421875 12.234375 11.7734375 13.5703125 12.4140625 11.546875 11.140625 9.5390625 9.0859375 9.1953125 8.4609375 9.1484375 14.1640625 16.28125 14.578125 12.6328125 9.484375 8.8515625 9.90625 10.375 10.9140625 11.890625 13.046875 14.75 15.484375 15.5859375 15.6953125 15.8359375 16.109375 15.8359375 15.5078125 15.6796875 15.375 13.2421875 14.6015625 15.1484375 13.421875 12.3359375 10.640625 7.984375 7.2265625 8.3828125 10.7890625 10.640625 9.5078125 11.890625 14.9375 16.4921875 14.40625 13.390625 12.34375 12.0078125 11.84375 12.0078125 12.3125 12.5390625 13.765625 14.4765625 15.25 16.8125 16.8515625 16.859375 17.1953125 16.265625 16.9296875 18.109375 17.8984375 16.4140625 15.578125 14.4453125 9.578125 4.9453125 4 4.0234375 4.5078125 4.7578125 4.328125 4.0234375 4.0625 4.1640625 4.1875 4.1171875 4.0234375 4 4 4 4 4 4 4 4 4 4 4 4 4.03125 4.3359375 4.96875 5.6484375 6.328125 7.0078125 7.5546875 7.6875 7.765625 7.84375 7.921875 8.3515625 9.078125 9.1875 9.265625 9.3515625 9.46875 9.7421875 10.1953125 10.78125 11.3125 11.0859375 10.1640625 9.2421875 8.859375 8.8515625 8.9453125 9.1328125 9.34375 9.53125 9.7109375 9.890625 10.015625 10.25 9.8359375 9.5625 9.5625 9.078125 8.6953125 8.3359375 8.265625
7.4375 7.7734375 7.953125 7.6171875 6.5390625 6.734375 6.9921875 7.859375 7.4609375 6.3984375 2.71875 -2.6484375 3.5546875 5.78125 7.4921875 8.6875 9.046875 8.21875 9.078125 12.140625 11.1953125 10.7109375 10.9375 11.703125 12.1484375 12.71875 13.5703125 14.1875 14.1796875 14.0625 13.5078125 13.15625 13.5 13.8515625 14.359375 14.359375 13.734375 13.234375 13.4375 14.1875 15.0546875 17.1640625 19.921875 17.453125 14.1015625 13.265625 12.765625 11.453125 11.921875 14.4765625 15.1953125 14.28125 12.765625 13.1328125 12.7734375 13.2734375 13.9609375 13.8125 13.8203125 14.875 15.7578125 16.2265625 15.90625 14.8515625 15.5625 16.765625 17.1328125 16.828125 15.3828125 12.609375 12.4453125 13.8984375 13.890625 13.1171875 14.0546875 15.3203125 15.5078125 15.359375 14.109375 13.5546875 14.5234375 15.2109375 15.8203125 13.6015625 11.828125 11.3671875 13.203125 9.9609375 8.3671875 10.6171875 10.4609375 9.5234375 7.734375 6.828125 11.140625 14.703125 15.8203125 13.96875 9.921875 5.875 7.3515625 8.9765625 10.40625 11.078125 11.25 12.3046875 14.140625 15.6015625 15.7421875 15.84375 15.8984375 15.3046875 15.0625 15.4140625 14.890625 14.4921875 13.53125 14.40625 14.515625 13.265625 10.1015625 8.8046875 7.28125 7.421875 7.65625 6.8203125 5.8359375 8.0703125 9.515625 10.765625 12.7421875 12.625 13.6796875 12.9765625 11.5625 11.796875 12.1484375 12.4609375 12.59375 12.671875 13.328125 13.578125 15.2890625 16.0390625 16.828125 17.1015625 16.671875 15.9921875 16.3984375 16.5546875 16.265625 16.3828125 16.546875 12.9296875 8.265625 5.5859375 4.0625 4.109375 4.4375 4.125 4.0234375 4.140625 4.2421875 4.2578125 4.1875 4.0703125 4.0078125 4 4 4 4 4 4 4 4 4 4 4.0703125 4.484375 5.1484375 5.828125 6.5 7.1796875 7.859375 8.3515625 8.4453125 8.53125 8.609375 8.6875 8.765625 9.1015625 9.375 9.53125 9.859375 10.3671875 10.9609375 11.5546875 12.046875 11.59375 10.6484375 9.84375 9.109375 8.734375 8.828125 9.015625 9.21875 9.453125 9.6875 9.8828125 9.890625 10.0703125 10.7890625 10.53125 9.9296875 9.671875 9.140625 8.625 8.171875 8.1171875
6.5078125 5.8984375 6.6640625 7.7265625 8.1640625 8.34375 8.265625 7.90625 6.2265625 4.9375 3.75 2.328125 3.4375 6.5234375 8.2578125 9.4453125 10.59375 7.9140625 7.6640625 10.03125 9.671875 8.9921875 9.1328125 10.7890625 12.359375 13 13.6171875 14.046875 14.375 14.3203125 13.6953125 12.9765625 12.7109375 13.9765625 14.796875 14.5078125 13.90625 13.5234375 13.859375 14.0234375 13.78125 13.796875 16.3515625 17.4609375 15.4375 13.875 11.4140625 9.5078125 10.90625 14.6875 14.4375 12.421875 13.8203125 15.046875 13.9296875 12.5625 12.3125 12.765625 13.2890625 14.8359375 15.6484375 16.8359375 16.921875 14.875 13.3984375 15.0234375 16.6796875 16.90625 16.3203125 13.703125 12.3984375 13.4375 13.9453125 12.4453125 12.3203125 14.0625 14.171875 13.96875 14.5390625 14.1875 14.4453125 13.8515625 13.8984375 14.1484375 13.1953125 12.75 14.5546875 12.15625 9.1875 10.4296875 9.8515625 9.8984375 8.828125 9.4296875 14.8984375 15.40625 15.171875 14.84375 12.5234375 8.6953125 9.3515625 11.53125 13.3125 12.875 11.6796875 11.8515625 13.34375 15.4921875 15.890625 15.890625 15.2890625 14.0234375 14.296875 15.0625 14.515625 14.6796875 14.65625 15.1875 14.390625 12.9609375 9.75 8.734375 8.9921875 9.390625 11.53125 7.5 2.921875 5.40625 8.4140625 9.3359375 9.875 10.9921875 11.828125 11.484375 11.2734375 11.3671875 11.9765625 12.65625 12.6484375 12.296875 11.96875 11.1875 12.0859375 13.8515625 15.9296875 16.609375 15.4921875 14.2265625 15.1015625 15.5859375 16.359375 16.7109375 16.4765625 14.8828125 12.640625 8.8125 5.59375 4.3984375 4.0625 4.0078125 4.0859375 4.21875 4.3203125 4.328125 4.25 4.140625 4.03125 4 4 4 4 4 4 4 4 4 4.140625 4.6484375 5.3203125 6 6.6796875 7.3515625 7.953125 8.453125 8.5078125 8.2890625 8.4296875 8.59375 8.8046875 8.9921875 9.203125 9.4921875 9.9296875 10.5234375 11.125 11.7265625 12.3203125 12.5 11.3671875 10.8046875 10.390625 9.9453125 9.484375 9.1171875 9.109375 9.296875 9.53125 9.7578125 9.8515625 9.71875 10.28125 10.765625 10.515625 10.0703125 9.875 9.375 8.8125 8.328125 8.140625
6.1015625 6.140625 7.15625 8.7109375 9.7578125 9.4921875 8.5703125 6.796875 5.765625 5.609375 4.84375 4.0625 4.328125 6.7109375 8.671875 10.0078125 10.359375 7.4140625 8.0703125 10.09375 10.296875 9.984375 9.390625 10.5625 12.65625 13.1796875 13.609375 13.8359375 14.4296875 14.5625 13.90625 13.3671875 13.0078125 13.703125 14.609375 14.59375 14.125 14.265625 15.3828125 15.5234375 14.3203125 12.4921875 12.4453125 14.1875 15.28125 15.7265625 11.921875 9.3359375 12.0703125 14.28125 13.640625 11.75 13.15625 14.078125 13.3046875 12.71875 12.6640625 13.1484375 14.0234375 16.3515625 18.609375 17.6171875 15.390625 12.8515625 12.5 12.4921875 12.1484375 14.125 17.1640625 16.7421875 15.1875 12.25 11.2109375 11.796875 12.7578125 13.671875 13.125 12.8359375 12.9765625 12.4765625 12.265625 11.6953125 13.3515625 15.484375 15.3125 15.703125 17.1171875 16.7265625 17.09375 15.890625 10.1796875 9.5859375 10.046875 10.5234375 13.875 14.1171875 15.4375 16.40625 14.234375 11.453125 11.2265625 12.7734375 13.8515625 13 11.4296875 11.5234375 13.203125 15.5078125 16.0625 15.765625 15.609375 15 14.453125 14.3359375 13.6328125 13.5234375 13.8984375 14.1875 14.703125 15.5234375 14.8984375 12.59375 12.1953125 13.9296875 17.1171875 14.484375 7.8515625 6.1875 6.1328125 7.7890625 9.5859375 10.5546875 10.828125 10.6796875 10.6953125 10.7265625 11.4921875 12.53125 13.0703125 13 11.6015625 10.6640625 11.421875 11.0234375 12.6640625 14.7890625 13 12.203125 14.1171875 15.3828125 16.046875 16.4296875 15.9375 16.0078125 15.2578125 11.4609375 8.6953125 6.9140625 5.375 4.1796875 4.1171875 4.296875 4.390625 4.3984375 4.3125 4.203125 4.09375 4.0078125 4 4 4 4 4 4 4.0078125 4.234375 4.8203125 5.4921875 6.1171875 6.6484375 7.078125 7.40625 7.6484375 7.875 7.8125 7.234375 7.65625 7.890625 7.90625 8.2890625 9.40625 9.265625 9.125 9.6953125 10.296875 10.8984375 11.5 12.1875 12.34375 11.390625 10.921875 10.6171875 10.2734375 9.8984375 9.53125 9.4140625 9.53125 9.515625 9.421875 9.6015625 9.78125 9.65625 9.703125 9.8515625 10.1171875 10.0234375 9.46875 8.9765625 8.640625
7.046875 6.78125 8.265625 9.765625 10.5 9.53125 7.75 6.4765625 6.5390625 6.78125 6.3125 5.4765625 5.2890625 6.9296875 9.0234375 10.3828125 9.8515625 7.5078125 8.4765625 10.2578125 10.4609375 10.6328125 10.6875 11.1484375 12.765625 13.5546875 13.7421875 13.6015625 14.3359375 14.84375 14.8671875 14.4296875 13.28125 13.640625 14.3125 14.5 14.5859375 15.5703125 16.84375 17 14.765625 12.53125 11.7578125 12.46875 14.5625 15.6640625 12.8046875 11.953125 13.5703125 14.6328125 14.71875 13.734375 12.3984375 12.15625 12.2734375 12.8515625 13.2578125 13.6640625 14.1015625 16.640625 19.7578125 16.296875 12.7109375 10.8359375 11.1953125 10.3671875 8.59375 11.453125 15.375 15.84375 16.0859375 12.7578125 10.21875 12.09375 13.140625 13.109375 13.8515625 12.6796875 11.8125 11.09375 9.9375 10.7578125 12.734375 13.9296875 12.90625 15.25 17.390625 18.78125 19.7109375 18.0078125 12.171875 10.7734375 10.421875 10.0390625 12.34375 13.609375 17.5703125 17.9921875 15.4609375 12.859375 12.375 14.015625 13.8671875 12.2890625 11.5546875 12.2578125 14.21875 15.8203125 15.9296875 15.09375 15.7890625 15.328125 13.3046875 12.9140625 12.8125 12.7578125 12.625 12.9609375 15.3828125 17.0625 17.3671875 15.2578125 14.171875 16.2578125 16.6328125 14.6640625 7.75 5.453125 5.2265625 6.46875 9.515625 10.546875 10.953125 10.1953125 10.1328125 10.359375 11.3828125 12.9453125 13.3203125 13.6015625 11.625 11.125 11.8359375 11.453125 11.640625 12.75 10.890625 10.2578125 13.0703125 14.4609375 15.03125 15.1015625 15.5859375 16.375 17.2421875 14.203125 11.2890625 9.4765625 7.515625 5.2265625 4.046875 4.25 4.4375 4.4609375 4.375 4.2421875 4.0625 4.0390625 4.09375 4.0390625 4 4 4 4.015625 4.2734375 4.8203125 5.328125 5.71875 6.0078125 6.2421875 6.46875 6.6875 6.8828125 7.0703125 7.1953125 7.0703125 6.8671875 6.6015625 7.28125 8.8125 9.921875 9.2421875 8.4921875 8.8046875 9.3984375 10 10.6015625 11.265625 12.21875 12.2734375 11.359375 10.953125 10.640625 10.328125 10.015625 9.703125 9.453125 9.234375 9.1171875 9.2109375 9.34375 9.4921875 9.640625 9.7890625 10.078125 10.4609375 10.1015625 9.5703125 9.328125
